modules/luts/cube_folder/Autumn Rich.CUBE
TITLE "Generated by Resolve"
LUT_3D_SIZE 33
0 0 0
0.0343786 0 0.0197147
0.0697032 0 0.0453651
0.105287 0 0.0725109
0.140383 0 0.0966964
0.175479 0 0.120867
0.210575 0 0.145006
0.24564 0 0.168994
0.280644 0 0.192554
0.315526 0 0.21532
0.350195 0 0.236805
0.384634 0 0.256809
0.418845 0 0.275456
0.452934 0 0.293233
0.486931 0 0.310491
0.520928 0 0.327749
0.555016 0 0.345617
0.589288 0 0.364538
0.623728 0 0.384619
0.658305 0 0.405493
0.692805 0 0.42594
0.72694 0 0.443992
0.76025 0 0.456992
0.792462 0 0.46302
0.823484 0 0.461524
0.853452 0 0.453544
0.882689 0 0.440894
0.912963 0 0.43473
0.944823 0 0.438529
0.983444 0 0.484886
1 0 0.560845
1 0 0.678889
1 0 0.777707
0.0251164 0.0261997 0
0.0603494 0.0217746 0.0056611
0.0955978 0.0173495 0.0307774
0.130846 0.0129091 0.0558785
0.166094 0.00848402 0.0809949
0.201343 0.0040589 0.106111
0.236591 0 0.131228
0.271839 0 0.156344
0.307088 0 0.181445
0.342336 0 0.206561
0.376822 0 0.228931
0.410544 0 0.248249
0.444205 0 0.266911
0.477897 0 0.285359
0.511742 0 0.304112
0.54583 0 0.323644
0.580163 0 0.344076
0.614664 0 0.365164
0.649104 0 0.385916
0.683101 0 0.404608
0.716167 0 0.418906
0.747936 0 0.426932
0.778317 0 0.428122
0.807538 0 0.423331
0.835966 0 0.414099
0.863951 0 0.402304
0.891981 0 0.390112
0.922316 0 0.38883
0.955627 0 0.402152
0.997955 0 0.460761
1 0 0.548882
1 0 0.672801
1 0 0.770733
0.050248 0.0524147 0
0.085481 0.0479896 0
0.120729 0.0435492 0.0113222
0.155978 0.0391241 0.0364385
0.191226 0.034699 0.0615396
0.226474 0.0302739 0.086656
0.261723 0.0258488 0.111772
0.296971 0.0214084 0.136889
0.332219 0.0169833 0.162005
0.367468 0.0125582 0.187106
0.40174 0.0087129 0.209918
0.435554 0.00520333 0.23125
0.469444 0.00170901 0.252369
0.503532 0 0.273671
0.53785 0 0.295415
0.572335 0 0.317479
0.606744 0 0.339147
0.64062 0 0.359014
0.673411 0 0.37496
0.704723 0 0.385351
0.734478 0 0.389593
0.762936 0 0.388327
0.790509 0 0.382803
0.817639 0 0.374624
0.844831 0 0.365728
0.872663 0 0.358419
0.901686 0 0.355169
0.934325 0 0.365972
0.970642 0 0.391669
1 0 0.45864
1 0 0.549935
1 0 0.671031
1 0 0.763546
0.0753796 0.0786297 0
0.110613 0.0741894 0
0.145861 0.0697642 0
0.181109 0.0653391 0.0169833
0.216358 0.060914 0.0420996
0.251606 0.0564889 0.067216
0.286854 0.0520485 0.0923171
0.322103 0.0476234 0.117433
0.356329 0.0436713 0.141192
0.390066 0.0400244 0.163836
0.424033 0.0363012 0.186389
0.458351 0.0324559 0.209216
0.493034 0.0284276 0.232532
0.527962 0.0242771 0.256245
0.562814 0.0201724 0.279759
0.59707 0.016434 0.301808
0.63003 0.0135195 0.320516
0.66125 0.0117494 0.334279
0.690654 0.0112612 0.342428
0.718563 0.0118868 0.345403
0.745449 0.0133516 0.344182
0.771817 0.0153201 0.340169
0.79826 0.0174258 0.335073
0.825406 0.0191958 0.330938
0.85388 0.0201267 0.330053
0.884047 0.0199588 0.333883
0.915785 0.0187228 0.342458
0.950912 0.0150149 0.362249
0.989044 0.0090486 0.392538
1 0 0.456672
1 0 0.534798
1 0 0.639261
1 0 0.719615
0.100511 0.104829 0
0.135744 0.100404 0
0.170993 0.0959793 0
0.206241 0.0915541 0
0.241489 0.087129 0.0226444
0.276738 0.0826886 0.0477607
0.310872 0.0786908 0.072221
0.344366 0.0749828 0.0957961
0.378134 0.0712291 0.119066
0.412329 0.0673533 0.142336
0.446937 0.0633249 0.165866
0.481834 0.0591745 0.189654
0.516686 0.0550546 0.213321
0.550927 0.0512398 0.23595
0.583841 0.0481575 0.256031
0.614908 0.046128 0.272221
0.644068 0.0452735 0.283803
0.671641 0.0454566 0.290929
0.698146 0.0464485 0.294316
0.724117 0.0479438 0.295033
0.750195 0.0495613 0.294453
0.777005 0.0509194 0.294301
0.805249 0.0515297 0.296559
0.835279 0.0511177 0.302586
0.867002 0.0496986 0.312596
0.899763 0.0476234 0.325185
0.932616 0.0455177 0.337865
0.966842 0.0424811 0.354452
1 0.0395056 0.370871
1 0.0314488 0.409506
1 0.0218814 0.455299
1 0.00340276 0.541146
1 0 0.623743
0.120775 0.132021 0
0.160876 0.126619 0
0.196124 0.122194 0
0.231373 0.117769 0
0.265431 0.113695 0.00317388
0.29868 0.109941 0.0276799
0.33225 0.106157 0.0516823
0.366308 0.102266 0.0754406
0.400839 0.0982223 0.0991989
0.435721 0.0940719 0.123064
0.470558 0.0899367 0.146853
0.504738 0.0860914 0.169879
0.537469 0.0829328 0.191012
0.5682 0.080766 0.209018
0.596841 0.0797436 0.223133
0.623728 0.0797436 0.233326
0.649454 0.0805371 0.240055
0.674632 0.0818341 0.244144
0.699947 0.0832685 0.246784
0.726146 0.0844434 0.249485
0.753979 0.0848707 0.254093
0.783886 0.0842756 0.261921
0.815717 0.0826429 0.273259
0.848722 0.080354 0.286931
0.881621 0.0781415 0.300237
0.912764 0.0770123 0.309316
0.940414 0.0780652 0.309575
0.966659 0.0800793 0.305577
0.991562 0.0830549 0.297246
1 0.0803693 0.311666
1 0.0749371 0.337514
1 0.0562295 0.419318
1 0.0344549 0.515435
0.132921 0.16083 0
0.180667 0.154025 0
0.183429 0.157717 0
0.227237 0.151797 0
0.270954 0.145525 0
0.309911 0.140368 0.00796521
0.344121 0.136584 0.0304417
0.378729 0.132692 0.0528725
0.413367 0.128786 0.0752728
0.447578 0.125063 0.0973526
0.480751 0.121767 0.118578
0.512474 0.119097 0.138216
0.542657 0.117159 0.155764
0.571572 0.115892 0.171054
0.599649 0.11516 0.184222
0.627344 0.114748 0.195651
0.655131 0.114458 0.205966
0.683574 0.114015 0.216022
0.713191 0.113115 0.226856
0.744289 0.111543 0.239322
0.776822 0.109316 0.253697
0.810224 0.106661 0.269383
0.843626 0.104005 0.284993
0.875914 0.101976 0.298405
0.905913 0.101228 0.307118
0.933043 0.102159 0.309453
0.957397 0.104799 0.305043
0.982498 0.107164 0.301045
1 0.108904 0.298833
1 0.105501 0.316045
1 0.0998093 0.342306
1 0.0842145 0.408026
1 0.0661326 0.484825
0.145403 0.189578 0
0.193042 0.183032 0
0.236713 0.176944 0
0.273014 0.172412 0
0.30869 0.168017 0
0.343496 0.163867 0
0.378317 0.159701 0.0138552
0.412528 0.155764 0.0376593
0.44535 0.1523 0.0608377
0.476356 0.149569 0.0827497
0.505562 0.147601 0.102815
0.533364 0.146319 0.120806
0.560327 0.145556 0.136751
0.586923 0.145129 0.150881
0.613687 0.144823 0.163699
0.641215 0.144381 0.175875
0.670039 0.143511 0.188327
0.700542 0.142 0.201846
0.732616 0.139834 0.2168
0.765698 0.137224 0.232792
0.798825 0.1346 0.248737
0.830854 0.132555 0.262852
0.860502 0.131731 0.272969
0.88716 0.132525 0.277546
0.910857 0.134981 0.276066
0.932296 0.138811 0.26923
0.952331 0.143587 0.258213
0.97409 0.147646 0.248814
0.998123 0.150607 0.242542
1 0.147753 0.256748
1 0.140902 0.285786
1 0.122271 0.359121
1 0.10016 0.447196
0.162356 0.217441 0
0.213703 0.210178 0
0.259297 0.203708 0
0.296254 0.199039 0
0.33225 0.194583 0
0.366644 0.190539 0
0.399878 0.186877 0
0.431418 0.18378 0.0187381
0.461189 0.181353 0.0410468
0.489479 0.179568 0.0618601
0.516777 0.178286 0.0809644
0.543603 0.177371 0.0984054
0.570474 0.176638 0.114412
0.597925 0.17583 0.129442
0.626596 0.174716 0.144198
0.65687 0.173053 0.159365
0.688746 0.170809 0.175357
0.721675 0.16817 0.192065
0.754665 0.165515 0.208652
0.786496 0.163394 0.223743
0.815885 0.162432 0.235492
0.842115 0.163058 0.242451
0.865187 0.165301 0.244022
0.885801 0.168933 0.240604
0.904906 0.173526 0.233204
0.923506 0.178607 0.223194
0.942672 0.183642 0.212268
0.964782 0.187366 0.204639
0.990478 0.189364 0.202029
1 0.185046 0.220432
1 0.175692 0.256489
1 0.154086 0.33637
1 0.129122 0.430335
0.182956 0.244556 0
0.237003 0.236744 0
0.283513 0.230076 0
0.3196 0.225635 0
0.353643 0.221698 0
0.385 0.218524 0
0.41445 0.215991 0
0.442313 0.214084 0.000640879
0.469108 0.21268 0.0219272
0.495399 0.211643 0.0416266
0.521828 0.210742 0.0598306
0.549035 0.209766 0.0768902
0.577676 0.208423 0.09337
0.608164 0.206531 0.109911
0.640452 0.204028 0.126986
0.67393 0.201099 0.144579
0.707515 0.198123 0.162188
0.73991 0.195666 0.178668
0.769665 0.194339 0.192462
0.795941 0.194583 0.202167
0.818738 0.19649 0.20708
0.838819 0.199802 0.207401
0.857221 0.204105 0.203922
0.875029 0.208927 0.197742
0.89337 0.213748 0.190341
0.913436 0.21799 0.18352
0.936385 0.221012 0.179355
0.96318 0.222293 0.179797
0.993194 0.222049 0.184619
1 0.216266 0.206836
1 0.205585 0.245548
1 0.18291 0.324895
1 0.158068 0.413901
0.199786 0.272435 0
0.253758 0.264714 0
0.301167 0.257954 0
0.336095 0.25388 0
0.367742 0.250645 0
0.395178 0.248615 0
0.421469 0.247089 0
0.447227 0.245914 0
0.473106 0.244907 0.00503548
0.499809 0.243839 0.0239719
0.528023 0.242435 0.041886
0.558206 0.240513 0.0593576
0.590326 0.23801 0.0768749
0.623728 0.23508 0.0946212
0.657328 0.23209 0.112367
0.689738 0.229557 0.129351
0.719524 0.228061 0.14435
0.745769 0.228046 0.156176
0.768444 0.229603 0.164065
0.788312 0.232517 0.168032
0.806409 0.236393 0.168536
0.823896 0.240787 0.166445
0.841886 0.245228 0.162905
0.861616 0.249134 0.159442
0.884276 0.251911 0.157855
0.910475 0.253223 0.159426
0.939895 0.253132 0.164401
0.971283 0.252155 0.171649
1 0.250996 0.179355
1 0.245792 0.1991
1 0.237049 0.230106
1 0.217746 0.294835
1 0.197513 0.364599
0.198672 0.303914 0
0.253544 0.2963 0
0.305592 0.288808 0
0.342321 0.28452 0
0.373861 0.281498 0
0.399084 0.280201 0
0.42443 0.279072 0
0.450614 0.277913 0
0.478401 0.276463 0
0.508263 0.27451 0.00875868
0.5402 0.271992 0.0267491
0.573526 0.269062 0.0446632
0.607111 0.266056 0.0625315
0.639506 0.263478 0.0799115
0.669184 0.261891 0.0959182
0.695155 0.261738 0.109529
0.717357 0.263111 0.119951
0.736568 0.265812 0.126955
0.753902 0.26949 0.1308
0.770581 0.273716 0.132067
0.787808 0.277958 0.131701
0.806882 0.281697 0.130999
0.829114 0.284337 0.131563
0.855131 0.285512 0.134615
0.884627 0.285283 0.140551
0.916243 0.284153 0.14844
0.948119 0.282933 0.156512
0.978241 0.282506 0.162387
1 0.283742 0.163592
1 0.282322 0.171817
1 0.278202 0.187762
1 0.263462 0.235203
1 0.247532 0.287785
0.180972 0.338704 0
0.239475 0.33077 0
0.30074 0.321645 0
0.346975 0.315435 0
0.35375 0.318669 0
0.388663 0.315282 0
0.421836 0.312337 0
0.453666 0.309789 0
0.485344 0.307332 0
0.518532 0.304463 0
0.55201 0.301534 0.0124208
0.584146 0.299031 0.0298009
0.613184 0.297581 0.0462959
0.638102 0.297581 0.0610208
0.659159 0.299077 0.0732586
0.677348 0.301778 0.0826734
0.693858 0.305348 0.0893111
0.709621 0.309468 0.0934157
0.725948 0.313649 0.0956741
0.744183 0.317372 0.0971237
0.765682 0.320043 0.0991379
0.79115 0.321294 0.102876
0.82031 0.321157 0.108797
0.851759 0.320134 0.116335
0.883757 0.318883 0.124269
0.914656 0.31812 0.131044
0.94313 0.318425 0.135149
0.968566 0.320119 0.135531
0.991058 0.323217 0.131853
1 0.323293 0.135454
1 0.320256 0.147234
1 0.306279 0.18941
1 0.289799 0.240269
0.175174 0.371115 0
0.235843 0.362982 0
0.2963 0.354299 0
0.33904 0.349172 0
0.376837 0.345083 0
0.40763 0.342687 0
0.439963 0.339956 0
0.473136 0.337026 0
0.506645 0.33402 0
0.538888 0.331395 0
0.568093 0.329717 0
0.593103 0.329412 0.0157321
0.613886 0.330602 0.0309148
0.631312 0.333089 0.0437476
0.646662 0.336553 0.0539559
0.66125 0.340566 0.0616465
0.676432 0.344656 0.0672618
0.693614 0.348318 0.0716106
0.714199 0.350988 0.0757916
0.738979 0.35227 0.0809033
0.767666 0.352193 0.0874952
0.798825 0.351217 0.0953078
0.83064 0.349996 0.103441
0.861387 0.349218 0.110643
0.889677 0.349462 0.115618
0.914809 0.35108 0.117388
0.936873 0.35407 0.115557
0.956619 0.358175 0.110414
0.975021 0.363027 0.102678
0.999878 0.365225 0.100572
1 0.364797 0.10457
1 0.353796 0.135943
1 0.338109 0.181079
0.158801 0.405646 0
0.227436 0.396155 0
0.29604 0.385962 0
0.345052 0.379583 0
0.387915 0.374411 0
0.422278 0.371176 0
0.456474 0.367987 0
0.488838 0.365286 0
0.518257 0.363424 0
0.543481 0.362844 0
0.564355 0.363684 0
0.581674 0.365805 0.00236515
0.59678 0.368887 0.0161135
0.610971 0.372534 0.027451
0.625666 0.376333 0.0365759
0.642298 0.379767 0.0439918
0.662348 0.382284 0.0505684
0.686641 0.383505 0.0572366
0.715007 0.383413 0.064683
0.745983 0.382452 0.0728923
0.777707 0.381216 0.0813153
0.808347 0.380407 0.0890211
0.836484 0.380591 0.0949111
0.861341 0.382101 0.0981003
0.883009 0.38497 0.098146
0.90222 0.388952 0.095201
0.920027 0.393683 0.0897993
0.937423 0.398764 0.0826734
0.955535 0.403708 0.074815
0.979294 0.406424 0.0711986
1 0.406943 0.072282
1 0.397223 0.0980697
1 0.380697 0.142153
0.151263 0.438407 0
0.228779 0.427253 0
0.305379 0.415473 0
0.359564 0.408011 0
0.404822 0.402304 0
0.438163 0.399344 0
0.468009 0.397269 0
0.493019 0.396551 0
0.513466 0.397223 0
0.53019 0.399145 0
0.544533 0.402029 0
0.557946 0.405493 0
0.571862 0.40911 0.00444038
0.587823 0.412375 0.0146944
0.607401 0.414755 0.0234684
0.631479 0.415854 0.031632
0.659846 0.415656 0.0399023
0.691035 0.414557 0.0485389
0.723049 0.413199 0.0573129
0.753994 0.412238 0.0655833
0.782315 0.412222 0.0724651
0.807187 0.413535 0.0771496
0.828656 0.41622 0.0791638
0.847517 0.42002 0.0784924
0.864836 0.424582 0.0755016
0.881697 0.429511 0.0707866
0.899214 0.434348 0.0651255
0.918578 0.438621 0.059617
0.940887 0.44184 0.055436
0.967849 0.443244 0.054551
0.99826 0.443259 0.0564431
1 0.434028 0.0793774
1 0.416526 0.123003
0.15349 0.469215 0
0.237385 0.456825 0
0.317845 0.444282 0
0.371817 0.436927 0
0.414389 0.431922 0
0.441215 0.43061 0
0.462608 0.430777 0
0.478721 0.432517 0
0.492348 0.435203 0
0.504921 0.438483 0
0.518013 0.441932 0
0.533181 0.445075 0
0.552056 0.447364 0
0.575616 0.448447 0.00569162
0.603662 0.448249 0.0146487
0.634714 0.447181 0.0235142
0.666728 0.445808 0.0324102
0.697704 0.444785 0.0409705
0.726055 0.444678 0.0485847
0.750912 0.445823 0.054551
0.772274 0.44831 0.0583658
0.790936 0.451881 0.0598917
0.80798 0.456214 0.0593271
0.824537 0.460914 0.0570382
0.841733 0.465568 0.0536965
0.860761 0.469688 0.0501411
0.88278 0.472801 0.0474556
0.908324 0.474647 0.0464485
0.937057 0.475288 0.0473182
0.967712 0.475196 0.049485
0.998993 0.474845 0.052079
1 0.466102 0.0726787
1 0.448783 0.11342
0.156725 0.499825 0
0.239689 0.487694 0
0.317311 0.475898 0
0.366079 0.469902 0
0.403723 0.466239 0
0.424338 0.466621 0
0.440192 0.468391 0
0.451972 0.471473 0
0.46421 0.474754 0
0.478584 0.477775 0
0.496757 0.480003 0
0.519768 0.481041 0
0.547494 0.480858 0
0.578408 0.479789 0
0.610391 0.478416 0.00747692
0.641382 0.477348 0.0163119
0.669688 0.477165 0.0245823
0.694408 0.478218 0.0317082
0.71548 0.480568 0.0372015
0.733745 0.484001 0.0407568
0.750286 0.488197 0.0423896
0.766293 0.492775 0.0423438
0.782956 0.497322 0.0411078
0.801495 0.50135 0.039353
0.823148 0.504402 0.0380407
0.848478 0.506203 0.0379034
0.87718 0.506798 0.0392462
0.907912 0.506645 0.0416419
0.939193 0.506279 0.0443427
0.969726 0.506233 0.0464637
0.998627 0.506828 0.0472267
1 0.499596 0.0635843
1 0.484504 0.0972152
0.147494 0.532921 0
0.223774 0.522362 0
0.295048 0.5122 0
0.338582 0.507668 0
0.377157 0.504128 0
0.406775 0.502647 0
0.397848 0.510704 0
0.421424 0.511147 0
0.441474 0.512627 0
0.463951 0.513649 0
0.491325 0.513466 0
0.522087 0.512398 0
0.55404 0.511025 0
0.585046 0.509926 0
0.613336 0.509682 0.000503548
0.637903 0.510613 0.00877394
0.658717 0.512825 0.0158846
0.676585 0.516136 0.0214542
0.692638 0.520195 0.0252995
0.708095 0.524651 0.0274968
0.724178 0.529091 0.0283513
0.742184 0.533059 0.028397
0.763363 0.53608 0.0284123
0.788342 0.537881 0.0290837
0.816815 0.538491 0.0307774
0.847471 0.538338 0.0332952
0.878737 0.537987 0.0360571
0.909285 0.537896 0.0383459
0.938155 0.53846 0.0395056
0.96492 0.539879 0.0390478
0.989685 0.542107 0.0367742
1 0.537484 0.0469978
1 0.526406 0.0704204
0.119432 0.569802 0
0.187259 0.561288 0
0.254444 0.552392 0
0.298421 0.54815 0
0.338598 0.54464 0
0.363226 0.544701 0
0.386252 0.545266 0
0.408164 0.546258 0
0.435187 0.546075 0
0.465782 0.545007 0
0.497704 0.543633 0
0.528725 0.542504 0
0.557 0.542184 0
0.581445 0.543008 0
0.601999 0.545098 0
0.619471 0.548272 0.00199893
0.635035 0.552193 0.0080415
0.649927 0.556527 0.0124819
0.665461 0.560861 0.0154574
0.682918 0.564767 0.0173342
0.703609 0.567758 0.0187076
0.728222 0.569543 0.0202335
0.756481 0.570169 0.0223239
0.787045 0.570047 0.0249485
0.818296 0.56968 0.0277714
0.848844 0.569574 0.0302281
0.877699 0.570092 0.0317693
0.904402 0.571435 0.0319677
0.92903 0.573602 0.0305791
0.952087 0.576425 0.0277104
0.974273 0.579675 0.0236362
1 0.577707 0.0281529
1 0.571237 0.0411383
0.0811933 0.608713 0
0.142336 0.601923 0
0.209949 0.593332 0
0.260838 0.587961 0
0.31043 0.582635 0
0.345434 0.580499 0
0.379034 0.578683 0
0.409476 0.57763 0
0.441367 0.576242 0
0.472404 0.575082 0
0.500648 0.574685 0
0.525002 0.575418 0
0.545312 0.577386 0
0.562387 0.580423 0
0.577462 0.584207 0
0.591821 0.588418 0
0.606775 0.592645 0.00241093
0.623667 0.596475 0.00613413
0.643885 0.599435 0.00892653
0.668132 0.601221 0.0113222
0.696162 0.601862 0.0138399
0.726619 0.60174 0.0166018
0.757855 0.601373 0.0194705
0.788418 0.601251 0.0220951
0.817258 0.601724 0.0240177
0.843885 0.603006 0.0248264
0.868376 0.605112 0.0243076
0.891249 0.607858 0.0224765
0.913176 0.611032 0.0195163
0.93492 0.614374 0.0157321
0.958816 0.616999 0.0124819
0.99472 0.615122 0.016144
1 0.60911 0.0271611
0.06598 0.643015 0
0.131533 0.635447 0
0.209644 0.62475 0
0.276265 0.615976 0
0.340902 0.607202 0
0.387701 0.602182 0
0.428565 0.598398 0
0.461082 0.596582 0
0.490593 0.595529 0
0.515953 0.595605 0
0.537011 0.596887 0
0.55462 0.599252 0
0.570047 0.602396 0
0.584649 0.605966 0
0.599771 0.609598 0
0.616815 0.612848 0
0.637186 0.61529 0
0.661692 0.616587 0.00404364
0.690105 0.61677 0.00926223
0.72105 0.61619 0.0144808
0.75285 0.615351 0.0197299
0.783978 0.61474 0.0248264
0.813352 0.614694 0.0294347
0.840452 0.615457 0.0332189
0.865324 0.617029 0.0359197
0.888487 0.619257 0.0374762
0.910689 0.621897 0.037995
0.934462 0.624079 0.038468
0.952117 0.628534 0.035523
0.971298 0.632578 0.0323186
0.988998 0.637263 0.0274205
1 0.635218 0.0320134
1 0.632197 0.0383764
0.0765393 0.672145 0
0.13637 0.665736 0
0.217853 0.654337 0
0.292576 0.643793 0
0.362112 0.633906 0
0.408637 0.628901 0
0.444892 0.626184 0
0.469444 0.626276 0
0.489677 0.627558 0
0.506386 0.629877 0
0.520897 0.632959 0
0.534554 0.636484 0
0.54876 0.64007 0
0.56495 0.643305 0
0.584543 0.645747 0
0.608423 0.647089 0
0.636362 0.647318 0
0.667018 0.646784 0
0.698619 0.645975 0.0052491
0.729595 0.64538 0.0106355
0.758816 0.645335 0.0157168
0.785718 0.646052 0.0202182
0.81033 0.647578 0.0238804
0.833188 0.649744 0.026566
0.855009 0.652354 0.0282902
0.876554 0.655146 0.0291752
0.898589 0.657877 0.0294957
0.923415 0.659709 0.0301518
0.951827 0.660349 0.0318151
0.984176 0.659617 0.0349889
1 0.658656 0.0385138
1 0.657771 0.0419928
1 0.657267 0.0449836
0.084535 0.701793 0
0.147204 0.694774 0
0.233158 0.682414 0
0.310506 0.67129 0
0.377523 0.661952 0
0.416968 0.658564 0
0.444175 0.658 0
0.459861 0.660304 0
0.473304 0.663355 0
0.485893 0.666835 0
0.499062 0.67039 0
0.51426 0.673625 0
0.532998 0.676081 0
0.55613 0.67747 0
0.583535 0.677775 0
0.613809 0.677287 0
0.645151 0.676524 0
0.675929 0.675929 0
0.704952 0.675868 0.00102235
0.73164 0.67657 0.00627146
0.755962 0.67805 0.0109255
0.77847 0.680186 0.0147707
0.799893 0.68275 0.0177462
0.821027 0.685512 0.0198825
0.842634 0.688212 0.0213474
0.865522 0.690578 0.0224308
0.890486 0.692332 0.0235142
0.919097 0.692882 0.02533
0.951125 0.692271 0.0282292
0.985779 0.690745 0.0321965
1 0.689403 0.0360876
1 0.688441 0.0396277
1 0.687907 0.042649
0.0879225 0.732372 0
0.150423 0.725383 0
0.234806 0.713405 0
0.3075 0.703365 0
0.368032 0.695567 0
0.400519 0.693904 0
0.424704 0.694209 0
0.446281 0.695216 0
0.436652 0.704051 0
0.460456 0.704906 0
0.48101 0.706706 0
0.50367 0.70808 0
0.530694 0.70837 0
0.560708 0.707912 0
0.591852 0.707149 0
0.622492 0.706554 0
0.651362 0.706477 0
0.677836 0.707134 0
0.7019 0.708568 0
0.724071 0.710643 0.00198367
0.745129 0.713161 0.00622568
0.76585 0.715877 0.00965896
0.78703 0.718547 0.0123445
0.809522 0.720897 0.0144656
0.834089 0.722667 0.0163424
0.860441 0.723903 0.018143
0.887266 0.725032 0.0196841
0.916365 0.725429 0.0215763
0.94844 0.724849 0.0242771
0.98526 0.722606 0.0287327
1 0.720592 0.0332036
1 0.719097 0.0372931
1 0.718563 0.0403143
0.0890211 0.763394 0
0.146654 0.757443 0
0.222782 0.74728 0
0.287205 0.739178 0
0.341421 0.732982 0
0.370611 0.732265 0
0.391806 0.733471 0
0.406378 0.73637 0
0.424521 0.738582 0
0.447242 0.739803 0
0.474479 0.739986 0
0.504845 0.739391 0
0.5364 0.738491 0
0.567407 0.737758 0
0.596536 0.73756 0
0.623117 0.738094 0
0.64715 0.739406 0
0.669169 0.741375 0
0.689982 0.743801 0
0.710414 0.746441 0
0.731273 0.74905 0.00239567
0.753414 0.751369 0.00560006
0.777417 0.753201 0.00831617
0.802869 0.754635 0.0106661
0.828443 0.7561 0.012604
0.852506 0.758083 0.0138552
0.874556 0.760815 0.0141299
0.901747 0.761913 0.0151064
0.936324 0.76054 0.0179599
0.980255 0.755947 0.0240635
1 0.752178 0.0299992
1 0.749752 0.0349584
1 0.749218 0.0379644
0.0882429 0.794812 0
0.13785 0.790539 0
0.201801 0.783032 0
0.25774 0.776928 0
0.30869 0.771679 0
0.340414 0.770611 0
0.366964 0.770748 0
0.389288 0.771954 0
0.416236 0.772122 0
0.446494 0.771542 0
0.47808 0.770642 0
0.509209 0.769863 0
0.538537 0.769558 0
0.565362 0.769955 0
0.589609 0.771115 0
0.611795 0.772915 0
0.632715 0.775158 0
0.653193 0.777615 0
0.674052 0.780087 0
0.696086 0.782315 0
0.719646 0.784161 0
0.74432 0.785748 0.00257877
0.768902 0.787411 0.00512703
0.792264 0.789532 0.00709545
0.813886 0.792264 0.00827039
0.834058 0.795544 0.00856031
0.853574 0.799146 0.00798047
0.88246 0.799756 0.00875868
0.922423 0.796704 0.0122377
0.974777 0.789395 0.0198215
1 0.783764 0.0269627
1 0.780377 0.0326543
1 0.778378 0.0372778
0.100679 0.82356 0
0.160098 0.817227 0
0.233036 0.807752 0
0.302052 0.798703 0
0.368017 0.789944 0
0.417639 0.784558 0
0.460487 0.78056 0
0.495964 0.77821 0
0.531838 0.775738 0
