modules/luts/cube_folder/Autumn Rich.CUBE
TITLE "Generated by Resolve"
LUT_3D_SIZE 9
0 0 0
0.140383 0 0.0966964
0.280644 0 0.192554
0.418845 0 0.275456
0.555016 0 0.345617
0.692805 0 0.42594
0.823484 0 0.461524
0.944823 0 0.438529
1 0 0.777707
0.100511 0.104829 0
0.241489 0.087129 0.0226444
0.378134 0.0712291 0.119066
0.516686 0.0550546 0.213321
0.644068 0.0452735 0.283803
0.750195 0.0495613 0.294453
0.867002 0.0496986 0.312596
1 0.0395056 0.370871
1 0 0.623743
0.162356 0.217441 0
0.33225 0.194583 0
0.461189 0.181353 0.0410468
0.570474 0.176638 0.114412
0.688746 0.170809 0.175357
0.815885 0.162432 0.235492
0.904906 0.173526 0.233204
0.990478 0.189364 0.202029
1 0.129122 0.430335
0.180972 0.338704 0
0.35375 0.318669 0
0.485344 0.307332 0
0.613184 0.297581 0.0462959
0.693858 0.305348 0.0893111
0.765682 0.320043 0.0991379
0.883757 0.318883 0.124269
0.991058 0.323217 0.131853
1 0.289799 0.240269
0.15349 0.469215 0
0.414389 0.431922 0
0.492348 0.435203 0
0.552056 0.447364 0
0.666728 0.445808 0.0324102
0.772274 0.44831 0.0583658
0.841733 0.465568 0.0536965
0.937057 0.475288 0.0473182
1 0.448783 0.11342
0.0811933 0.608713 0
0.31043 0.582635 0
0.441367 0.576242 0
0.545312 0.577386 0
0.606775 0.592645 0.00241093
0.696162 0.601862 0.0138399
0.817258 0.601724 0.0240177
0.913176 0.611032 0.0195163
1 0.60911 0.0271611
0.0879225 0.732372 0
0.368032 0.695567 0
0.436652 0.704051 0
0.530694 0.70837 0
0.651362 0.706477 0
0.745129 0.713161 0.00622568
0.834089 0.722667 0.0163424
0.94844 0.724849 0.0242771
1 0.718563 0.0403143
0.19707 0.835492 0
0.413001 0.811444 0
0.566934 0.798947 0
0.663203 0.800519 0
0.751263 0.805631 0
0.847196 0.809888 0
0.928298 0.819837 0.0129549
1 0.812024 0.0376593
1 0.774929 0.0916457
0.288273 0.942199 0
0.450858 0.928908 0
0.559869 0.927123 0
0.653925 0.929839 0
0.731441 0.938125 0
0.836439 0.940261 0
0.945251 0.94197 0
1 0.957748 0.0119631
1 0.897917 0.0610513
0 0.0130617 0.117174
0.0922103 0.00657664 0.150362
0.223316 0.000762951 0.181231
0.351415 0 0.220844
0.480797 0 0.263539
0.610727 0 0.31223
0.743267 0 0.315068
0.873762 0 0.310918
1 0 0.502892
0 0.136522 0.0595712
0.124987 0.124987 0.124987
0.258579 0.115465 0.178958
0.391821 0.10634 0.230701
0.520958 0.101762 0.256672
0.645685 0.102068 0.254994
0.773648 0.0988022 0.273503
0.905119 0.0916152 0.314199
1 0.0614786 0.485161
0.053666 0.248432 0.0118105
0.186679 0.237613 0.0772412
0.309972 0.230488 0.136645
0.43769 0.223682 0.183246
0.571939 0.214481 0.233295
0.69749 0.209888 0.267765
0.799191 0.220356 0.240681
0.909407 0.227848 0.216922
1 0.177447 0.439673
0.0853132 0.364569 0.00694286
0.254276 0.349065 0.024918
0.387808 0.338155 0.0899672
0.508141 0.331716 0.150866
0.596841 0.338643 0.181659
0.700191 0.34345 0.194842
0.828534 0.338979 0.221866
0.934508 0.345617 0.214572
1 0.323461 0.296696
0.101686 0.484764 0.00610361
0.319966 0.460899 0
0.389471 0.46566 0.0665904
0.490211 0.466865 0.113756
0.615045 0.462593 0.147356
0.712703 0.468482 0.165393
0.798276 0.481132 0.159014
0.914214 0.483543 0.16141
1 0.461463 0.223117
0.0387732 0.618677 0.0836347
0.256916 0.59855 0.0228733
0.396902 0.590448 0.0509194
0.490211 0.594186 0.0957046
0.567651 0.604883 0.123507
0.680674 0.606897 0.135805
0.797269 0.608408 0.143725
0.894057 0.617838 0.136141
1 0.621836 0.131029
0.0125734 0.747845 0.112337
0.247181 0.725505 0.0304112
0.355138 0.725978 0.0664836
0.47454 0.724636 0.0899519
0.596353 0.723064 0.109636
0.693339 0.72929 0.126528
0.799969 0.733761 0.134691
0.926543 0.732158 0.143389
1 0.737102 0.142992
0.070573 0.862593 0.0567941
0.245182 0.850904 0.0319524
0.394369 0.842664 0.0395514
0.514717 0.840604 0.0664836
0.635416 0.838788 0.0905776
0.744198 0.840726 0.113375
0.845899 0.845594 0.129961
1 0.833844 0.149599
1 0.836515 0.162127
0.246464 0.955779 0
0.336278 0.957641 0
0.475929 0.950149 0
0.568124 0.953658 0.0347448
0.656458 0.959564 0.074342
0.776425 0.95819 0.0968185
0.888304 0.959472 0.11751
0.956542 0.974777 0.130907
1 0.911665 0.177813
0 0.0230411 0.23621
0.10219 0.00608835 0.255787
0.236988 0.00260929 0.26006
0.356878 0.00221256 0.275059
0.477928 0.000640879 0.296513
0.597421 0 0.332311
0.72813 0 0.338949
0.856886 0 0.348394
0.956191 0 0.566125
0 0.150774 0.192889
0.0943008 0.134966 0.244022
0.225956 0.129809 0.268589
0.356771 0.125505 0.288396
0.488792 0.122484 0.295537
0.617838 0.1205 0.30161
0.743908 0.116548 0.329809
0.870604 0.110384 0.373831
0.998108 0.0891585 0.533043
0 0.269886 0.137148
0.115862 0.260105 0.192645
0.249989 0.249989 0.249989
0.379858 0.244602 0.280537
0.50956 0.239399 0.310033
0.637415 0.23624 0.327977
0.756313 0.243 0.289647
0.881971 0.242267 0.293767
1 0.203723 0.512322
0.0262303 0.380835 0.143359
0.173861 0.373587 0.146914
0.291493 0.366674 0.217868
0.40679 0.36466 0.256168
0.519829 0.366674 0.268421
0.644068 0.365576 0.278691
0.775982 0.360616 0.301183
0.895232 0.362799 0.297581
1 0.347478 0.364187
0.0536049 0.498451 0.136934
0.224079 0.487892 0.112871
0.312703 0.487419 0.20145
0.426978 0.486091 0.236774
0.549065 0.484047 0.259525
0.653986 0.489113 0.266957
0.763302 0.494408 0.262348
0.890593 0.492836 0.26923
1 0.475837 0.323659
0.0150607 0.62359 0.225727
0.21619 0.611337 0.143359
0.34966 0.605005 0.172839
0.429068 0.611688 0.227344
0.535714 0.614725 0.246509
0.65948 0.613779 0.256687
0.777813 0.615 0.262806
0.879164 0.623377 0.252918
1 0.624674 0.25069
0.0069276 0.749157 0.240391
0.195193 0.738552 0.175128
0.302052 0.739559 0.209689
0.425666 0.738079 0.224445
0.54284 0.738537 0.239094
0.649424 0.742733 0.249454
0.771359 0.743053 0.254139
0.895933 0.742641 0.258289
1 0.748775 0.251896
0.0385595 0.869642 0.201648
0.164065 0.86833 0.210681
0.297398 0.865492 0.213291
0.411719 0.866606 0.229557
0.538674 0.865141 0.236378
0.662272 0.864576 0.244053
0.781338 0.865507 0.25069
0.941314 0.853452 0.262882
1 0.848096 0.27776
0.117266 0.982452 0.112902
0.200961 0.986648 0.176593
0.310735 0.987823 0.202976
0.408118 0.992584 0.230381
0.538552 0.990509 0.233845
0.685802 0.983749 0.234531
0.821332 0.979492 0.24303
0.920119 0.98616 0.252323
1 0.933043 0.290028
0 0.0202335 0.36289
0.0996262 0.00729381 0.377462
0.241901 0.00198367 0.378378
0.373648 0.000274662 0.376028
0.499092 0.000137331 0.376043
0.616709 0.000762951 0.388342
0.7402 0.000289921 0.395636
0.860517 0 0.413687
0.938704 0 0.578485
0 0.154986 0.328191
0.0774395 0.140444 0.365743
0.2448 0.126375 0.376303
0.372885 0.125414 0.376623
0.492348 0.125917 0.385565
0.624277 0.125002 0.376486
0.7449 0.124559 0.390188
0.861799 0.122042 0.428687
0.962951 0.110216 0.576303
0 0.283925 0.271504
0.0775921 0.269871 0.330968
0.242802 0.252323 0.373587
0.374899 0.250004 0.375051
0.499367 0.250004 0.376303
0.620462 0.248981 0.393439
0.749035 0.249378 0.381964
0.874372 0.249119 0.383185
0.99266 0.225559 0.582193
0 0.391608 0.280766
0.11075 0.390753 0.285603
0.244175 0.38143 0.338491
0.37499 0.37499 0.37499
0.500328 0.374624 0.377096
0.625101 0.374884 0.375631
0.751476 0.373358 0.384283
0.877363 0.372366 0.389838
1 0.361639 0.450736
0.013611 0.508537 0.276738
0.15285 0.506203 0.261662
0.268757 0.499443 0.335393
0.377386 0.499504 0.373129
0.501228 0.499596 0.375235
0.630472 0.497704 0.380072
0.750271 0.499855 0.375402
0.876829 0.498985 0.378592
1 0.488289 0.420661
0.00491341 0.625406 0.360327
0.176226 0.623514 0.266926
0.293538 0.619684 0.314733
0.386221 0.622751 0.366308
0.500175 0.624949 0.374945
0.625574 0.624811 0.375097
0.755489 0.622934 0.37821
0.876463 0.624384 0.376349
1 0.624994 0.375006
0.00331121 0.749905 0.368002
0.161776 0.746578 0.315724
0.284443 0.744839 0.334707
0.407874 0.743404 0.349538
0.511681 0.747112 0.370092
0.627832 0.749187 0.374716
0.753872 0.748745 0.375738
0.880674 0.747967 0.3776
1 0.749828 0.375296
0.0081178 0.874372 0.360937
0.15111 0.871809 0.338842
0.268696 0.871946 0.355047
0.377935 0.874403 0.372717
0.50161 0.874617 0.374182
0.630045 0.87364 0.373709
0.75169 0.874495 0.37496
0.897459 0.867704 0.379355
1 0.863981 0.387442
0.0644846 0.99324 0.277073
0.164385 0.994537 0.325612
0.251209 0.999786 0.373754
0.377844 0.99942 0.372778
0.500084 0.999985 0.374945
0.627985 0.999237 0.373938
0.765133 0.995773 0.37258
0.901213 0.992065 0.375586
1 0.963439 0.396857
0 0.0175479 0.489494
0.106065 0.00563058 0.500404
0.249058 0.000244144 0.500221
0.374975 0 0.499992
0.499992 0 0.499992
0.624994 0 0.499992
0.749828 1.5259e-05 0.500221
0.860945 0.00108339 0.524315
0.939513 0.00173953 0.627543
0 0.152087 0.465248
0.0990463 0.13341 0.494957
0.249439 0.125139 0.500038
0.37499 0.124987 0.499992
0.499992 0.124987 0.499992
0.624994 0.124987 0.499992
0.749996 0.124987 0.499992
0.869261 0.125154 0.512108
0.948074 0.122713 0.638834
0 0.287709 0.416449
0.0765698 0.268162 0.471656
0.245075 0.251591 0.499031
0.37499 0.249989 0.499992
0.499992 0.249989 0.499992
0.624994 0.249989 0.499992
0.749996 0.249989 0.499992
0.874998 0.249989 0.500008
0.96379 0.241917 0.647257
0 0.398428 0.416556
0.0737621 0.400275 0.422873
0.223102 0.386267 0.475013
0.373877 0.375357 0.499779
0.499992 0.37499 0.499992
0.624994 0.37499 0.499992
0.749996 0.37499 0.499992
0.874968 0.374975 0.50016
0.995453 0.368688 0.559564
0 0.513756 0.421942
0.111925 0.514458 0.417929
0.247517 0.502724 0.484489
0.37496 0.500023 0.499825
0.499992 0.499992 0.499992
0.624994 0.499992 0.499992
0.749996 0.499992 0.499992
0.874998 0.499992 0.499992
1 0.495659 0.524559
0.000976577 0.626337 0.487251
0.138872 0.633722 0.399741
0.260258 0.627283 0.458213
0.37673 0.624949 0.49633
0.499992 0.624994 0.499992
0.624994 0.624994 0.499992
0.749996 0.624994 0.499992
0.874998 0.624994 0.499992
1 0.624994 0.500008
0.00103761 0.750225 0.495796
0.140093 0.751263 0.454871
0.267323 0.749493 0.463447
0.386297 0.748608 0.484337
0.500572 0.749874 0.499535
0.624994 0.749996 0.499992
0.749996 0.749996 0.499992
0.875502 0.749813 0.500282
1 0.749981 0.500038
0.00166323 0.875074 0.495537
0.139559 0.874571 0.469245
0.259174 0.874144 0.485191
0.375341 0.874952 0.49958
0.499992 0.874998 0.499992
0.624994 0.874998 0.499992
0.749996 0.874998 0.499992
0.881209 0.872984 0.501198
1 0.871443 0.50454
0.0273442 0.999207 0.442329
0.133089 0.999374 0.485969
0.250034 1 0.499947
0.375006 1 0.499962
0.499992 1 0.499992
0.624994 1 0.499992
0.749996 1 0.499992
0.891371 0.995132 0.499626
1 0.979644 0.512169
0 0.0123751 0.617594
0.116304 0.00262455 0.624796
0.249851 3.0518e-05 0.62501
0.374975 0 0.624994
0.499992 0 0.624994
0.624994 0 0.624994
0.749996 0 0.624994
0.859434 0.00216678 0.644495
0.947066 0.00553903 0.705394
0 0.144183 0.603326
0.112276 0.129122 0.622522
0.249943 0.125002 0.624994
0.37499 0.124987 0.624994
0.499992 0.124987 0.624994
0.624994 0.124987 0.624994
0.749996 0.124987 0.624994
0.870604 0.125521 0.631083
0.951995 0.12871 0.708049
0 0.28806 0.556329
0.0865034 0.263813 0.607263
0.248524 0.250462 0.624704
0.37499 0.249989 0.624994
0.499992 0.249989 0.624994
0.624994 0.249989 0.624994
0.749996 0.249989 0.624994
0.874998 0.249989 0.62501
0.94995 0.251438 0.730541
0 0.39826 0.562402
0.0704051 0.397879 0.574289
0.231647 0.381872 0.614252
0.374807 0.375051 0.624964
0.499992 0.37499 0.624994
0.624994 0.37499 0.624994
0.749996 0.37499 0.624994
0.874998 0.37499 0.624994
0.984817 0.373724 0.670344
0 0.515023 0.566308
0.101366 0.513054 0.57847
0.24593 0.501991 0.618891
0.374975 0.499992 0.624979
0.499992 0.499992 0.624994
0.624994 0.499992 0.624994
0.749996 0.499992 0.624994
0.874998 0.499992 0.624994
0.998123 0.498817 0.638498
0 0.627146 0.612802
0.111192 0.640269 0.538354
0.245747 0.629679 0.598398
0.374853 0.625147 0.624155
0.456687 0.636866 0.651652
0.618433 0.626307 0.641855
0.749996 0.624994 0.624994
0.874998 0.624994 0.624994
1 0.624994 0.624994
6.10361e-05 0.750195 0.62327
0.127275 0.75317 0.595041
0.253315 0.752087 0.601022
0.376516 0.750332 0.618799
0.500008 0.749996 0.624949
0.624994 0.749996 0.624994
0.749996 0.749996 0.624994
0.875074 0.749966 0.625071
1 0.749996 0.624994
0.000274662 0.875105 0.623529
0.130663 0.876265 0.601923
0.252308 0.875196 0.618067
0.37499 0.874998 0.624994
0.499992 0.874998 0.624994
0.624994 0.874998 0.624994
0.749996 0.874998 0.624994
0.877363 0.874235 0.625452
1 0.873869 0.626749
0.00936904 1 0.593866
0.12665 1 0.620554
0.250004 1 0.624949
0.375006 1 0.624979
0.499992 1 0.624994
0.624994 1 0.624994
0.749996 1 0.624994
0.884001 0.997406 0.624125
1 0.990814 0.630488
0 0.00823987 0.745068
0.120974 0.00123598 0.749783
0.249958 1.5259e-05 0.749996
0.37499 0 0.749996
0.499992 0 0.749996
0.624994 0 0.749996
0.749996 0 0.749996
0.860639 0.00251774 0.763867
0.958984 0.00613413 0.79794
0 0.137667 0.736904
0.118883 0.12697 0.748806
0.249989 0.124987 0.749996
0.37499 0.124987 0.749996
0.499992 0.124987 0.749996
0.624994 0.124987 0.749996
0.749996 0.124987 0.749996
0.872557 0.125399 0.752453
0.961227 0.130373 0.798596
0 0.285527 0.69456
0.101564 0.258213 0.740719
0.249897 0.250019 0.749981
0.37499 0.249989 0.749996
0.499992 0.249989 0.749996
0.624994 0.249989 0.749996
0.749996 0.249989 0.749996
0.874998 0.249989 0.749996
0.949783 0.256123 0.819486
0 0.395285 0.705028
0.0798657 0.392615 0.718196
0.239734 0.378668 0.745281
0.37499 0.37499 0.749996
0.499992 0.37499 0.749996
0.624994 0.37499 0.749996
0.749996 0.37499 0.749996
0.874998 0.37499 0.749996
0.980224 0.376822 0.781857
0 0.512352 0.712322
0.105562 0.508904 0.726024
0.247211 0.501152 0.747417
0.37499 0.499992 0.749996
0.499992 0.499992 0.749996
0.624994 0.499992 0.749996
0.749996 0.499992 0.749996
0.874998 0.499992 0.749996
0.997467 0.500069 0.755337
0 0.627405 0.740001
0.09691 0.641917 0.683955
0.243076 0.628824 0.73637
0.37496 0.62501 0.74995
0.499992 0.624994 0.749996
0.601419 0.61593 0.92723
0.749996 0.624994 0.749996
0.874998 0.624994 0.749996
1 0.624994 0.749996
0 0.750027 0.749798
0.121767 0.753567 0.729763
0.247623 0.752621 0.735103
0.374578 0.750439 0.747448
0.499992 0.749996 0.749996
0.527413 0.776272 0.853223
0.732296 0.75346 0.795178
0.874998 0.749996 0.749996
1 0.749996 0.749996
0 0.875059 0.749554
0.125505 0.876707 0.73547
0.250141 0.875212 0.748028
0.37499 0.874998 0.749996
0.499992 0.874998 0.749996
0.624994 0.874998 0.749996
0.749996 0.874998 0.749996
0.875669 0.874784 0.750134
1 0.874693 0.750652
0.00236515 1 0.732952
0.125246 1 0.748547
0.250004 1 0.749966
0.37499 1 0.749981
0.499992 1 0.749996
0.624994 1 0.749996
0.749996 1 0.749996
0.879088 0.998901 0.748959
1 0.996384 0.752163
0 0.00543221 0.871748
0.123186 0.000564584 0.874861
0.249973 0 0.874998
0.37499 0 0.874998
0.499992 0 0.874998
0.624994 0 0.874998
0.749996 0 0.874998
0.862684 0.00247196 0.884535
0.969665 0.00544747 0.903456
0 0.133288 0.866987
0.12224 0.125887 0.874464
0.249989 0.124987 0.874998
0.37499 0.124987 0.874998
0.499992 0.124987 0.874998
0.624994 0.124987 0.874998
0.749996 0.124987 0.874998
0.874479 0.125093 0.875395
0.969787 0.130297 0.904189
0 0.276188 0.838376
0.11548 0.253285 0.871611
0.249989 0.249989 0.874998
0.37499 0.249989 0.874998
0.499992 0.249989 0.874998
0.624994 0.249989 0.874998
0.749996 0.249989 0.874998
0.874998 0.249989 0.874998
0.960403 0.256748 0.914824
0 0.391897 0.842618
0.090898 0.387778 0.855055
0.244831 0.376806 0.872953
0.37499 0.37499 0.874998
0.499992 0.37499 0.874998
0.624994 0.37499 0.874998
0.749996 0.37499 0.874998
0.874998 0.37499 0.874998
0.979751 0.378286 0.89659
0 0.507286 0.856428
0.111192 0.505776 0.862196
0.248493 0.500572 0.873945
0.37499 0.499992 0.874998
0.499992 0.499992 0.874998
0.624994 0.499992 0.874998
0.749996 0.499992 0.874998
0.874998 0.499992 0.874998
0.999268 0.500099 0.875853
0 0.627329 0.867201
0.093843 0.640375 0.828107
0.246204 0.626734 0.870329
0.37499 0.624994 0.874998
0.499992 0.624994 0.874998
0.624994 0.624994 0.874998
0.749996 0.624994 0.874998
0.874998 0.624994 0.874998
1 0.624994 0.874998
0 0.749996 0.874998
0.119615 0.753445 0.86067
0.246052 0.752361 0.865751
0.374456 0.750286 0.873945
0.499992 0.749996 0.874998
0.624994 0.749996 0.874998
0.705882 0.74493 1
0.874998 0.749996 0.874998
1 0.749996 0.874998
0 0.875013 0.874876
0.123919 0.876188 0.868254
0.249958 0.875029 0.874784
0.37499 0.874998 0.874998
0.499992 0.874998 0.874998
0.624994 0.874998 0.874998
0.631876 0.905241 1
0.84622 0.880613 0.948394
1 0.874952 0.875227
0 1 0.865507
0.124987 1 0.874556
0.249989 1 0.874968
0.37499 1 0.874998
0.499992 1 0.874998
0.624994 1 0.874998
0.749996 1 0.874998
0.87631 0.999741 0.873991
1 0.998917 0.875639
0 0.00357061 0.997864
0.124224 0.000228885 0.999939
0.249973 0 1
0.37499 0 1
0.499992 0 1
0.624994 0 1
0.749996 0 1
0.864805 0.00222782 1
0.978027 0.00440986 1
0 0.130571 0.994888
0.123873 0.125353 0.999786
0.249989 0.124987 1
0.37499 0.124987 1
0.499992 0.124987 1
0.624994 0.124987 1
0.749996 0.124987 1
0.874998 0.124987 1
0.976867 0.129625 1
0 0.267887 0.977035
0.122881 0.250706 0.999298
0.249989 0.249989 1
0.37499 0.249989 1
0.499992 0.249989 1
0.624994 0.249989 1
0.749996 0.249989 1
0.874998 0.249989 1
0.976501 0.254704 1
0 0.388617 0.976715
0.100435 0.383978 0.987442
0.247654 0.375799 0.999161
0.37499 0.37499 1
0.499992 0.37499 1
0.624994 0.37499 1
0.749996 0.37499 1
0.874998 0.37499 1
0.981277 0.378744 1
0 0.502571 0.994278
0.114839 0.504036 0.992264
0.249317 0.500252 0.999603
0.37499 0.499992 1
0.499992 0.499992 1
0.624994 0.499992 1
0.749996 0.499992 1
0.874998 0.499992 1
1 0.499992 1
0 0.627115 0.994034
0.099443 0.636393 0.970977
0.249134 0.62536 0.999207
0.37499 0.624994 1
0.499992 0.624994 1
0.624994 0.624994 1
0.749996 0.624994 1
0.874998 0.624994 1
1 0.624994 1
0 0.749996 1
0.119158 0.753063 0.989792
0.246174 0.751888 0.994247
0.374655 0.750149 0.999588
0.499992 0.749996 1
0.624994 0.749996 1
0.749996 0.749996 1
0.874998 0.749996 1
1 0.749996 1
0 0.874998 1
0.124437 0.875364 0.998383
0.249989 0.874998 1
0.37499 0.874998 1
0.499992 0.874998 1
0.624994 0.874998 1
0.749996 0.874998 1
0.810498 0.87393 1
1 0.874998 1
0 1 1
0.124987 1 1
0.249989 1 0.999985
0.37499 1 1
0.499992 1 1
0.624994 1 1
0.749996 1 1
0.747906 1 1
0.968338 1 1
