modules/luts/cube_folder/Autumn Rich.CUBE
TITLE "Generated by Resolve"
LUT_3D_SIZE 5
0 0 0
0.280644 0 0.192554
0.555016 0 0.345617
0.823484 0 0.461524
1 0 0.777707
0.162356 0.217441 0
0.461189 0.181353 0.0410468
0.688746 0.170809 0.175357
0.904906 0.173526 0.233204
1 0.129122 0.430335
0.15349 0.469215 0
0.492348 0.435203 0
0.666728 0.445808 0.0324102
0.841733 0.465568 0.0536965
1 0.448783 0.11342
0.0879225 0.732372 0
0.436652 0.704051 0
0.651362 0.706477 0
0.834089 0.722667 0.0163424
1 0.718563 0.0403143
0.288273 0.942199 0
0.559869 0.927123 0
0.731441 0.938125 0
0.945251 0.94197 0
1 0.897917 0.0610513
0 0.0230411 0.23621
0.236988 0.00260929 0.26006
0.477928 0.000640879 0.296513
0.72813 0 0.338949
0.956191 0 0.566125
0 0.269886 0.137148
0.249989 0.249989 0.249989
0.50956 0.239399 0.310033
0.756313 0.243 0.289647
1 0.203723 0.512322
0.0536049 0.498451 0.136934
0.312703 0.487419 0.20145
0.549065 0.484047 0.259525
0.763302 0.494408 0.262348
1 0.475837 0.323659
0.0069276 0.749157 0.240391
0.302052 0.739559 0.209689
0.54284 0.738537 0.239094
0.771359 0.743053 0.254139
1 0.748775 0.251896
0.117266 0.982452 0.112902
0.310735 0.987823 0.202976
0.538552 0.990509 0.233845
0.821332 0.979492 0.24303
1 0.933043 0.290028
0 0.0175479 0.489494
0.249058 0.000244144 0.500221
0.499992 0 0.499992
0.749828 1.5259e-05 0.500221
0.939513 0.00173953 0.627543
0 0.287709 0.416449
0.245075 0.251591 0.499031
0.499992 0.249989 0.499992
0.749996 0.249989 0.499992
0.96379 0.241917 0.647257
0 0.513756 0.421942
0.247517 0.502724 0.484489
0.499992 0.499992 0.499992
0.749996 0.499992 0.499992
1 0.495659 0.524559
0.00103761 0.750225 0.495796
0.267323 0.749493 0.463447
0.500572 0.749874 0.499535
0.749996 0.749996 0.499992
1 0.749981 0.500038
0.0273442 0.999207 0.442329
0.250034 1 0.499947
0.499992 1 0.499992
0.749996 1 0.499992
1 0.979644 0.512169
0 0.00823987 0.745068
0.249958 1.5259e-05 0.749996
0.499992 0 0.749996
0.749996 0 0.749996
0.958984 0.00613413 0.79794
0 0.285527 0.69456
0.249897 0.250019 0.749981
0.499992 0.249989 0.749996
0.749996 0.249989 0.749996
0.949783 0.256123 0.819486
0 0.512352 0.712322
0.247211 0.501152 0.747417
0.499992 0.499992 0.749996
0.749996 0.499992 0.749996
0.997467 0.500069 0.755337
0 0.750027 0.749798
0.247623 0.752621 0.735103
0.499992 0.749996 0.749996
0.732296 0.75346 0.795178
1 0.749996 0.749996
0.00236515 1 0.732952
0.250004 1 0.749966
0.499992 1 0.749996
0.749996 1 0.749996
1 0.996384 0.752163
0 0.00357061 0.997864
0.249973 0 1
0.499992 0 1
0.749996 0 1
0.978027 0.00440986 1
0 0.267887 0.977035
0.249989 0.249989 1
0.499992 0.249989 1
0.749996 0.249989 1
0.976501 0.254704 1
0 0.502571 0.994278
0.249317 0.500252 0.999603
0.499992 0.499992 1
0.749996 0.499992 1
1 0.499992 1
0 0.749996 1
0.246174 0.751888 0.994247
0.499992 0.749996 1
0.749996 0.749996 1
1 0.749996 1
0 1 1
0.249989 1 0.999985
0.499992 1 1
0.749996 1 1
0.968338 1 1
