modules/luts/cube_folder/Bright.CUBE
TITLE "Generated by Resolve"
LUT_3D_SIZE 33
0.0643473 0 0
0.0923781 0 0
0.121538 0 0
0.151858 0 0
0.182666 0 0
0.217288 0 0
0.254566 0 0
0.293614 0 0
0.3337 0 0
0.37435 0 0
0.414115 0 0
0.452949 0 0
0.491356 0 0
0.529458 0 0
0.567575 0 0
0.6056 0 0
0.64268 0 0
0.678813 0 0
0.713909 0 0
0.747417 0 0
0.77969 0 0
0.810697 0 0
0.840848 0 0
0.869932 0 0
0.898589 0 0
0.927337 0 0
0.956146 0 0
0.985855 0 0
1 0 0
1 0 0
1 0 0
1 0 0
1 0 0
0.0567941 0 0
0.0839857 0 0
0.113115 0 0
0.144121 0 0
0.177325 0 0
0.212604 0 0
0.25008 0 0
0.289799 0 0
0.330251 0 0
0.370977 0 0
0.411337 0 0
0.450446 0 0
0.488838 0 0
0.527504 0 0
0.565911 0 0
0.603967 0 0
0.641581 0 0
0.678096 0 0
0.713283 0 0
0.747066 0 0
0.780026 0 0
0.811414 0 0
0.841672 0 0
0.871168 0 0
0.900267 0 0
0.929747 0 0
0.959045 0 0
0.988983 0 0
1 0 0
1 0 0
1 0 0
1 0 0
1 0 0
0.0544442 0.0150149 0
0.0826429 0.0150912 0
0.112566 0.0151675 0
0.143999 0.0146792 0
0.1776 0.0141451 0
0.21323 0.0128634 0
0.251041 0.0111238 0
0.290913 0.00914015 0
0.331807 0.00703441 0
0.372763 0.00479133 0
0.413214 0.00292973 0
0.452857 0.00154116 0
0.491554 0.000244144 0
0.530251 0 0
0.5691 0 0
0.60766 0 0
0.645396 0 0
0.682216 0 0
0.717891 0 0
0.7523 0 0
0.785351 0 0
0.817182 0.00114443 0
0.847913 0.00335698 0
0.877913 0.00595102 0
0.907622 0.00892653 0
0.93756 0.012192 0
0.967376 0.0154116 0
0.997833 0.018677 0
1 0.0222324 0
1 0.0257877 0
1 0.0294652 0
1 0.0332494 0
1 0.0372015 0
0.0501411 0.0442206 0
0.0786908 0.0446326 0
0.108995 0.0450904 0
0.140749 0.0449378 0
0.17435 0.0443885 0
0.210452 0.043595 0
0.248631 0.0422217 0
0.288655 0.0403906 0
0.329778 0.0385138 0
0.371283 0.03682 0
0.411963 0.035172 0
0.451698 0.0338903 0
0.491035 0.0332341 0
0.530098 0.0324102 0
0.569192 0.0317235 0
0.60798 0.031281 0
0.646143 0.0311437 0
0.68368 0.0317082 0
0.719707 0.0324559 0
0.754391 0.0337377 0
0.787961 0.0355077 0
0.820325 0.0377813 0
0.851575 0.0405127 0
0.882094 0.0436255 0
0.912276 0.0470893 0
0.94258 0.0507362 0
0.973114 0.0546578 0
1 0.0583963 0
1 0.0624399 0
1 0.0664073 0
1 0.0706188 0
1 0.0747234 0
1 0.0789349 0
0.0452888 0.075227 0
0.0741131 0.0759136 0
0.104402 0.0763561 0
0.136736 0.0767681 0
0.170626 0.0765393 0
0.206851 0.0758373 0
0.245289 0.0747387 0
0.285893 0.0734722 0
0.327245 0.0718395 0
0.368887 0.0702678 0
0.410071 0.0691386 0
0.45037 0.0684215 0
0.489815 0.0678569 0
0.529274 0.0674449 0
0.568811 0.0672007 0
0.608164 0.0673075 0
0.647013 0.0678569 0
0.684779 0.0686503 0
0.721325 0.0699321 0
0.756527 0.0717327 0
0.790631 0.0740215 0
0.823499 0.0768139 0
0.855283 0.0800793 0
0.886305 0.0836957 0
0.91693 0.0875868 0
0.947662 0.0916609 0
0.978469 0.0958724 0
1 0.100084 0
1 0.104555 0
1 0.109026 0
1 0.113573 0
1 0.118151 0
1 0.122789 0
0.0390784 0.107622 0
0.0684977 0.108919 0
0.0991073 0.109682 0
0.131456 0.110109 0
0.165667 0.110185 0
0.202518 0.110109 0
0.241276 0.109331 0
0.282002 0.108202 0
0.323751 0.10695 0
0.366079 0.106096 0
0.407568 0.105241 0
0.448127 0.104799 0
0.488045 0.104707 0
0.528023 0.104814 0
0.568078 0.105074 0
0.608148 0.105913 0
0.647318 0.106798 0
0.685603 0.108095 0
0.722698 0.109911 0
0.758419 0.11223 0
0.792996 0.115007 0
0.826352 0.118288 0
0.858625 0.122042 0
0.890135 0.126131 0
0.921187 0.130465 0
0.952346 0.134966 0
0.983597 0.13962 0
1 0.144198 0
1 0.148714 0
1 0.153445 0
1 0.158221 0
1 0.162951 0
1 0.167697 0
0.0323644 0.142061 0
0.0618143 0.143389 0
0.0928969 0.144625 0
0.12578 0.145571 0
0.160372 0.146044 0
0.197314 0.146059 0
0.236484 0.145693 0
0.277943 0.145281 0
0.320134 0.144488 0
0.362661 0.143816 0
0.404654 0.143481 0
0.445747 0.143572 0
0.486198 0.143999 0
0.52668 0.14461 0
0.567269 0.145418 0
0.607569 0.146487 0
0.647456 0.148074 0
0.686198 0.149828 0
0.723674 0.152041 0
0.759793 0.154757 0
0.794965 0.158129 0
0.828656 0.16173 0
0.861341 0.165896 0
0.893263 0.170413 0
0.924697 0.175128 0
0.956146 0.179904 0
0.98764 0.184802 0
1 0.189609 0
1 0.194522 0
1 0.199054 0
1 0.203876 0
1 0.208576 0
1 0.21323 0
0.0239261 0.178347 0
0.0540627 0.180362 0
0.08542 0.181857 0
0.118547 0.183062 0
0.153567 0.183963 0
0.190982 0.184451 0
0.230869 0.184787 0
0.272618 0.184695 0
0.315358 0.184436 0
0.358404 0.184283 0
0.4009 0.184451 0
0.442527 0.185077 0
0.483497 0.186023 0
0.524483 0.187152 0
0.56556 0.188418 0
0.606332 0.189975 0
0.64651 0.191852 0
0.685725 0.194095 0
0.72372 0.196796 0
0.760357 0.200046 0
0.795819 0.203708 0
0.829953 0.207752 0
0.862913 0.212192 0
0.894804 0.216678 0
0.926406 0.221561 0
0.957961 0.226444 0
0.989517 0.231403 0
1 0.236225 0
1 0.241093 0
1 0.245533 0
1 0.250202 0
1 0.254719 0
1 0.259129 0
0.0140688 0.217441 0
0.0443427 0.219593 0
0.076173 0.221576 0
0.109804 0.223285 0
0.145373 0.22472 0
0.18349 0.225925 0
0.223789 0.226673 0
0.265995 0.227008 0
0.309239 0.227268 0
0.352804 0.227634 0
0.395804 0.228305 0
0.437903 0.229404 0
0.479362 0.230854 0
0.520821 0.232441 0
0.562341 0.234165 0
0.60354 0.236133 0
0.643946 0.238239 0
0.683528 0.240848 0
0.721767 0.243809 0
0.758663 0.247303 0
0.794339 0.251179 0
0.828626 0.255375 0
0.861677 0.259922 0
0.893706 0.264546 0
0.925216 0.269322 0
0.95671 0.274159 0
0.988144 0.278996 0
1 0.28365 0
1 0.288273 0
1 0.2925 0
1 0.296895 0
1 0.301167 0
1 0.305364 0
0.00285344 0.258869 0
0.0336614 0.261555 0
0.0660105 0.264042 0
0.10016 0.266285 0
0.136248 0.268238 0
0.174716 0.26978 0
0.215412 0.270924 0
0.258091 0.271748 0
0.301823 0.272496 0
0.345876 0.27335 0
0.389334 0.274495 0
0.431876 0.276005 0
0.473762 0.277882 0
0.515633 0.279896 0
0.557519 0.281971 0
0.599008 0.28423 0
0.639841 0.286778 0
0.679652 0.289601 0
0.717861 0.292531 0
0.754772 0.296056 0
0.790478 0.299962 0
0.824735 0.304128 0
0.857694 0.308583 0
0.88957 0.313039 0
0.920928 0.317678 0
0.952193 0.322271 0
0.983383 0.326863 0
1 0.331243 0
1 0.335485 0
1 0.339651 0
1 0.343801 0
1 0.347829 0
1 0.351766 0
0 0.302968 0
0.0222629 0.306188 0
0.0551308 0.309209 0
0.0897841 0.31194 0
0.126345 0.314366 0
0.165286 0.316396 0
0.206455 0.318029 0
0.249592 0.319295 0
0.293751 0.32047 0
0.338247 0.321752 0
0.382116 0.323293 0
0.424964 0.325139 0
0.466911 0.327077 0
0.508965 0.329259 0
0.551003 0.331502 0
0.592599 0.333867 0
0.633494 0.336477 0
0.67332 0.3393 0
0.711528 0.342245 0
0.748287 0.345617 0
0.783841 0.349355 0
0.817899 0.353338 0
0.850614 0.357534 0
0.882185 0.361685 0
0.913344 0.36614 0
0.944381 0.370504 0
0.975311 0.374838 0
1 0.378973 0
1 0.382925 0
1 0.386908 0
1 0.390906 0
1 0.394873 0
1 0.398764 0
0 0.349187 0
0.0114595 0.35288 0
0.0448157 0.35639 0
0.0799573 0.359609 0
0.116945 0.362463 0
0.156176 0.364767 0
0.197635 0.36669 0
0.241154 0.368338 0
0.285618 0.369833 0
0.330358 0.371359 0
0.374441 0.373114 0
0.417441 0.375113 0
0.459678 0.37734 0
0.501564 0.379355 0
0.543603 0.381598 0
0.585122 0.383886 0
0.625895 0.386374 0
0.665553 0.389029 0
0.703441 0.391653 0
0.740047 0.394873 0
0.775341 0.398367 0
0.809155 0.40209 0
0.841642 0.406058 0
0.872969 0.409979 0
0.903899 0.414176 0
0.934676 0.418296 0
0.965408 0.422431 0
0.996628 0.426459 0
1 0.430365 0
1 0.434394 0
1 0.438422 0
1 0.442405 0
1 0.446128 0
0 0.396628 0
0.00221256 0.400748 0
0.035996 0.404685 0
0.0715343 0.408316 0
0.108888 0.411536 0
0.148547 0.414267 0
0.190387 0.416571 0
0.234058 0.418387 0
0.278401 0.41973 0
0.323217 0.421332 0
0.367315 0.423117 0
0.410285 0.425071 0
0.45243 0.427207 0
0.494179 0.429099 0
0.536034 0.431144 0
0.57731 0.433204 0
0.617838 0.435431 0
0.657221 0.437842 0
0.694896 0.440238 0
0.731273 0.443214 0
0.766323 0.446464 0
0.799893 0.449943 0
0.832013 0.453544 0
0.863294 0.457404 0
0.894118 0.461524 0
0.924926 0.46566 0
0.955688 0.469825 0
0.986709 0.473655 0
1 0.477791 0
1 0.481819 0
1 0.485801 0
1 0.489555 0
1 0.4934 0
0 0.445243 0
0 0.449607 0
0.0296941 0.453605 0
0.0654612 0.457465 0
0.102998 0.460853 0
0.142748 0.463691 0
0.184634 0.466041 0
0.228351 0.467887 0
0.272618 0.469154 0
0.317311 0.470649 0
0.361257 0.472282 0
0.404028 0.474037 0
0.445838 0.475837 0
0.487419 0.477546 0
0.529015 0.479362 0
0.570077 0.481178 0
0.610361 0.483162 0
0.649424 0.485252 0
0.686931 0.48748 0
0.723079 0.490242 0
0.757977 0.493339 0
0.791501 0.496773 0
0.823545 0.500298 0
0.854963 0.504295 0
0.885817 0.508431 0
0.916609 0.512566 0
0.947112 0.516472 0
0.978317 0.52047 0
1 0.52459 0
1 0.528542 0
1 0.532418 0
1 0.536034 0
1 0.539818 0
0 0.494072 0
0 0.49865 0
0.0250553 0.502739 0
0.0607919 0.506554 0
0.0982986 0.509911 0
0.137972 0.512673 0
0.179751 0.5149 0
0.22327 0.516564 0
0.267323 0.517632 0
0.311757 0.518868 0
0.355444 0.520241 0
0.397986 0.521752 0
0.439414 0.523171 0
0.480903 0.524804 0
0.522255 0.52636 0
0.563073 0.527932 0
0.603143 0.529717 0
0.641993 0.531579 0
0.679606 0.533928 0
0.715785 0.536721 0
0.750729 0.539834 0
0.784176 0.543206 0
0.816281 0.546792 0
0.847669 0.550774 0
0.878477 0.554864 0
0.909163 0.558877 0
0.939651 0.562768 0
0.970764 0.566674 0
1 0.570687 0
1 0.574456 0
1 0.578042 0
1 0.58172 0
1 0.585336 0
0 0.543023 0
0 0.54757 0
0.0205844 0.551568 0
0.0561837 0.55523 0
0.093492 0.558404 0
0.132921 0.560922 0
0.174441 0.562905 0
0.217563 0.564157 0
0.26154 0.565148 0
0.305745 0.566155 0
0.349187 0.567269 0
0.39147 0.568536 0
0.432654 0.569711 0
0.473991 0.571191 0
0.515267 0.572671 0
0.5561 0.574258 0
0.596048 0.575921 0
0.635019 0.577905 0
0.672679 0.580301 0
0.708858 0.583078 0
0.743755 0.586175 0
0.776989 0.589334 0
0.809201 0.593027 0
0.840513 0.596918 0
0.871214 0.6009 0
0.90161 0.604639 0
0.932158 0.608576 0
0.963104 0.612345 0
0.993439 0.616175 0
1 0.619608 0
1 0.623163 0
1 0.626627 0
1 0.630014 0
0 0.591562 0
0 0.595895 0
0.01561 0.599573 0
0.0510109 0.603052 0
0.0880751 0.605997 0
0.127275 0.608286 0
0.168475 0.609934 0
0.211322 0.610925 0
0.255161 0.611765 0
0.299153 0.612558 0
0.342443 0.613519 0
0.384665 0.614725 0
0.42591 0.615976 0
0.467277 0.617472 0
0.508568 0.618967 0
0.549401 0.620569 0
0.589242 0.62211 0
0.62826 0.62414 0
0.665873 0.62649 0
0.701976 0.629206 0
0.736553 0.631952 0
0.769924 0.635248 0
0.802014 0.638819 0
0.833188 0.642588 0
0.863523 0.646204 0
0.893965 0.649989 0
0.924315 0.653742 0
0.955077 0.657298 0
0.985138 0.660868 0
1 0.664118 0
1 0.66743 0
1 0.670634 0
1 0.673747 0
0 0.639002 0
0 0.643107 0
0.0106203 0.646555 0
0.0457771 0.64979 0
0.0825971 0.652476 0
0.121553 0.654521 0
0.162463 0.655894 0
0.20531 0.656886 0
0.249149 0.65771 0
0.293172 0.658549 0
0.336492 0.659541 0
0.3785 0.660533 0
0.419959 0.661982 0
0.461295 0.663447 0
0.502541 0.664897 0
0.543084 0.666209 0
0.583078 0.667918 0
0.621988 0.669856 0
0.659495 0.672084 0
0.695247 0.674434 0
0.7299 0.677287 0
0.763134 0.680415 0
0.795056 0.683833 0
0.826032 0.687388 0
0.856153 0.690791 0
0.886397 0.694377 0
0.916503 0.697887 0
0.947005 0.701198 0
0.976745 0.704448 0
1 0.707454 0
1 0.71046 0
1 0.713329 0
1 0.716091 0
0 0.685237 0
0 0.688975 0
0.00593576 0.692317 0
0.0409247 0.695384 0
0.0776837 0.698009 0
0.11667 0.700084 0
0.157534 0.701411 0
0.200473 0.70248 0
0.244312 0.703319 0
0.288304 0.704128 0
0.331502 0.704997 0
0.373556 0.706035 0
0.414954 0.707424 0
0.456199 0.708812 0
0.49723 0.710048 0
0.537774 0.711345 0
0.577646 0.712932 0
0.616419 0.714717 0
0.653696 0.716716 0
0.689326 0.718959 0
0.723781 0.721614 0
0.756802 0.724544 0
0.788495 0.727718 0
0.81912 0.730938 0
0.849088 0.734173 0
0.879057 0.737484 0
0.908873 0.740703 0
0.939055 0.743694 0
0.968566 0.746715 0
0.998367 0.749264 0
1 0.751904 0
1 0.754437 0
1 0.756832 0
0 0.730159 0
0 0.733745 0
0.00273136 0.737255 0
0.0377508 0.740353 0
0.0745098 0.742977 0
0.113344 0.744884 0
0.154345 0.746349 0
0.197238 0.747387 0
0.241016 0.74818 0
0.284794 0.748745 0
0.327916 0.749538 0
0.370016 0.750622 0
0.411292 0.751888 0
0.452399 0.753124 0
0.493156 0.754101 0
0.533654 0.755352 0
0.573343 0.756756 0
0.611902 0.758328 0
0.648798 0.75996 0
0.684367 0.762127 0
0.718578 0.764538 0
0.751324 0.767193 0
0.782727 0.770092 0
0.813123 0.773068 0
0.842695 0.775921 0
0.872328 0.778881 0
0.901778 0.78175 0
0.931609 0.784375 0
0.960769 0.78706 0
0.990448 0.789471 0
1 0.791775 0
1 0.793942 0
1 0.795987 0
0 0.774441 0
0 0.778027 0
0.00143435 0.781521 0
0.0364233 0.784588 0
0.0731365 0.787167 0
0.111818 0.788952 0
0.152819 0.790402 0
0.195621 0.791348 0
0.239292 0.79202 0
0.282872 0.792401 0
0.325917 0.793118 0
0.367864 0.794049 0
0.408957 0.795148 0
0.449699 0.796002 0
0.490425 0.796948 0
0.530694 0.797986 0
0.570138 0.79913 0
0.608454 0.800458 0
0.645075 0.801816 0
0.680354 0.803693 0
0.71426 0.805783 0
0.74667 0.808118 0
0.777737 0.810666 0
0.807797 0.813336 0
0.837217 0.816022 0
0.866255 0.818387 0
0.895369 0.820905 0
0.924849 0.823194 0
0.953674 0.825528 0
0.983001 0.827604 0
1 0.829557 0
1 0.831403 0
1 0.833143 0
0 0.817655 0
0 0.821439 0
0.00198367 0.824872 0
0.0368811 0.827848 0
0.0732586 0.830091 0
0.112078 0.831983 0
0.152941 0.83331 0
0.19559 0.834104 0
0.23888 0.834394 0
0.28249 0.834821 0
0.325353 0.83534 0
0.367071 0.836057 0
0.407843 0.83682 0
0.448386 0.837491 0
0.488899 0.838224 0
0.528908 0.838972 0
0.568048 0.839826 0
0.606043 0.840833 0
0.642435 0.841962 0
0.677256 0.843397 0
0.710796 0.845121 0
0.742855 0.847105 0
0.773556 0.849287 0
0.803281 0.851606 0
0.832349 0.853956 0
0.86128 0.856199 0
0.890043 0.858381 0
0.919188 0.860334 0
0.947677 0.862333 0
0.976684 0.864073 0
1 0.865705 0
1 0.867231 0
1 0.868635 0
0 0.860166 0
0 0.863844 0
0.00411994 0.86714 0
0.0387274 0.869841 0
0.0751049 0.872084 0
0.113756 0.873808 0
0.154421 0.874937 0
0.196857 0.875502 0
0.239933 0.875593 0
0.28333 0.875792 0
0.325917 0.876066 0
0.367391 0.876509 0
0.407874 0.876982 0
0.448112 0.877348 0
0.488304 0.87776 0
0.527962 0.878172 0
0.566751 0.878676 0
0.604379 0.879316 0
0.640543 0.880217 0
0.675105 0.881392 0
0.708309 0.88278 0
0.739971 0.884352 0
0.770184 0.886046 0
0.799542 0.887999 0
0.82829 0.890028 0
0.85687 0.891936 0
0.885313 0.893782 0
0.914137 0.895415 0
0.942367 0.897154 0
0.971069 0.898604 0
0.999756 0.899962 0
1 0.901244 0
1 0.902419 0
0 0.901595 0
0 0.905119 0
0.00730907 0.908095 0
0.0417945 0.910658 0
0.0780499 0.912779 0
0.116472 0.914275 0
0.156893 0.915175 0
0.198978 0.915389 0
0.241871 0.915297 0
0.284977 0.91519 0
0.32726 0.91516 0
0.368399 0.915282 0
0.408621 0.915496 0
0.448631 0.915633 0
0.488289 0.915496 0
0.52755 0.915526 0
0.565972 0.915663 0
0.603265 0.915969 0
0.639094 0.916518 0
0.67332 0.917357 0
0.706172 0.91841 0
0.73756 0.919707 0
0.76759 0.921218 0
0.796643 0.922866 0
0.825055 0.924559 0
0.85333 0.926162 0
0.881453 0.927687 0
0.909957 0.929 0
0.937835 0.930388 0
0.966247 0.931548 0
0.994675 0.932631 0
1 0.9337 0
1 0.934752 0
0 0.942061 0
0 0.945373 0
0.0108186 0.948043 0
0.0451362 0.950439 0
0.081117 0.952285 0
0.119265 0.953506 0
0.159396 0.954101 0
0.201282 0.954116 0
0.243717 0.953582 0
0.286458 0.953124 0
0.328389 0.952728 0
0.369177 0.952483 0
0.409049 0.952361 0
0.448707 0.952148 0
0.488197 0.951858 0
0.527153 0.951568 0
0.565255 0.95137 0
0.602213 0.951354 0
0.637705 0.951568 0
0.671595 0.952071 0
0.704128 0.952789 0
0.735195 0.953765 0
0.764904 0.954971 0
0.793637 0.956298 0
0.821744 0.957671 0
0.849729 0.958999 0
0.877607 0.960266 0
0.905882 0.961349 0
0.933547 0.962524 0
0.961746 0.963485 0
0.98999 0.964385 0
1 0.965347 0
1 0.966247 0
0 0.981521 0.00694286
0 0.984558 0.00650034
0.0141451 0.986938 0.00518807
0.0481575 0.989029 0.00332647
0.0838178 0.990555 0.000640879
0.121614 0.991424 0
0.161379 0.991669 0
0.202914 0.991333 0
0.245228 0.990646 0
0.287526 0.989746 0
0.329137 0.989044 0
0.369406 0.988296 0
0.408942 0.987823 0
0.448264 0.987274 0
0.487434 0.986648 0
0.526055 0.986038 0
0.563821 0.985504 0
0.600443 0.985153 0
0.635615 0.985046 0
0.669184 0.985229 0
0.701411 0.985641 0
0.732189 0.986343 0
0.761837 0.987472 0
0.790326 0.988556 0
0.818204 0.989715 0
0.845991 0.990829 0
0.873671 0.991897 0
0.901778 0.992813 0
0.929274 0.993835 0
0.957366 0.994659 0
0.985473 0.995438 0
1 0.996414 0
1 0.997131 0
0 1 0.0157473
0 1 0.0149691
0.0167697 1 0.0134737
0.0503548 1 0.0112001
0.0855573 1 0.0080415
0.122988 1 0.00399786
0.162417 1 0
0.203601 1 0
0.245563 1 0
0.287617 1 0
0.328862 1 0
0.368963 1 0
0.408179 1 0
0.447166 1 0
0.486015 1 0
0.5243 1 0
0.561761 1 0
0.598077 1 0
0.632959 1 0
0.66627 1 0
0.698253 1 0
0.728801 1 0
0.758083 1 0
0.786572 1 0
0.814282 1 0
0.841917 1 0
0.869459 1 0
0.897459 1 0
0.92488 1 0
0.95288 1 0
0.981048 1 0
1 1 0
1 1 0
0 1 0.0229343
0 1 0.0218051
0.0175021 1 0.0200046
0.0508125 1 0.0174411
0.085771 1 0.0140536
0.122866 1 0.00965896
0.161959 1 0.0043183
0.202808 1 0
0.24445 1 0
