modules/luts/cube_folder/Bright.CUBE
TITLE "Generated by Resolve"
LUT_3D_SIZE 5
0.0643473 0 0
0.3337 0 0
0.64268 0 0
0.898589 0 0
1 0 0
0.0140688 0.217441 0
0.309239 0.227268 0
0.643946 0.238239 0
0.925216 0.269322 0
1 0.305364 0
0 0.591562 0
0.255161 0.611765 0
0.589242 0.62211 0
0.863523 0.646204 0
1 0.673747 0
0 0.942061 0
0.243717 0.953582 0
0.565255 0.95137 0
0.821744 0.957671 0
1 0.966247 0
0 1 0.0419013
0.224063 1 0.000259403
0.53286 1 0
0.783398 1 0
1 1 0
0.0906996 0 0.204562
0.36228 0 0.155489
0.672938 0 0.102358
0.931243 0 0.0794995
1 0 0.0761883
0.0475776 0.209644 0.210193
0.346014 0.222736 0.187991
0.683314 0.236301 0.161486
0.964721 0.267521 0.161746
1 0.301732 0.169162
0 0.589044 0.22153
0.29279 0.608087 0.205264
0.62678 0.618341 0.175463
0.900114 0.641489 0.167651
1 0.667247 0.166629
0 0.936812 0.272847
0.277714 0.946258 0.246967
0.59704 0.941848 0.202502
0.851621 0.946242 0.175937
1 0.953841 0.156756
0 1 0.310979
0.253086 1 0.268711
0.562264 1 0.214084
0.812787 1 0.183459
1 1 0.164767
0.120653 0 0.586999
0.396933 0 0.542626
0.709529 0 0.491432
0.970535 0 0.47129
1 0 0.471
0.0880751 0.189319 0.603174
0.389471 0.205371 0.583932
0.728573 0.220737 0.559228
1 0.251255 0.558801
1 0.284169 0.56492
0.0322728 0.572091 0.617884
0.336126 0.5906 0.601083
0.669718 0.600458 0.570886
0.941848 0.6224 0.561852
1 0.646097 0.55877
0.0237736 0.916838 0.666178
0.316579 0.9243 0.638315
0.633738 0.917723 0.591684
0.886915 0.920714 0.563714
1 0.927672 0.543877
0.00943008 1 0.698192
0.287526 1 0.655634
0.596567 1 0.60087
0.847837 1 0.571008
1 1 0.552407
0.150637 0 0.907393
0.429084 0 0.865171
0.743847 0 0.816144
1 0 0.798764
1 0 0.801907
0.126558 0.177691 0.932052
0.430777 0.196567 0.915633
0.770886 0.212955 0.891951
1 0.241947 0.889998
1 0.274296 0.895552
0.0726482 0.562371 0.948669
0.376074 0.580453 0.931441
0.709026 0.589654 0.900587
0.979858 0.6103 0.890272
1 0.6318 0.884978
0.0610361 0.90399 0.993835
0.35169 0.9093 0.963836
0.66688 0.900771 0.915236
0.918608 0.902312 0.885817
1 0.909133 0.865858
0.0410773 1 1
0.319219 1 0.977722
0.628458 1 0.923171
0.879835 1 0.8934
1 1 0.874907
0.178698 0 1
0.459022 0 1
0.776181 0 1
1 0 1
1 0 1
0.163149 0.174243 1
0.46981 0.19556 1
0.81001 0.212039 1
1 0.239353 1
1 0.271305 1
0.109926 0.559594 1
0.413245 0.577569 1
0.745251 0.58584 1
1 0.604456 1
1 0.623911 1
0.0946059 0.89752 1
0.383154 0.90074 1
0.696376 0.890211 1
0.947326 0.890974 1
1 0.897642 1
0.0697032 1 1
0.348272 1 1
0.657481 1 1
0.908965 1 1
1 1 1
