modules/luts/cube_folder/Bright.CUBE
TITLE "Generated by Resolve"
LUT_3D_SIZE 9
0.0643473 0 0
0.182666 0 0
0.3337 0 0
0.491356 0 0
0.64268 0 0
0.77969 0 0
0.898589 0 0
1 0 0
1 0 0
0.0452888 0.075227 0
0.170626 0.0765393 0
0.327245 0.0718395 0
0.489815 0.0678569 0
0.647013 0.0678569 0
0.790631 0.0740215 0
0.91693 0.0875868 0
1 0.104555 0
1 0.122789 0
0.0140688 0.217441 0
0.145373 0.22472 0
0.309239 0.227268 0
0.479362 0.230854 0
0.643946 0.238239 0
0.794339 0.251179 0
0.925216 0.269322 0
1 0.288273 0
1 0.305364 0
0 0.396628 0
0.108888 0.411536 0
0.278401 0.41973 0
0.45243 0.427207 0
0.617838 0.435431 0
0.766323 0.446464 0
0.894118 0.461524 0
1 0.477791 0
1 0.4934 0
0 0.591562 0
0.0880751 0.605997 0
0.255161 0.611765 0
0.42591 0.615976 0
0.589242 0.62211 0
0.736553 0.631952 0
0.863523 0.646204 0
0.985138 0.660868 0
1 0.673747 0
0 0.774441 0
0.0731365 0.787167 0
0.239292 0.79202 0
0.408957 0.795148 0
0.570138 0.79913 0
0.71426 0.805783 0
0.837217 0.816022 0
0.953674 0.825528 0
1 0.833143 0
0 0.942061 0
0.081117 0.952285 0
0.243717 0.953582 0
0.409049 0.952361 0
0.565255 0.95137 0
0.704128 0.952789 0
0.821744 0.957671 0
0.933547 0.962524 0
1 0.966247 0
0 1 0.0292363
0.085008 1 0.0189975
0.242374 1 0
0.40264 1 0
0.554269 1 0
0.689372 1 0
0.804608 1 0
0.915022 1 0
1 1 0
0 1 0.0419013
0.0700847 1 0.0275425
0.224063 1 0.000259403
0.382239 1 0
0.53286 1 0
0.668482 1 0
0.783398 1 0
0.894545 1 0
1 1 0
0.0770428 0 0.0556954
0.19501 0 0.034287
0.346975 0 0.00497444
0.505165 0 0
0.656962 0 0
0.794476 0 0
0.914031 0 0
1 0 0
1 0 0
0.0592508 0.0711986 0.0587778
0.185092 0.0730144 0.045243
0.34226 0.068864 0.021149
0.505501 0.0655528 0
0.663218 0.0660868 0
0.80798 0.0733959 0
0.935073 0.0877546 0
1 0.105409 0
1 0.123766 0
0.0300298 0.215412 0.057435
0.162188 0.223545 0.0502174
0.326589 0.226642 0.0333562
0.497459 0.230961 0.0170596
0.662837 0.239155 0.00579843
0.813352 0.252216 0.0018616
0.94435 0.270466 0.00616464
1 0.288838 0.0112917
1 0.305531 0.014435
0 0.397269 0.0518959
0.127733 0.41239 0.051667
0.297688 0.421042 0.0403449
0.47126 0.428046 0.0267491
0.636225 0.435828 0.0150759
0.784298 0.446448 0.00868238
0.912077 0.461494 0.00978103
1 0.477775 0.0128328
1 0.493477 0.0149844
0 0.592172 0.0661173
0.106294 0.606241 0.0648356
0.273167 0.611795 0.0504311
0.444129 0.616205 0.034226
0.607385 0.622263 0.0208438
0.754513 0.631937 0.0135042
0.881209 0.645914 0.0135348
1 0.66006 0.0144503
1 0.672374 0.0132143
0 0.774395 0.0837415
0.0909895 0.787045 0.0810559
0.256962 0.791699 0.0657511
0.426307 0.794507 0.0479438
0.587076 0.798093 0.0320745
0.73077 0.804334 0.0213016
0.853056 0.813886 0.016907
0.969192 0.823056 0.0128481
1 0.830137 0.00639353
0 0.941299 0.118791
0.0979019 0.95108 0.113222
0.260166 0.952041 0.0942092
0.424857 0.950195 0.0717632
0.580346 0.948486 0.0506142
0.7187 0.949386 0.0344854
0.836088 0.954025 0.0251926
0.947555 0.958556 0.0164797
1 0.961852 0.00622568
0 1 0.149126
0.100145 1 0.138354
0.256992 1 0.113924
0.416678 1 0.0864729
0.5682 1 0.0613413
0.703151 1 0.041825
0.818357 1 0.0303349
0.928847 1 0.0206455
1 1 0.0108797
0 1 0.16022
0.083711 1 0.145403
0.237812 1 0.118227
0.395819 1 0.0890669
0.546746 1 0.0633707
0.68159 1 0.0437324
0.797314 1 0.0327764
0.908492 1 0.0237888
1 1 0.0140383
0.0906996 0 0.204562
0.209354 0 0.183841
0.36228 0 0.155489
0.520653 0 0.126711
0.672938 0 0.102358
0.811032 0 0.0859693
0.931243 0 0.0794995
1 0 0.0769665
1 0 0.0761883
0.0749065 0.0635386 0.209644
0.201266 0.0658579 0.196612
0.359045 0.0623178 0.173129
0.522972 0.0597086 0.149905
0.681559 0.0610971 0.131838
0.827085 0.0691691 0.122896
0.954849 0.0841993 0.12398
1 0.102327 0.128878
1 0.121202 0.134203
0.0475776 0.209644 0.210193
0.180819 0.21886 0.204059
0.346014 0.222736 0.187991
0.517601 0.227787 0.172427
0.683314 0.236301 0.161486
0.834119 0.249638 0.157824
0.964721 0.267521 0.161746
1 0.285451 0.166445
1 0.301732 0.169162
0.00872816 0.394095 0.207248
0.148531 0.409857 0.20766
0.318181 0.418204 0.196048
0.491386 0.424857 0.182101
0.656031 0.432319 0.170108
0.803998 0.442817 0.163592
0.931823 0.457908 0.164736
1 0.474113 0.167697
1 0.489418 0.169467
0 0.589044 0.22153
0.126223 0.602823 0.219959
0.29279 0.608087 0.205264
0.4636 0.612345 0.188922
0.62678 0.618341 0.175463
0.773724 0.627817 0.167926
0.900114 0.641489 0.167651
1 0.655222 0.168139
1 0.667247 0.166629
0 0.77055 0.238437
0.110323 0.783062 0.235599
0.276051 0.787472 0.22005
0.445075 0.789944 0.201907
0.605554 0.79324 0.185763
0.748653 0.798886 0.174395
0.870481 0.80798 0.169528
0.985885 0.816419 0.164752
1 0.823041 0.157809
0 0.936812 0.272847
0.116243 0.946105 0.266789
0.277714 0.946258 0.246967
0.441901 0.943908 0.224002
0.59704 0.941848 0.202502
0.734874 0.942214 0.18587
0.851621 0.946242 0.175937
0.963043 0.950713 0.167163
1 0.953841 0.156756
0 1 0.301213
0.116442 1 0.28986
0.272984 1 0.265126
0.432319 1 0.237308
0.583398 1 0.211734
0.718441 1 0.192325
0.833616 1 0.180819
0.944274 1 0.171283
1 1 0.160769
0 1 0.310979
0.0990616 1 0.295964
0.253086 1 0.268711
0.411093 1 0.239567
0.562264 1 0.214084
0.697032 1 0.194385
0.812787 1 0.183459
0.923995 1 0.174487
1 1 0.164767
0.104768 0 0.396597
0.226093 0 0.378561
0.379614 0 0.350805
0.53843 0 0.322469
0.691234 0 0.298619
0.829923 0 0.282841
0.950835 0 0.277073
1 0 0.275288
1 0 0.275441
0.0928817 0.0507973 0.405585
0.219745 0.0536355 0.393088
0.378164 0.0507362 0.37023
0.54284 0.0488594 0.347738
0.702296 0.051133 0.330571
0.848386 0.0597696 0.322179
0.976959 0.0756085 0.324071
1 0.0943923 0.329625
1 0.113176 0.334859
0.0677501 0.1991 0.408347
0.201892 0.209216 0.403098
0.367864 0.21387 0.387808
0.539864 0.219333 0.372656
0.706127 0.228412 0.36228
0.856748 0.241566 0.358419
0.987045 0.259129 0.362051
1 0.276905 0.366583
1 0.292851 0.368978
0.0314031 0.386053 0.407889
0.171145 0.40177 0.408255
0.340841 0.410147 0.396674
0.513832 0.416602 0.382528
0.67805 0.423636 0.370108
0.825605 0.433707 0.36318
0.953429 0.448814 0.364324
1 0.464927 0.367208
1 0.480064 0.36878
0.010544 0.580468 0.421637
0.147845 0.593744 0.419562
0.314427 0.599008 0.404868
0.485222 0.60325 0.38851
0.648264 0.60911 0.374914
0.794949 0.618341 0.367132
0.921019 0.631678 0.366522
1 0.645212 0.366812
1 0.656443 0.364508
0 0.761471 0.438041
0.131792 0.773816 0.43505
0.297322 0.778027 0.419303
0.466056 0.780224 0.400885
0.62591 0.782879 0.384085
0.768429 0.787945 0.372137
0.889616 0.796399 0.366644
1 0.804501 0.361517
1 0.810544 0.354009
0.00350958 0.926696 0.471397
0.136309 0.935454 0.46482
0.297429 0.935256 0.444648
0.461067 0.932357 0.421149
0.615656 0.929763 0.3991
0.753002 0.929656 0.381979
0.869398 0.933303 0.371679
0.980514 0.937484 0.362631
1 0.940551 0.352148
0.00729381 1 0.49807
0.134859 1 0.486244
0.290791 1 0.460914
0.450004 1 0.432975
0.600855 1 0.407187
0.735836 1 0.387701
0.850874 1 0.376043
0.961898 1 0.366903
1 1 0.356313
0 1 0.506462
0.116503 1 0.491371
0.270497 1 0.464088
0.428595 1 0.435035
0.579919 1 0.40972
0.714611 1 0.389944
0.830396 1 0.379049
0.941634 1 0.370092
1 1 0.360403
0.120653 0 0.586999
0.242878 0 0.569848
0.396933 0 0.542626
0.556222 0 0.514763
0.709529 0 0.491432
0.848859 0 0.47628
0.970535 0 0.47129
1 0 0.470344
1 0 0.471
0.110842 0.0386511 0.598077
0.23827 0.0420386 0.586114
0.39736 0.039826 0.563928
0.5626 0.0385138 0.542031
0.723171 0.0419013 0.525948
0.870054 0.0513161 0.518364
0.999176 0.0677043 0.520806
1 0.0867323 0.526604
1 0.105531 0.531838
0.0880751 0.189319 0.603174
0.222736 0.199954 0.598474
0.389471 0.205371 0.583932
0.562356 0.211704 0.56965
0.728573 0.220737 0.559228
0.879362 0.234073 0.555566
1 0.251255 0.558801
1 0.268452 0.562753
1 0.284169 0.56492
0.0537575 0.378286 0.604761
0.193927 0.394446 0.605554
0.363287 0.402487 0.593652
0.535714 0.408362 0.578912
0.699519 0.414984 0.566079
0.847044 0.42504 0.559136
0.974868 0.440146 0.560281
1 0.456184 0.563088
1 0.471092 0.564446
0.0322728 0.572091 0.617884
0.169253 0.585046 0.615488
0.336126 0.5906 0.601083
0.506844 0.594766 0.584649
0.669718 0.600458 0.570886
0.816159 0.609445 0.56286
0.941848 0.6224 0.561852
1 0.635203 0.56144
1 0.646097 0.55877
0.0169375 0.75288 0.634073
0.153109 0.765026 0.630884
0.318257 0.768856 0.614755
0.486488 0.770535 0.595819
0.645792 0.772656 0.578485
0.7879 0.77731 0.566125
0.908614 0.78529 0.560159
1 0.792859 0.554498
1 0.798413 0.546487
0.0237736 0.916838 0.666178
0.156237 0.925277 0.659251
0.316579 0.9243 0.638315
0.479652 0.920836 0.614252
0.633738 0.917723 0.591684
0.770825 0.917357 0.574304
0.886915 0.920714 0.563714
0.997665 0.924514 0.554284
1 0.927672 0.543877
0.0259098 1 0.691203
0.152956 1 0.678859
0.308461 1 0.653086
0.46743 1 0.624903
0.618128 1 0.598962
0.753079 1 0.579446
0.868193 1 0.56788
0.979446 1 0.558953
1 1 0.548226
0.00943008 1 0.698192
0.133745 1 0.683131
0.287526 1 0.655634
0.445991 1 0.626947
0.596567 1 0.60087
0.732036 1 0.581872
0.847837 1 0.571008
0.959106 1 0.562081
1 1 0.552407
0.136294 0 0.763455
0.259388 0 0.747173
0.413703 0 0.720211
0.573495 0 0.692836
0.727352 0 0.670069
0.867353 0 0.655589
0.989563 0 0.651133
1 0 0.651331
1 0 0.652766
0.128298 0.0283513 0.776333
0.256336 0.0323491 0.764996
0.416129 0.0308385 0.743511
0.582238 0.030396 0.722454
0.743374 0.0343481 0.706966
0.890959 0.04448 0.700084
1 0.0616159 0.703273
1 0.0808728 0.7093
1 0.099733 0.714595
0.108003 0.181506 0.783917
0.243458 0.192935 0.779995
0.41091 0.199069 0.766186
0.584024 0.205631 0.752132
0.750683 0.215106 0.742153
0.901015 0.227985 0.738018
1 0.244724 0.74081
1 0.261494 0.74435
1 0.27718 0.746487
0.0758068 0.37261 0.787625
0.215686 0.388449 0.788128
0.384695 0.396155 0.77586
0.556756 0.401663 0.760769
0.720394 0.408103 0.747768
0.86807 0.418326 0.740963
0.995819 0.433341 0.742046
1 0.449165 0.744625
1 0.463798 0.745708
0.0534524 0.565515 0.799863
0.190249 0.578286 0.797284
0.356878 0.583597 0.782635
0.52752 0.587701 0.766125
0.690196 0.593194 0.752178
0.836332 0.601862 0.743832
0.961608 0.614404 0.742428
1 0.626856 0.741634
1 0.637003 0.738247
0.0375525 0.745739 0.815503
0.17348 0.757641 0.812055
0.338293 0.761151 0.79559
0.506081 0.762387 0.776211
0.665049 0.764172 0.758556
0.806592 0.768246 0.745617
0.926543 0.775464 0.738888
1 0.782513 0.732708
1 0.787823 0.724453
0.0433967 0.908721 0.846601
0.175036 0.916335 0.83888
0.335027 0.915007 0.817594
0.497597 0.91104 0.792996
0.651164 0.907408 0.769924
0.78764 0.906432 0.751934
0.90367 0.909712 0.741268
1 0.913359 0.731685
1 0.916472 0.721248
0.0434577 1 0.869551
0.17023 1 0.856947
0.325368 1 0.830808
0.483879 1 0.802167
0.634684 1 0.776333
0.769497 1 0.756664
0.884901 1 0.745388
0.995377 1 0.735683
1 1 0.72578
0.0260471 1 0.875608
0.150286 1 0.860487
0.304128 1 0.833036
0.462776 1 0.804532
0.613275 1 0.778408
0.748775 1 0.759441
0.864607 1 0.748592
0.975891 1 0.739696
1 1 0.730037
0.150637 0 0.907393
0.274418 0 0.891783
0.429084 0 0.865171
0.58938 0 0.838315
0.743847 0 0.816144
0.88455 0 0.80238
1 0 0.798764
1 0 0.799786
1 0 0.801907
0.144396 0.0220798 0.922011
0.27306 0.0267338 0.911315
0.433448 0.0257877 0.89041
0.60058 0.0263981 0.870405
0.762478 0.0310979 0.85565
0.910826 0.0419928 0.849531
1 0.0595102 0.853101
1 0.0789349 0.859312
1 0.0974746 0.864286
0.126558 0.177691 0.932052
0.262913 0.190021 0.929046
0.430777 0.196567 0.915633
0.604517 0.203769 0.90222
0.770886 0.212955 0.891951
0.920882 0.225483 0.887465
1 0.241947 0.889998
1 0.258549 0.893355
1 0.274296 0.895552
0.096025 0.370459 0.937423
0.235813 0.386221 0.937835
0.404685 0.393774 0.925444
0.576394 0.398947 0.910002
0.739681 0.405035 0.896635
0.887266 0.415167 0.889754
1 0.430106 0.890745
1 0.445747 0.893156
1 0.46006 0.893919
0.0726482 0.562371 0.948669
0.209461 0.575143 0.94609
0.376074 0.580453 0.931441
0.546578 0.584405 0.914794
0.709026 0.589654 0.900587
0.85481 0.597986 0.891905
0.979858 0.6103 0.890272
1 0.622049 0.888777
1 0.6318 0.884978
0.0565347 0.742367 0.964065
0.192203 0.754009 0.960357
0.356878 0.757366 0.943755
0.524147 0.758099 0.923888
0.682322 0.759091 0.905425
0.823301 0.7626 0.891936
0.942946 0.769512 0.884886
1 0.776043 0.878187
1 0.780713 0.869307
0.0610361 0.90399 0.993835
0.19234 0.911269 0.985763
0.35169 0.9093 0.963836
0.513664 0.904738 0.938659
0.66688 0.900771 0.915236
0.803006 0.899428 0.896895
0.918608 0.902312 0.885817
1 0.906004 0.87628
1 0.909133 0.865858
0.0594797 1 1
0.18558 1 1
0.340627 1 0.975662
0.498955 1 0.946822
0.649683 1 0.920928
0.784466 1 0.901228
0.90013 1 0.890211
1 1 0.880446
1 1 0.870558
0.0410773 1 1
0.16524 1 1
0.319219 1 0.977722
0.477897 1 0.949264
0.628458 1 0.923171
0.763973 1 0.904234
0.879835 1 0.8934
0.99115 1 0.884535
1 1 0.874907
0.164462 0 1
0.288762 0 1
0.443885 0 0.994568
0.6047 0 0.968231
0.759823 0 0.946715
0.901289 0 0.933715
1 0 0.930938
1 0 0.932479
1 0 0.935393
0.159945 0.0178683 1
0.289296 0.0231937 1
0.450416 0.0229953 1
0.618494 0.0245365 1
0.78117 0.0300145 0.988937
0.929931 0.0413214 0.98323
1 0.0593423 0.987305
1 0.078645 0.993378
1 0.0969253 0.998108
0.144564 0.175921 1
0.281559 0.188891 1
0.450294 0.196307 1
0.623987 0.203464 1
0.790463 0.212741 1
0.940169 0.22501 1
1 0.241001 1
1 0.257221 1
1 0.272984 1
0.115755 0.370413 1
0.25539 0.386023 1
0.423606 0.392935 1
0.594873 0.39765 1
0.75816 0.403738 1
0.90573 0.413855 1
1 0.428672 1
1 0.444053 1
1 0.458091 1
0.0910964 0.561044 1
0.228061 0.573968 1
0.394614 0.579217 1
0.56495 0.583001 1
0.727184 0.588052 1
0.872648 0.596063 1
0.996994 0.607675 1
1 0.618936 1
1 0.628 1
0.0749371 0.740993 1
0.210285 0.752316 1
0.374304 0.755032 1
0.54107 0.755245 1
0.698894 0.755886 1
0.839323 0.758846 1
0.958434 0.765225 1
1 0.771252 1
1 0.77557 0.99852
0.0779583 0.901152 1
0.208469 0.907637 1
0.367376 0.905226 1
0.528893 0.900191 1
0.681575 0.895689 1
0.817533 0.894194 1
0.932891 0.896803 1
1 0.900481 1
1 0.903426 0.994507
0.0745861 1 1
0.20029 1 1
0.355032 1 1
0.513237 1 1
0.663935 1 1
0.798795 1 1
0.914672 1 1
1 1 1
1 1 0.999603
0.0553292 1 1
0.179339 1 1
0.333639 1 1
0.491661 1 1
0.642893 1 1
0.778439 1 1
0.894331 1 1
1 1 1
1 1 1
0.178698 0 1
0.30338 0 1
0.459022 0 1
0.620386 0 1
0.776181 0 1
0.918181 0 1
1 0 1
1 0 1
1 0 1
0.17586 0.0135195 1
0.305928 0.0195468 1
0.467903 0.0202029 1
0.6365 0.0222629 1
0.799939 0.0285039 1
0.949584 0.0406958 1
1 0.0586709 1
1 0.078172 1
1 0.0960098 1
0.163149 0.174243 1
0.300862 0.187915 1
0.46981 0.19556 1
0.643946 0.203143 1
0.81001 0.212039 1
0.959213 0.223774 1
1 0.239353 1
1 0.255558 1
1 0.271305 1
0.135424 0.369818 1
0.274632 0.385 1
0.442496 0.391546 1
0.613458 0.395956 1
0.77702 0.402335 1
0.924514 0.412375 1
1 0.427008 1
1 0.442145 1
1 0.455772 1
0.109926 0.559594 1
0.246784 0.572412 1
0.413245 0.577569 1
0.583383 0.581155 1
0.745251 0.58584 1
0.890242 0.593378 1
1 0.604456 1
1 0.615259 1
1 0.623911 1
0.0931411 0.738933 1
0.228153 0.74992 1
0.39173 0.752178 1
0.558145 0.752056 1
0.715251 0.751965 1
0.85507 0.75433 1
0.973663 0.760189 1
1 0.765972 1
1 0.76997 1
0.0946059 0.89752 1
0.224796 0.903685 1
0.383154 0.90074 1
0.544167 0.895186 1
0.696376 0.890211 1
0.83212 0.888502 1
0.947326 0.890974 1
1 0.894606 1
1 0.897642 1
0.0895552 1 1
0.215045 1 1
0.36936 1 1
0.527642 1 1
0.678126 1 1
0.813367 1 1
0.928435 1 1
1 1 1
1 1 1
0.0697032 1 1
0.19379 1 1
0.348272 1 1
0.506233 1 1
0.657481 1 1
0.793057 1 1
0.908965 1 1
1 1 1
1 1 1
