modules/luts/cube_folder/BW Faded.CUBE
TITLE "Generated by Resolve"
LUT_3D_SIZE 33
0.16321 0.16321 0.16321
0.167132 0.166888 0.166888
0.171374 0.170901 0.170901
0.175769 0.175051 0.175051
0.179995 0.179049 0.179049
0.184207 0.183017 0.183017
0.188357 0.186938 0.186938
0.192508 0.19086 0.19086
0.196643 0.194766 0.194766
0.2009 0.19881 0.19881
0.20499 0.20267 0.20267
0.209064 0.206516 0.206516
0.213123 0.21033 0.21033
0.217182 0.21416 0.21416
0.221256 0.21799 0.21799
0.225406 0.221897 0.221897
0.229419 0.22565 0.22565
0.233417 0.229404 0.229404
0.23743 0.233143 0.233143
0.241443 0.236881 0.236881
0.245594 0.240726 0.240726
0.249607 0.244434 0.244434
0.253605 0.248112 0.248112
0.257633 0.251789 0.251789
0.261677 0.255451 0.255451
0.265812 0.259144 0.259144
0.269993 0.262837 0.262837
0.274128 0.266453 0.266453
0.278294 0.270039 0.270039
0.28249 0.273625 0.273625
0.286671 0.277195 0.277195
0.290944 0.280842 0.280842
0.295155 0.284474 0.284474
0.176394 0.176638 0.176394
0.180621 0.180621 0.180377
0.18497 0.184741 0.184497
0.189136 0.188647 0.188403
0.193271 0.192554 0.192309
0.197406 0.19646 0.196216
0.201511 0.200351 0.200107
0.205753 0.204349 0.204105
0.209812 0.208179 0.207935
0.213855 0.212009 0.211765
0.217899 0.215824 0.215579
0.221927 0.219623 0.219379
0.225956 0.223407 0.223163
0.230091 0.227314 0.22707
0.234073 0.231067 0.230823
0.238071 0.234806 0.234562
0.242054 0.238544 0.2383
0.246036 0.242252 0.242008
0.250034 0.245975 0.245731
0.254124 0.24979 0.249546
0.258091 0.253468 0.253223
0.262074 0.257145 0.256901
0.266056 0.260807 0.260563
0.270054 0.264454 0.26421
0.274113 0.268132 0.267887
0.278264 0.271839 0.271595
0.282353 0.275441 0.275196
0.286473 0.279026 0.278798
0.290623 0.282612 0.282368
0.294804 0.286168 0.285924
0.299046 0.289815 0.28957
0.303288 0.293431 0.293187
0.307439 0.297002 0.296757
0.189853 0.190341 0.189853
0.194034 0.194278 0.19379
0.198169 0.198169 0.197681
0.202274 0.202045 0.201556
0.206363 0.20589 0.205402
0.210422 0.20972 0.209232
0.214603 0.213672 0.213184
0.218647 0.217502 0.217014
0.222675 0.221286 0.220798
0.226673 0.225071 0.224582
0.230655 0.228824 0.228336
0.234638 0.232578 0.23209
0.238758 0.236469 0.235981
0.242725 0.240192 0.239704
0.246677 0.2439 0.243427
0.250629 0.247608 0.24712
0.254582 0.251301 0.250813
0.258549 0.255009 0.25452
0.262623 0.258808 0.25832
0.26656 0.26247 0.261997
0.270512 0.266133 0.265644
0.274464 0.26978 0.269291
0.278431 0.273426 0.272938
0.282551 0.277195 0.276707
0.286549 0.280812 0.280324
0.290593 0.284413 0.283925
0.294667 0.287999 0.28751
0.298787 0.291585 0.291096
0.302968 0.295186 0.294697
0.30724 0.298848 0.29836
0.311406 0.302403 0.301915
0.315572 0.305959 0.305486
0.319722 0.309529 0.309041
0.203021 0.203738 0.203021
0.207095 0.207568 0.206851
0.211154 0.211398 0.210666
0.215213 0.215213 0.214481
0.219257 0.219013 0.218296
0.223423 0.22295 0.222232
0.227405 0.226719 0.225986
0.231388 0.230472 0.229755
0.23537 0.234226 0.233494
0.239338 0.237964 0.237247
0.243412 0.24181 0.241093
0.247379 0.245548 0.244816
0.251301 0.249241 0.248524
0.255238 0.252949 0.252216
0.259174 0.256641 0.255909
0.263096 0.260319 0.259586
0.267155 0.264118 0.263401
0.271077 0.267781 0.267063
0.275013 0.271443 0.27071
0.278935 0.27509 0.274357
0.282872 0.278721 0.278004
0.286809 0.282353 0.281636
0.290898 0.286122 0.285405
0.294865 0.289738 0.289021
0.298863 0.293355 0.292638
0.302892 0.296956 0.296223
0.306966 0.300542 0.299809
0.311101 0.304128 0.30341
0.315358 0.30782 0.307088
0.319524 0.311376 0.310658
0.323705 0.314946 0.314229
0.327886 0.318517 0.317784
0.332036 0.322087 0.321355
0.21593 0.216892 0.21593
0.219974 0.220691 0.21973
0.223987 0.22446 0.223514
0.228077 0.228305 0.227344
0.23212 0.23212 0.231159
0.236103 0.235874 0.234913
0.24007 0.239597 0.238651
0.244007 0.24332 0.242374
0.247944 0.247028 0.246067
0.251972 0.250843 0.249882
0.25594 0.254582 0.25362
0.259861 0.258259 0.257313
0.263767 0.261936 0.260975
0.267674 0.265614 0.264652
0.27158 0.269276 0.268315
0.275608 0.27306 0.272099
0.27953 0.276722 0.275761
0.283436 0.280369 0.279408
0.287343 0.284001 0.283055
0.291264 0.287648 0.286687
0.295186 0.291279 0.290318
0.29926 0.295033 0.294087
0.303197 0.298665 0.297704
0.307164 0.302281 0.30132
0.311162 0.305882 0.304921
0.31519 0.309483 0.308522
0.319402 0.313207 0.312245
0.323522 0.316793 0.315831
0.327672 0.320363 0.319402
0.331838 0.323934 0.322972
0.336034 0.327504 0.326543
0.34023 0.33109 0.330129
0.344533 0.334813 0.333867
0.228687 0.229877 0.228687
0.232685 0.233631 0.232441
0.236744 0.237446 0.236255
0.240772 0.241245 0.240055
0.244724 0.244953 0.243763
0.248661 0.248661 0.247471
0.252583 0.252354 0.251179
0.256519 0.256062 0.254871
0.260563 0.259892 0.258701
0.264469 0.263554 0.262364
0.26836 0.267231 0.266041
0.272251 0.270893 0.269703
0.276143 0.274556 0.273365
0.280125 0.278294 0.277104
0.284062 0.281987 0.280812
0.287953 0.285634 0.284443
0.291844 0.289281 0.28809
0.29575 0.292912 0.291722
0.299657 0.296544 0.295354
0.30367 0.300298 0.299107
0.307622 0.303944 0.302754
0.311559 0.307561 0.306371
0.315496 0.311192 0.310002
0.319463 0.314809 0.313619
0.323461 0.318425 0.317235
0.327642 0.322164 0.320974
0.331731 0.325765 0.324575
0.335851 0.329351 0.328161
0.340017 0.332937 0.331746
0.344213 0.336538 0.335348
0.348424 0.340124 0.338933
0.352758 0.343862 0.342672
0.356954 0.347463 0.346273
0.241352 0.242771 0.241352
0.245426 0.246586 0.245182
0.249363 0.250294 0.248875
0.2533 0.253986 0.252567
0.257221 0.257679 0.25626
0.261128 0.261357 0.259937
0.26508 0.26508 0.263661
0.269062 0.268833 0.26743
0.272953 0.272511 0.271092
0.276844 0.276158 0.274754
0.28072 0.27982 0.278401
0.284596 0.283467 0.282048
0.288563 0.28719 0.285771
0.2925 0.290898 0.289479
0.296376 0.29453 0.293111
0.300267 0.298177 0.296757
0.304158 0.301808 0.300389
0.308049 0.30544 0.304021
0.312047 0.309178 0.307759
0.315999 0.31284 0.311437
0.319921 0.316472 0.315053
0.323873 0.320104 0.318685
0.327825 0.323735 0.322316
0.331792 0.327367 0.325948
0.335943 0.331136 0.329717
0.340002 0.334752 0.333333
0.344106 0.338369 0.33695
0.348241 0.34197 0.340551
0.352422 0.345571 0.344167
0.356771 0.349325 0.347906
0.361028 0.352956 0.351537
0.365255 0.356573 0.355169
0.369482 0.36022 0.358801
0.253986 0.255619 0.253986
0.257908 0.259312 0.257664
0.26183 0.262974 0.261341
0.265721 0.266651 0.265003
0.269627 0.270314 0.268666
0.273564 0.274022 0.272374
0.277546 0.277775 0.276127
0.281422 0.281422 0.279774
0.285298 0.285069 0.283436
0.289174 0.288716 0.287068
0.29305 0.292363 0.290715
0.297047 0.296147 0.294499
0.300923 0.299779 0.298146
0.304799 0.303426 0.301778
0.308675 0.307057 0.305409
0.312566 0.310704 0.309056
0.316518 0.314397 0.312764
0.3205 0.31812 0.316472
0.324407 0.321752 0.320119
0.328328 0.325399 0.323751
0.332265 0.32903 0.327398
0.336217 0.332677 0.331044
0.340276 0.336416 0.334783
0.34432 0.340108 0.338476
0.348348 0.343755 0.342107
0.352422 0.347387 0.345754
0.356542 0.351034 0.349386
0.360723 0.354681 0.353033
0.365042 0.358419 0.356786
0.369314 0.362081 0.360449
0.373571 0.365728 0.364096
0.377844 0.36939 0.367758
0.382116 0.373083 0.371435
0.266407 0.268269 0.266407
0.270314 0.271931 0.270069
0.274205 0.275593 0.273716
0.278096 0.27924 0.277378
0.282124 0.283024 0.281163
0.286 0.286671 0.28481
0.289876 0.290318 0.288457
0.293736 0.293965 0.292103
0.297612 0.297612 0.295735
0.301503 0.301274 0.299413
0.305486 0.305028 0.303166
0.309346 0.308675 0.306798
0.313222 0.312306 0.310445
0.317113 0.315953 0.314092
0.320989 0.3196 0.317723
0.324941 0.323293 0.321431
0.328923 0.327031 0.32517
0.33283 0.330678 0.328817
0.336767 0.33434 0.332464
0.340703 0.338003 0.336126
0.344656 0.34165 0.339788
0.348699 0.345388 0.343526
0.352758 0.349126 0.34725
0.356771 0.352789 0.350927
0.36083 0.356466 0.354604
0.364935 0.360128 0.358267
0.369085 0.36379 0.361929
0.373434 0.367605 0.365743
0.377676 0.371283 0.369421
0.381964 0.374975 0.373098
0.386267 0.378653 0.376776
0.39057 0.382345 0.380468
0.39498 0.386175 0.384298
0.278767 0.280858 0.278767
0.282658 0.284504 0.282414
0.286534 0.288151 0.286046
0.290562 0.291936 0.28983
0.294438 0.295567 0.293477
0.298314 0.299214 0.297124
0.302174 0.302846 0.300755
0.306035 0.306493 0.304402
0.309926 0.310155 0.308049
0.313924 0.313924 0.311818
0.3178 0.317571 0.315465
0.321675 0.321218 0.319112
0.325551 0.324865 0.322759
0.329442 0.328511 0.326421
0.333471 0.332311 0.33022
0.337392 0.335973 0.333883
0.341299 0.339635 0.337545
0.345235 0.343297 0.341207
0.349172 0.346975 0.344884
0.35317 0.350698 0.348592
0.357259 0.354482 0.352392
0.361257 0.358175 0.356085
0.36527 0.361868 0.359777
0.369314 0.36556 0.36347
0.373419 0.369268 0.367178
0.37763 0.373053 0.370962
0.381903 0.376837 0.374746
0.38613 0.380545 0.378439
0.390417 0.384253 0.382162
0.394751 0.387976 0.385885
0.399115 0.391714 0.389624
0.403571 0.39556 0.393469
0.407965 0.399374 0.397284
0.291081 0.2934 0.291081
0.295079 0.297154 0.294835
0.298985 0.300816 0.298497
0.302861 0.304463 0.302129
0.306737 0.308095 0.305776
0.310613 0.311742 0.309422
0.314473 0.315389 0.313054
0.318486 0.319173 0.316854
0.322362 0.32282 0.3205
0.326238 0.326467 0.324147
0.330129 0.330129 0.32781
0.33402 0.333791 0.331456
0.337911 0.337453 0.335134
0.34197 0.341268 0.338949
0.345876 0.34493 0.342611
0.349798 0.348623 0.346288
0.35375 0.352316 0.349981
0.357702 0.356008 0.353689
0.3617 0.359731 0.357412
0.365805 0.363561 0.361227
0.369818 0.367269 0.36495
0.373861 0.371008 0.368673
0.37792 0.374746 0.372412
0.381994 0.37847 0.37615
0.386175 0.382269 0.37995
0.390463 0.386114 0.383795
0.394705 0.389868 0.387549
0.398993 0.393637 0.391318
0.403326 0.397391 0.395071
0.407706 0.40116 0.39884
0.412268 0.405097 0.402777
0.416693 0.408911 0.406592
0.421118 0.412757 0.410437
0.303487 0.306035 0.303487
0.307408 0.309712 0.307164
0.311284 0.313344 0.310796
0.31516 0.316991 0.314443
0.319051 0.320638 0.31809
0.322927 0.324285 0.321736
0.32694 0.328069 0.325521
0.330831 0.331731 0.329183
0.334722 0.335409 0.332845
0.338613 0.339071 0.336522
0.342519 0.342748 0.3402
0.346426 0.346426 0.343862
0.350484 0.350256 0.347692
0.354421 0.353948 0.3514
0.358358 0.357656 0.355108
0.36231 0.361364 0.358816
0.366278 0.365072 0.362524
0.370413 0.368948 0.3664
0.374426 0.372686 0.370138
0.37847 0.37644 0.373892
0.382513 0.380194 0.377646
0.386572 0.383948 0.381399
0.390692 0.387747 0.385199
0.394965 0.391684 0.38912
0.399161 0.395468 0.39292
0.403388 0.399268 0.396719
0.407675 0.403067 0.400519
0.412024 0.406882 0.404334
0.416464 0.410758 0.408209
0.421027 0.41471 0.412146
0.425483 0.418555 0.415991
0.429953 0.422415 0.419867
0.434455 0.426322 0.423774
0.315831 0.318608 0.315831
0.319707 0.322255 0.319463
0.323598 0.325902 0.32311
0.327489 0.329549 0.326772
0.331472 0.333303 0.330526
0.335424 0.337026 0.334234
0.339315 0.340688 0.337896
0.343221 0.344366 0.341573
0.347127 0.348043 0.345266
0.351049 0.351736 0.348959
0.355093 0.355566 0.352773
0.35906 0.359289 0.356512
0.362997 0.362997 0.36022
0.366964 0.36672 0.363943
0.370947 0.370459 0.367681
0.374945 0.374212 0.371435
0.379095 0.378119 0.375341
0.383124 0.381888 0.379095
0.387167 0.385657 0.382879
0.391241 0.389456 0.386679
0.395346 0.393271 0.390478
0.399481 0.397086 0.394293
0.403769 0.401053 0.398276
0.40795 0.404898 0.402106
0.412207 0.408759 0.405966
0.41651 0.412619 0.409842
0.420859 0.41648 0.413703
0.425284 0.420386 0.417594
0.429877 0.424399 0.421607
0.434394 0.428305 0.425528
0.438941 0.432242 0.429465
0.443503 0.436179 0.433402
0.448051 0.440146 0.437369
0.328145 0.331167 0.328145
0.332052 0.334829 0.331807
0.335958 0.338506 0.335485
0.339956 0.342245 0.339223
0.343923 0.345983 0.342962
0.347829 0.349676 0.346639
0.351766 0.353368 0.350347
0.355688 0.357076 0.354055
0.359625 0.360784 0.357763
0.363684 0.364599 0.361578
0.367681 0.368368 0.365347
0.371649 0.372122 0.3691
0.375647 0.375875 0.372854
0.379644 0.379644 0.376623
0.383658 0.383413 0.380392
0.387839 0.38735 0.384329
0.391897 0.391165 0.388144
0.395987 0.39498 0.391959
0.400076 0.39881 0.395789
0.404196 0.40264 0.399619
0.408484 0.406638 0.403616
0.412695 0.410544 0.407523
0.416907 0.414435 0.411414
0.421149 0.418326 0.415305
0.425452 0.422248 0.419211
0.429816 0.426169 0.423148
0.434409 0.430274 0.427253
0.438895 0.434226 0.431205
0.443427 0.438178 0.435157
0.448005 0.442161 0.439139
0.452644 0.446174 0.443153
0.457313 0.450233 0.447211
0.462104 0.454459 0.451423
0.340536 0.343801 0.340536
0.344457 0.347463 0.344213
0.348531 0.351308 0.348043
0.352453 0.355001 0.351736
0.356405 0.358709 0.355444
0.360342 0.362417 0.359152
0.364294 0.36614 0.362875
0.368322 0.36994 0.36669
0.372381 0.37377 0.37052
0.376364 0.377539 0.374273
0.380362 0.381308 0.378042
0.384375 0.385077 0.381826
0.388403 0.388876 0.385626
0.392554 0.392798 0.389532
0.396674 0.396674 0.393408
0.400763 0.400519 0.397253
0.404868 0.404364 0.401099
0.409003 0.40824 0.404974
0.413169 0.412146 0.408881
0.417487 0.416175 0.412909
0.421714 0.420111 0.416846
0.425971 0.424048 0.420783
0.430259 0.428016 0.42475
0.434592 0.432013 0.428748
0.438972 0.435996 0.432731
0.443549 0.440146 0.436881
0.448051 0.44416 0.440894
0.452628 0.448203 0.444938
0.457267 0.452262 0.448997
0.461936 0.456336 0.453071
0.466636 0.46041 0.45716
0.471534 0.464698 0.461448
0.47631 0.468894 0.465629
0.353017 0.356527 0.353017
0.357076 0.360342 0.356832
0.361044 0.364065 0.360555
0.364996 0.367788 0.364279
0.368978 0.371527 0.368017
0.372961 0.37528 0.371771
0.377005 0.379095 0.375586
0.381094 0.382956 0.379446
0.385107 0.386755 0.383246
0.389151 0.390555 0.387045
0.39321 0.394385 0.390875
0.397269 0.398215 0.394705
0.401419 0.402152 0.398642
0.405585 0.406073 0.402564
0.40972 0.409964 0.406455
0.413886 0.413886 0.410376
0.418051 0.417792 0.414282
0.422232 0.421714 0.418204
0.426612 0.425834 0.422324
0.430884 0.429816 0.426307
0.435187 0.433814 0.43032
0.43949 0.437827 0.434318
0.443839 0.441855 0.438346
0.448371 0.446036 0.442527
0.452888 0.450156 0.446662
0.45742 0.454261 0.450752
0.461997 0.458351 0.454841
0.466651 0.46247 0.458961
0.471382 0.466621 0.463111
0.476326 0.47097 0.46746
0.481163 0.475181 0.471672
0.485985 0.479393 0.475883
0.490837 0.483665 0.480156
0.365682 0.369436 0.365682
0.369665 0.37319 0.369421
0.373663 0.376944 0.37319
0.377661 0.380713 0.376944
0.381674 0.384482 0.380713
0.385855 0.388418 0.384665
0.389899 0.392233 0.388479
0.393957 0.396063 0.392309
0.398016 0.399908 0.396139
0.40209 0.403754 0.4
0.406241 0.407675 0.403922
0.410483 0.411688 0.407935
0.414633 0.41561 0.411841
0.418784 0.419516 0.415763
0.422965 0.423468 0.419699
0.427192 0.427436 0.423682
0.431525 0.431525 0.427756
0.435874 0.435615 0.431846
0.440162 0.439628 0.435874
0.444495 0.443687 0.439918
0.448875 0.447761 0.444007
0.4533 0.451881 0.448127
0.457847 0.456107 0.452354
0.462379 0.460304 0.456535
0.466941 0.464469 0.4607
0.471565 0.468666 0.464897
0.47628 0.472892 0.469123
0.481041 0.477104 0.47335
0.485985 0.481483 0.477729
0.490898 0.485786 0.482033
0.495842 0.49012 0.486351
0.500816 0.494484 0.490715
0.505791 0.498863 0.495109
0.378363 0.382376 0.378363
0.382376 0.38616 0.382132
0.386419 0.38996 0.385931
0.390478 0.39379 0.389761
0.39469 0.397757 0.393729
0.398764 0.401602 0.397574
0.402853 0.405447 0.401434
0.406958 0.409339 0.405325
0.411109 0.41326 0.409232
0.415274 0.417197 0.413184
0.419547 0.421256 0.417227
0.423743 0.425208 0.421195
0.42797 0.429206 0.425177
0.432212 0.433219 0.429191
0.436469 0.437232 0.433204
0.440818 0.441321 0.437308
0.445228 0.445487 0.441474
0.449592 0.449592 0.445579
0.454002 0.453727 0.449714
0.458412 0.457862 0.453849
0.462867 0.462013 0.458
0.467536 0.466377 0.462364
0.472099 0.470619 0.46659
0.476692 0.474876 0.470848
0.481346 0.479133 0.47512
0.486061 0.483421 0.479393
0.490959 0.487831 0.483803
0.495933 0.492271 0.488243
0.500893 0.496651 0.492622
0.505882 0.50103 0.497017
0.510918 0.505455 0.501442
0.516014 0.509941 0.505928
0.521279 0.514626 0.510597
0.39118 0.395483 0.39118
0.395254 0.399298 0.39501
0.399344 0.403143 0.398856
0.403601 0.407156 0.402869
0.407721 0.411063 0.406775
0.411872 0.414969 0.410681
0.416022 0.418891 0.414603
0.420188 0.422827 0.41854
0.424536 0.426963 0.42266
0.428763 0.430961 0.426657
0.433005 0.434974 0.430686
0.437263 0.439002 0.434714
0.441535 0.443046 0.438758
0.445884 0.44715 0.442863
0.450385 0.451423 0.44712
0.45478 0.455558 0.45127
0.459174 0.459709 0.455406
0.463615 0.463874 0.459586
0.468101 0.468101 0.463813
0.472694 0.472404 0.468116
0.477378 0.476799 0.472511
0.481971 0.481086 0.476799
0.48661 0.485405 0.481117
0.491341 0.489784 0.485481
0.496132 0.494194 0.489891
0.50106 0.49868 0.494392
0.50605 0.503197 0.498894
0.511055 0.507652 0.503365
0.516152 0.512169 0.507881
0.521309 0.516732 0.512428
0.526482 0.521294 0.517006
0.531807 0.526009 0.521721
0.537133 0.530739 0.526452
0.404166 0.408743 0.404166
0.408438 0.412772 0.408194
0.412619 0.416709 0.412131
0.41677 0.42063 0.416052
0.420951 0.424567 0.420005
0.425162 0.42855 0.423987
0.429404 0.432563 0.427985
0.433814 0.436744 0.432166
0.438071 0.440772 0.436194
0.442359 0.444831 0.440253
0.446693 0.448936 0.444373
0.451057 0.453071 0.448508
0.455436 0.457221 0.452644
0.459983 0.46154 0.456962
0.464424 0.465736 0.461158
0.46891 0.469978 0.4654
0.473442 0.47425 0.469688
0.477989 0.478538 0.47396
0.482597 0.482872 0.478294
0.487358 0.487358 0.48278
0.492058 0.491768 0.48719
0.496788 0.496193 0.491615
0.501564 0.500633 0.496056
0.506371 0.505089 0.500526
0.511452 0.509789 0.505211
0.516457 0.514366 0.509789
0.521523 0.518944 0.514366
0.52665 0.523537 0.518959
0.531853 0.528161 0.523598
0.537224 0.532921 0.528344
0.542702 0.537804 0.533227
0.548104 0.54258 0.538003
0.553491 0.547387 0.542824
0.417472 0.422339 0.417472
0.421698 0.426322 0.421454
0.42594 0.43032 0.425452
0.430182 0.434333 0.429465
0.43444 0.438346 0.433478
0.438712 0.44239 0.437522
0.443183 0.446632 0.441764
0.447517 0.450752 0.445884
0.451896 0.454887 0.450019
0.45626 0.459037 0.45417
0.460655 0.463203 0.458335
0.465263 0.467582 0.462715
0.469764 0.471855 0.466987
0.474281 0.476127 0.47126
0.478813 0.48043 0.475563
0.483391 0.484749 0.479881
0.488029 0.489128 0.48426
0.492882 0.493721 0.488853
0.497597 0.498161 0.493294
0.502327 0.502617 0.497749
0.507118 0.507118 0.502251
0.511986 0.511681 0.506813
0.51693 0.516304 0.511437
0.522057 0.52108 0.516213
0.527092 0.525719 0.520851
0.532204 0.530404 0.525536
0.537438 0.535149 0.530282
0.542748 0.539925 0.535058
0.54818 0.544778 0.53991
0.553735 0.549737 0.544869
0.559243 0.554635 0.549767
0.564828 0.559594 0.554726
0.570459 0.564645 0.559777
0.43093 0.436118 0.43093
0.435203 0.440131 0.434958
0.43949 0.44419 0.439002
0.443824 0.44828 0.443091
0.448295 0.452506 0.447333
0.45272 0.456703 0.45153
0.457099 0.460853 0.45568
0.461509 0.465049 0.459876
0.46598 0.469276 0.464103
0.470481 0.473548 0.468376
0.475135 0.477989 0.472816
0.479683 0.482307 0.477134
0.48426 0.486656 0.481483
0.488914 0.491066 0.485893
0.493584 0.495506 0.490333
0.498283 0.499947 0.494774
0.503182 0.504601 0.499428
0.507973 0.509133 0.503944
0.51284 0.51371 0.508537
0.517739 0.518349 0.513161
0.522667 0.522972 0.5178
0.527657 0.527657 0.522469
0.532891 0.532555 0.527382
0.538033 0.537362 0.532189
0.543252 0.542184 0.537011
0.548516 0.547021 0.541848
0.553872 0.551888 0.546715
0.559533 0.557015 0.551843
0.565118 0.562036 0.556848
0.570764 0.567071 0.561898
0.57644 0.572122 0.566949
0.582162 0.577249 0.572061
0.588006 0.582513 0.577325
0.444602 0.450095 0.444602
0.448966 0.454231 0.448722
0.453361 0.458366 0.452873
0.457847 0.462623 0.45713
0.462348 0.466896 0.461402
0.466835 0.471153 0.465644
0.471351 0.475425 0.469932
0.475868 0.479713 0.47422
0.480415 0.484031 0.478538
0.485176 0.488579 0.48307
0.489815 0.493004 0.487495
0.494499 0.497444 0.491951
0.499184 0.5019 0.496406
0.503929 0.506401 0.500893
0.508858 0.511086 0.505592
0.513756 0.51574 0.510246
0.518639 0.520378 0.514885
0.523552 0.525032 0.519539
0.528527 0.529732 0.524224
0.533578 0.534493 0.529
0.538872 0.539498 0.534005
0.544045 0.544366 0.538857
0.549233 0.549233 0.54374
0.554498 0.554147 0.548653
0.559884 0.559152 0.553658
0.565393 0.564218 0.558709
0.571145 0.569482 0.563989
0.576761 0.574578 0.56907
0.582498 0.579736 0.574243
0.588357 0.584985 0.579492
0.594308 0.590326 0.584817
0.60029 0.595697 0.590188
0.6065 0.601312 0.595819
0.458534 0.464393 0.458534
0.46305 0.46865 0.462806
0.467674 0.47303 0.467185
0.47219 0.477317 0.471473
0.476722 0.481605 0.475761
0.481285 0.485939 0.480095
0.485908 0.490333 0.484489
0.490654 0.49485 0.489006
0.495415 0.499397 0.493553
0.500114 0.503853 0.498009
0.50486 0.508385 0.502525
0.509667 0.512963 0.507118
0.514534 0.517586 0.511742
0.519539 0.522362 0.516518
0.524498 0.527077 0.521233
0.529473 0.531807 0.525963
0.534524 0.536614 0.53077
0.539635 0.541451 0.535607
0.544762 0.546319 0.540475
0.550103 0.551385 0.545541
0.555398 0.556374 0.55053
0.560754 0.561425 0.555581
0.566171 0.566522 0.560678
0.571618 0.571618 0.565774
0.577157 0.576761 0.570916
0.583017 0.582193 0.576349
0.588815 0.587518 0.581659
0.59472 0.592874 0.58703
0.600671 0.598245 0.592401
0.606744 0.603723 0.597879
0.613275 0.609628 0.603784
0.61976 0.615518 0.609659
0.626322 0.621485 0.615641
0.472862 0.479088 0.472862
0.477531 0.483528 0.477287
0.482124 0.487877 0.481636
0.486763 0.492271 0.486046
0.491447 0.496727 0.490486
0.496132 0.501183 0.494942
0.500908 0.50573 0.499504
0.505791 0.510369 0.504143
0.510613 0.514977 0.508751
0.51548 0.519615 0.51339
0.520363 0.524269 0.518044
0.525277 0.528969 0.522728
0.530449 0.533898 0.527672
0.535515 0.538735 0.532494
0.540627 0.543587 0.537362
0.545739 0.54847 0.542229
0.550912 0.553384 0.547158
0.556298 0.558495 0.55227
0.56173 0.563668 0.557427
0.567117 0.56878 0.562539
0.572534 0.573907 0.567666
0.578042 0.579095 0.572869
0.583658 0.58439 0.578149
0.589532 0.589914 0.583688
0.595361 0.595361 0.589136
0.601236 0.600793 0.594568
0.607294 0.606378 0.600137
0.613611 0.612146 0.60592
0.620111 0.618082 0.611856
0.626917 0.624277 0.618051
0.633616 0.630365 0.624125
0.640497 0.636637 0.630411
0.647639 0.643198 0.636957
0.487587 0.494255 0.487587
0.492271 0.498695 0.492027
0.496971 0.503166 0.496483
0.501717 0.507652 0.500984
0.506539 0.512245 0.505577
0.511543 0.517021 0.510353
0.516411 0.52166 0.514992
0.521294 0.526329 0.519661
0.526238 0.531044 0.524361
0.531243 0.535821 0.529152
0.536385 0.540734 0.534051
0.541604 0.545724 0.539055
0.546731 0.550622 0.543954
0.551919 0.555566 0.548898
0.557198 0.560616 0.553948
0.562554 0.565713 0.559045
0.568032 0.570932 0.564263
0.573541 0.576181 0.569512
0.579049 0.58143 0.574746
0.584665 0.586755 0.580087
0.590356 0.592157 0.585489
0.596078 0.597574 0.590906
0.60206 0.60322 0.596551
0.608148 0.608972 0.602304
0.61442 0.614862 0.608194
0.620859 0.620859 0.614191
0.627359 0.626871 0.620203
0.634028 0.633021 0.626352
0.641245 0.639643 0.632975
0.648493 0.646281 0.639612
0.655879 0.653056 0.646387
0.66331 0.659892 0.653208
0.670878 0.666865 0.660197
0.502525 0.509682 0.502525
0.507362 0.514275 0.507118
0.51223 0.518898 0.511742
0.517128 0.523552 0.516396
0.52221 0.528405 0.521248
0.527169 0.533135 0.525979
0.532204 0.537942 0.5308
0.537301 0.542809 0.535653
0.542397 0.547677 0.540536
0.54757 0.552636 0.54548
0.552941 0.557778 0.550622
0.558236 0.562844 0.555688
0.563592 0.567956 0.5608
0.568963 0.573098 0.565942
0.57438 0.578271 0.571115
0.580102 0.583749 0.576608
0.585733 0.589136 0.581979
0.591409 0.594553 0.587396
0.597131 0.6 0.592844
0.602975 0.60557 0.598413
0.609125 0.611414 0.604257
0.615534 0.617517 0.610361
0.621897 0.623545 0.616388
0.628321 0.629633 0.622477
0.634958 0.635889 0.628733
0.641917 0.642405 0.635248
0.649271 0.649271 0.64213
0.656733 0.656199 0.649042
0.664179 0.663066 0.655909
0.671855 0.67013 0.662989
0.67982 0.677485 0.670329
0.687984 0.685054 0.677897
0.696437 0.692912 0.685756
0.517952 0.525628 0.517952
0.522881 0.530327 0.522637
0.528054 0.535256 0.527581
0.533135 0.540093 0.532418
0.538231 0.544961 0.53727
0.543343 0.549844 0.542153
0.548516 0.554788 0.547097
0.55375 0.559808 0.552117
