modules/luts/cube_folder/BW Faded.CUBE
TITLE "Generated by Resolve"
LUT_3D_SIZE 5
0.16321 0.16321 0.16321
0.196643 0.194766 0.194766
0.229419 0.22565 0.22565
0.261677 0.255451 0.255451
0.295155 0.284474 0.284474
0.266407 0.268269 0.266407
0.297612 0.297612 0.295735
0.328923 0.327031 0.32517
0.36083 0.356466 0.354604
0.39498 0.386175 0.384298
0.365682 0.369436 0.365682
0.398016 0.399908 0.396139
0.431525 0.431525 0.427756
0.466941 0.464469 0.4607
0.505791 0.498863 0.495109
0.472862 0.479088 0.472862
0.510613 0.514977 0.508751
0.550912 0.553384 0.547158
0.595361 0.595361 0.589136
0.647639 0.643198 0.636957
0.60383 0.614511 0.60383
0.657984 0.666789 0.656107
0.722972 0.729885 0.719203
0.798489 0.80293 0.792248
0.881895 0.881895 0.871214
0.173877 0.173877 0.175753
0.207248 0.205386 0.207248
0.239704 0.23595 0.237812
0.271763 0.265522 0.267399
0.305043 0.294362 0.296239
0.276448 0.278325 0.278325
0.307591 0.307591 0.307591
0.338842 0.33695 0.33695
0.371038 0.366674 0.366674
0.405371 0.396567 0.396567
0.375845 0.379599 0.377707
0.408637 0.410529 0.408637
0.442512 0.442512 0.44062
0.478645 0.476173 0.474281
0.518242 0.511315 0.509422
0.484749 0.49099 0.486625
0.523384 0.527749 0.523384
0.564828 0.5673 0.562936
0.610681 0.610681 0.606317
0.666514 0.662074 0.65771
0.620432 0.631113 0.622293
0.678126 0.686931 0.678126
0.746731 0.753643 0.744839
0.824903 0.829358 0.820539
0.909316 0.909316 0.900511
0.184787 0.184787 0.188556
0.217731 0.215869 0.219623
0.24976 0.246006 0.24976
0.281804 0.275578 0.279332
0.314992 0.304311 0.30808
0.286305 0.288182 0.290074
0.317586 0.317586 0.319478
0.348913 0.347021 0.348913
0.381338 0.376974 0.378866
0.415991 0.407187 0.409079
0.386236 0.38999 0.38999
0.419394 0.421286 0.421286
0.453803 0.453803 0.453803
0.490394 0.487922 0.487922
0.530999 0.524071 0.524071
0.496956 0.503197 0.500725
0.536355 0.540719 0.538247
0.579049 0.581521 0.579049
0.627115 0.627115 0.624643
0.686763 0.682307 0.67985
0.638239 0.64892 0.642008
0.699458 0.708278 0.70135
0.771847 0.778775 0.771847
0.852049 0.856489 0.849577
0.936202 0.936202 0.92929
0.195331 0.195331 0.201556
0.228061 0.2262 0.232425
0.259861 0.256107 0.262333
0.291737 0.285512 0.291737
0.324941 0.31426 0.3205
0.296269 0.298131 0.302495
0.327504 0.327504 0.331868
0.35903 0.357137 0.361501
0.391531 0.387167 0.391531
0.426703 0.417884 0.422248
0.396704 0.400458 0.40293
0.430137 0.432029 0.434501
0.465202 0.465202 0.467674
0.502541 0.500069 0.502541
0.544076 0.537163 0.539635
0.509422 0.515663 0.515663
0.549767 0.554131 0.554131
0.593805 0.596277 0.596277
0.644755 0.644755 0.644755
0.707759 0.703319 0.703319
0.657084 0.667765 0.663325
0.722362 0.731182 0.726726
0.797284 0.804196 0.799756
0.879515 0.883955 0.879515
0.962753 0.962753 0.958312
0.205753 0.205753 0.216434
0.238041 0.236179 0.24686
0.269764 0.265995 0.276677
0.301442 0.295216 0.305882
0.334768 0.324086 0.334768
0.306065 0.307942 0.316747
0.337285 0.337285 0.34609
0.369039 0.367147 0.375967
0.401846 0.397482 0.406302
0.4374 0.428595 0.4374
0.407156 0.41091 0.417838
0.441016 0.442908 0.449836
0.476661 0.476661 0.483589
0.514824 0.512352 0.51928
0.557122 0.55021 0.557122
0.521904 0.52813 0.53257
0.5635 0.567864 0.57232
0.608927 0.611399 0.615839
0.663493 0.663493 0.667933
0.730419 0.725978 0.730419
0.677165 0.687846 0.687846
0.746014 0.754833 0.754833
0.823865 0.830777 0.830777
0.906722 0.911162 0.911162
0.988159 0.988159 0.988159
