modules/luts/cube_folder/BW Faded.CUBE
TITLE "Generated by Resolve"
LUT_3D_SIZE 9
0.16321 0.16321 0.16321
0.179995 0.179049 0.179049
0.196643 0.194766 0.194766
0.213123 0.21033 0.21033
0.229419 0.22565 0.22565
0.245594 0.240726 0.240726
0.261677 0.255451 0.255451
0.278294 0.270039 0.270039
0.295155 0.284474 0.284474
0.21593 0.216892 0.21593
0.23212 0.23212 0.231159
0.247944 0.247028 0.246067
0.263767 0.261936 0.260975
0.27953 0.276722 0.275761
0.295186 0.291279 0.290318
0.311162 0.305882 0.304921
0.327672 0.320363 0.319402
0.344533 0.334813 0.333867
0.266407 0.268269 0.266407
0.282124 0.283024 0.281163
0.297612 0.297612 0.295735
0.313222 0.312306 0.310445
0.328923 0.327031 0.32517
0.344656 0.34165 0.339788
0.36083 0.356466 0.354604
0.377676 0.371283 0.369421
0.39498 0.386175 0.384298
0.315831 0.318608 0.315831
0.331472 0.333303 0.330526
0.347127 0.348043 0.345266
0.362997 0.362997 0.36022
0.379095 0.378119 0.375341
0.395346 0.393271 0.390478
0.412207 0.408759 0.405966
0.429877 0.424399 0.421607
0.448051 0.440146 0.437369
0.365682 0.369436 0.365682
0.381674 0.384482 0.380713
0.398016 0.399908 0.396139
0.414633 0.41561 0.411841
0.431525 0.431525 0.427756
0.448875 0.447761 0.444007
0.466941 0.464469 0.4607
0.485985 0.481483 0.477729
0.505791 0.498863 0.495109
0.417472 0.422339 0.417472
0.43444 0.438346 0.433478
0.451896 0.454887 0.450019
0.469764 0.471855 0.466987
0.488029 0.489128 0.48426
0.507118 0.507118 0.502251
0.527092 0.525719 0.520851
0.54818 0.544778 0.53991
0.570459 0.564645 0.559777
0.472862 0.479088 0.472862
0.491447 0.496727 0.490486
0.510613 0.514977 0.508751
0.530449 0.533898 0.527672
0.550912 0.553384 0.547158
0.572534 0.573907 0.567666
0.595361 0.595361 0.589136
0.620111 0.618082 0.611856
0.647639 0.643198 0.636957
0.533822 0.542092 0.533822
0.554742 0.562051 0.55378
0.576516 0.58291 0.574639
0.599176 0.604654 0.596399
0.62414 0.628641 0.620371
0.651759 0.655161 0.646891
0.682261 0.684291 0.676036
0.715694 0.715694 0.707424
0.752438 0.750011 0.741756
0.60383 0.614511 0.60383
0.629526 0.639261 0.62858
0.657984 0.666789 0.656107
0.68896 0.696864 0.686183
0.722972 0.729885 0.719203
0.759533 0.765347 0.754665
0.798489 0.80293 0.792248
0.839429 0.84184 0.831159
0.881895 0.881895 0.871214
0.168383 0.168383 0.169345
0.185428 0.184482 0.185428
0.201968 0.200092 0.201053
0.218357 0.215564 0.216526
0.234562 0.230808 0.231754
0.250568 0.245701 0.246662
0.266728 0.260487 0.261448
0.283314 0.275059 0.27602
0.300084 0.289403 0.290364
0.221149 0.222095 0.222095
0.237186 0.237186 0.237186
0.253025 0.25211 0.25211
0.268803 0.266972 0.266972
0.284535 0.281727 0.281727
0.300175 0.296269 0.296269
0.316152 0.310872 0.310872
0.332677 0.325368 0.325368
0.349432 0.339712 0.339712
0.271427 0.273304 0.272389
0.286976 0.287892 0.286976
0.302602 0.302602 0.301686
0.318227 0.317311 0.316396
0.333944 0.332052 0.331136
0.349691 0.3467 0.345785
0.365927 0.361563 0.360647
0.382834 0.37644 0.37554
0.400122 0.391318 0.390402
0.320821 0.323613 0.321782
0.336416 0.338247 0.336416
0.352193 0.353109 0.351278
0.368124 0.368124 0.366293
0.384115 0.383139 0.381323
0.40061 0.39852 0.396704
0.417563 0.414115 0.412284
0.435355 0.429877 0.428046
0.453651 0.445762 0.443931
0.370825 0.374594 0.371786
0.386892 0.389685 0.386892
0.403296 0.405188 0.40238
0.420005 0.420981 0.418189
0.436957 0.436957 0.43415
0.454551 0.453437 0.450629
0.47277 0.470298 0.467491
0.491936 0.487434 0.484627
0.511955 0.505028 0.502235
0.422873 0.427741 0.423835
0.439994 0.4439 0.439994
0.457572 0.460578 0.456672
0.475624 0.477714 0.473808
0.494102 0.495216 0.491295
0.513405 0.513405 0.509499
0.533578 0.532219 0.528313
0.554864 0.551461 0.547555
0.577493 0.571679 0.567773
0.478737 0.484977 0.479698
0.497566 0.502846 0.497566
0.516976 0.52134 0.516075
0.536965 0.540413 0.535134
0.557809 0.560281 0.555001
0.579705 0.581079 0.575799
0.602853 0.602853 0.597574
0.628443 0.626413 0.621134
0.657023 0.652567 0.647303
0.540505 0.548775 0.541466
0.561761 0.569055 0.561761
0.583871 0.590265 0.582956
0.60708 0.612558 0.605249
0.632731 0.637232 0.629938
0.66128 0.664668 0.657374
0.692592 0.694621 0.687327
0.727291 0.727291 0.719982
0.764843 0.762417 0.755123
0.61207 0.622751 0.613031
0.638651 0.648386 0.638651
0.667933 0.676738 0.667018
0.699763 0.707652 0.697932
0.734707 0.741619 0.731899
0.772198 0.778012 0.768292
0.81149 0.81593 0.80621
0.853056 0.855482 0.845762
0.895613 0.895613 0.885893
0.173877 0.173877 0.175753
0.190784 0.189822 0.191699
0.207248 0.205386 0.207248
0.223575 0.220783 0.222644
0.239704 0.23595 0.237812
0.255619 0.250751 0.252628
0.271763 0.265522 0.267399
0.288334 0.280064 0.281941
0.305043 0.294362 0.296239
0.226307 0.227268 0.228183
0.242267 0.242267 0.243183
0.258091 0.257176 0.258091
0.273823 0.272007 0.272908
0.289479 0.286687 0.287587
0.30518 0.301259 0.302174
0.321157 0.315877 0.316793
0.337697 0.330388 0.331304
0.354482 0.344747 0.345663
0.276448 0.278325 0.278325
0.291981 0.292897 0.292897
0.307591 0.307591 0.307591
0.323232 0.322316 0.322316
0.338842 0.33695 0.33695
0.354757 0.351766 0.351766
0.371038 0.366674 0.366674
0.38793 0.381537 0.381537
0.405371 0.396567 0.396567
0.32575 0.328542 0.327626
0.341451 0.343282 0.342367
0.357275 0.35819 0.357275
0.373266 0.373266 0.372351
0.389334 0.388357 0.387442
0.40589 0.403815 0.402899
0.42295 0.419501 0.418585
0.440726 0.435248 0.434333
0.459327 0.451438 0.450523
0.375845 0.379599 0.377707
0.392142 0.394934 0.393042
0.408637 0.410529 0.408637
0.425452 0.426429 0.424536
0.442512 0.442512 0.44062
0.460243 0.459129 0.457237
0.478645 0.476173 0.474281
0.497917 0.493416 0.491524
0.518242 0.511315 0.509422
0.42829 0.433158 0.430152
0.445624 0.449531 0.446525
0.46334 0.466331 0.46334
0.481392 0.483482 0.480476
0.500221 0.50132 0.498329
0.519783 0.519783 0.516777
0.540215 0.538842 0.535851
0.561746 0.558343 0.555352
0.584649 0.578851 0.575845
0.484749 0.49099 0.486625
0.503761 0.509026 0.504662
0.523384 0.527749 0.523384
0.543587 0.547036 0.542672
0.564828 0.5673 0.562936
0.58706 0.588434 0.58407
0.610681 0.610681 0.606317
0.637018 0.634974 0.63061
0.666514 0.662074 0.65771
0.547265 0.555535 0.549142
0.568811 0.57612 0.569726
0.591272 0.597665 0.591272
0.615305 0.620783 0.614389
0.641825 0.646326 0.639933
0.671199 0.674586 0.668193
0.703319 0.705348 0.698955
0.739025 0.739025 0.732631
0.777493 0.775082 0.768688
0.620432 0.631113 0.622293
0.648066 0.657786 0.648981
0.678126 0.686931 0.678126
0.711025 0.718929 0.710109
0.746731 0.753643 0.744839
0.784817 0.790631 0.781811
0.824903 0.829358 0.820539
0.866819 0.86923 0.86041
0.909316 0.909316 0.900511
0.17937 0.17937 0.182147
0.196017 0.195056 0.197848
0.212497 0.210636 0.213413
0.228748 0.225956 0.228748
0.244816 0.241047 0.243839
0.2607 0.255833 0.25861
0.276799 0.270558 0.27335
0.293339 0.285069 0.287861
0.310002 0.299321 0.302098
0.231464 0.232425 0.234257
0.247318 0.247318 0.249149
0.263142 0.262226 0.264057
0.278843 0.277012 0.278843
0.294392 0.2916 0.293416
0.31017 0.306264 0.30808
0.326162 0.320882 0.322713
0.342687 0.335378 0.337209
0.359548 0.349828 0.351644
0.281407 0.283284 0.284199
0.296971 0.297887 0.298802
0.312596 0.312596 0.313512
0.328237 0.327321 0.328237
0.343862 0.34197 0.342885
0.359854 0.356847 0.357763
0.376181 0.371817 0.372732
0.393103 0.386709 0.387625
0.410666 0.401846 0.402762
0.330739 0.333532 0.333532
0.346502 0.348333 0.348333
0.362371 0.363287 0.363287
0.378347 0.378347 0.378347
0.394583 0.393606 0.393606
0.411231 0.409155 0.409155
0.428382 0.424933 0.424933
0.446265 0.440787 0.440787
0.465019 0.45713 0.45713
0.381018 0.384787 0.38381
0.397391 0.400198 0.399222
0.414008 0.4159 0.414923
0.430793 0.431769 0.430793
0.448127 0.448127 0.44715
0.465995 0.464881 0.463905
0.484443 0.481971 0.480995
0.504036 0.499535 0.498558
0.524605 0.517678 0.516701
0.433814 0.438682 0.436591
0.451301 0.455207 0.453117
0.469184 0.472175 0.4701
0.487404 0.489479 0.487404
0.506401 0.507515 0.505425
0.526177 0.526177 0.524102
0.546715 0.545342 0.543267
0.56875 0.565362 0.563272
0.592004 0.586191 0.5841
0.490852 0.497078 0.493629
0.510063 0.515343 0.511894
0.529915 0.534279 0.530831
0.550332 0.55378 0.550332
0.571878 0.57435 0.570901
0.594522 0.59588 0.592432
0.618784 0.618784 0.615335
0.646067 0.644038 0.640589
0.676402 0.671962 0.668513
0.554192 0.562448 0.55697
0.576013 0.583322 0.577829
0.598688 0.605081 0.599603
0.623652 0.629129 0.623652
0.651225 0.655726 0.650248
0.681559 0.684962 0.679484
0.714549 0.716579 0.711101
0.751034 0.751034 0.745556
0.790249 0.787823 0.782345
0.629099 0.639765 0.631876
0.657618 0.667338 0.659449
0.688655 0.697459 0.68957
0.722667 0.730556 0.722667
0.759182 0.76611 0.758206
0.797772 0.803586 0.795697
0.838407 0.842847 0.834958
0.880568 0.882994 0.87509
0.922881 0.922881 0.914977
0.184787 0.184787 0.188556
0.201343 0.200397 0.20415
0.217731 0.215869 0.219623
0.23389 0.231098 0.234867
0.24976 0.246006 0.24976
0.265736 0.260868 0.264637
0.281804 0.275578 0.279332
0.298192 0.289937 0.29369
0.314992 0.304311 0.30808
0.236454 0.237415 0.240223
0.252384 0.252384 0.255192
0.268162 0.267247 0.270054
0.283848 0.282017 0.284825
0.299397 0.29659 0.299397
0.31516 0.311254 0.314061
0.331167 0.325887 0.328695
0.347616 0.340307 0.343114
0.36463 0.35491 0.357702
0.286305 0.288182 0.290074
0.301961 0.302876 0.304768
0.317586 0.317586 0.319478
0.333227 0.332311 0.334203
0.348913 0.347021 0.348913
0.364935 0.361944 0.363836
0.381338 0.376974 0.378866
0.398322 0.391928 0.39382
0.415991 0.407187 0.409079
0.335744 0.338537 0.339513
0.351568 0.353399 0.354376
0.367483 0.368399 0.369375
0.383444 0.383444 0.384421
0.399832 0.398856 0.399832
0.416602 0.414511 0.415488
0.433814 0.430365 0.431342
0.451881 0.446403 0.447379
0.470756 0.462867 0.463844
0.386236 0.38999 0.38999
0.402686 0.405493 0.405493
0.419394 0.421286 0.421286
0.436301 0.437278 0.437278
0.453803 0.453803 0.453803
0.471824 0.470726 0.470726
0.490394 0.487922 0.487922
0.510201 0.505699 0.505699
0.530999 0.524071 0.524071
0.439353 0.444221 0.443122
0.456992 0.460899 0.459785
0.474952 0.477958 0.476844
0.493477 0.495567 0.494453
0.512703 0.513802 0.512703
0.532677 0.532677 0.531579
0.553445 0.552087 0.550973
0.575799 0.572396 0.571298
0.599435 0.593622 0.592523
0.496956 0.503197 0.500725
0.516426 0.521706 0.519234
0.536355 0.540719 0.538247
0.557244 0.560693 0.558221
0.579049 0.581521 0.579049
0.601907 0.603265 0.600793
0.627115 0.627115 0.624643
0.655451 0.653422 0.65095
0.686763 0.682307 0.67985
0.561212 0.569467 0.564965
0.583383 0.590692 0.586175
0.606622 0.613016 0.608515
0.632273 0.637751 0.633249
0.660761 0.665263 0.660761
0.691875 0.695277 0.690776
0.726162 0.728191 0.72369
0.763455 0.763455 0.758953
0.803265 0.800855 0.796353
0.638239 0.64892 0.642008
0.667582 0.677302 0.67039
0.699458 0.708278 0.70135
0.734417 0.742306 0.735393
0.771847 0.778775 0.771847
0.810971 0.816785 0.809873
0.852049 0.856489 0.849577
0.894301 0.896712 0.889799
0.936202 0.936202 0.92929
0.190051 0.190051 0.194919
0.206622 0.205661 0.210529
0.222934 0.221057 0.225925
0.238972 0.236179 0.241047
0.254826 0.251072 0.25594
0.270756 0.265888 0.270756
0.286809 0.280568 0.285435
0.303166 0.294911 0.299779
0.319966 0.3093 0.314168
0.24155 0.242512 0.246418
0.25745 0.25745 0.261357
0.273182 0.272267 0.276173
0.288716 0.286885 0.290806
0.304372 0.301564 0.305486
0.32015 0.316243 0.32015
0.336172 0.330892 0.334798
0.352651 0.345342 0.349248
0.369696 0.359976 0.363897
0.291295 0.293172 0.296162
0.30695 0.307866 0.310857
0.322591 0.322591 0.325582
0.33814 0.337224 0.340215
0.353964 0.352071 0.355077
0.370031 0.367041 0.370031
0.386358 0.381994 0.384985
0.403571 0.397162 0.400168
0.421347 0.412543 0.415534
0.340764 0.343557 0.345632
0.356634 0.358465 0.360555
0.372625 0.373541 0.375616
0.388647 0.388647 0.390738
0.405112 0.404135 0.406226
0.421973 0.419883 0.421973
0.439231 0.435782 0.437858
0.457542 0.452064 0.454139
0.476585 0.468681 0.470771
0.39147 0.395239 0.396338
0.408011 0.410819 0.411933
0.424781 0.426673 0.427771
0.44184 0.442817 0.443931
0.45948 0.45948 0.460578
0.477684 0.476585 0.477684
0.496452 0.49398 0.495094
0.516487 0.511986 0.513085
0.537484 0.530556 0.53167
0.444968 0.449836 0.449836
0.462745 0.466651 0.466651
0.480797 0.483803 0.483803
0.499596 0.501671 0.501671
0.519051 0.520165 0.520165
0.539208 0.539208 0.539208
0.560327 0.558968 0.558968
0.582956 0.579553 0.579553
0.606943 0.601129 0.601129
0.503151 0.509377 0.508019
0.522789 0.528069 0.526696
0.543038 0.547402 0.546029
0.564233 0.567681 0.566323
0.586404 0.588876 0.587518
0.609751 0.611109 0.609751
0.635706 0.635706 0.634333
0.664958 0.662928 0.661555
0.697124 0.692683 0.69131
0.568261 0.576516 0.573129
0.590661 0.597971 0.594568
0.614847 0.621241 0.617838
0.641382 0.64686 0.643458
0.670695 0.675196 0.671794
0.702647 0.70605 0.702647
0.737896 0.739925 0.736522
0.776104 0.776104 0.772702
0.816205 0.813779 0.810391
0.647639 0.65832 0.652506
0.677729 0.687449 0.681636
0.71075 0.719554 0.713756
0.746456 0.754345 0.748531
0.784283 0.791196 0.785382
0.824384 0.830198 0.824384
0.865782 0.870222 0.864424
0.907973 0.910399 0.904585
0.949584 0.949584 0.943771
0.195331 0.195331 0.201556
0.211841 0.21088 0.217105
0.228061 0.2262 0.232425
0.244022 0.24123 0.247471
0.259861 0.256107 0.262333
0.275761 0.270893 0.277119
0.291737 0.285512 0.291737
0.308141 0.29987 0.306111
0.324941 0.31426 0.3205
0.246601 0.247562 0.252842
0.262455 0.262455 0.267735
0.278172 0.277256 0.282536
0.293675 0.291844 0.297124
0.309331 0.306538 0.311803
0.325124 0.321218 0.326482
0.341054 0.33579 0.341054
0.357687 0.350378 0.355657
0.374777 0.365057 0.370336
0.296269 0.298131 0.302495
0.31191 0.312825 0.317189
0.327504 0.327504 0.331868
0.343145 0.342229 0.346593
0.35903 0.357137 0.361501
0.375158 0.372152 0.376516
0.391531 0.387167 0.391531
0.40882 0.402426 0.40679
0.426703 0.417884 0.422248
0.345785 0.348577 0.352026
0.3617 0.363531 0.366979
0.377615 0.378531 0.381979
0.393866 0.393866 0.397314
0.410422 0.409445 0.412894
0.427375 0.425299 0.428748
0.444739 0.441291 0.444739
0.463188 0.45771 0.461158
0.482429 0.474525 0.477974
0.396704 0.400458 0.40293
0.413352 0.416159 0.418631
0.430137 0.432029 0.434501
0.44744 0.448417 0.450889
0.465202 0.465202 0.467674
0.483406 0.482292 0.484764
0.502541 0.500069 0.502541
0.52282 0.518318 0.52079
0.544076 0.537163 0.539635
0.450614 0.455482 0.456855
0.468559 0.472465 0.473823
0.486778 0.489784 0.491142
0.505745 0.507836 0.509194
0.525429 0.526528 0.527901
0.545769 0.545769 0.547127
0.567315 0.565942 0.567315
0.59028 0.586877 0.588251
0.61474 0.608927 0.610285
0.509422 0.515663 0.515663
0.529244 0.534524 0.534524
0.549767 0.554131 0.554131
0.571267 0.574716 0.574716
0.593805 0.596277 0.596277
0.617945 0.619303 0.619303
0.644755 0.644755 0.644755
0.67483 0.672801 0.672801
0.707759 0.703319 0.703319
0.575433 0.583688 0.581659
0.598169 0.605478 0.603449
0.623163 0.629557 0.627527
0.650752 0.656229 0.6542
0.680888 0.685389 0.68336
0.713878 0.717281 0.715251
0.749874 0.751919 0.749874
0.788739 0.788739 0.786709
0.829587 0.827176 0.825147
0.657084 0.667765 0.663325
0.688289 0.698024 0.693568
0.722362 0.731182 0.726726
0.758892 0.766781 0.762341
0.797284 0.804196 0.799756
0.837858 0.843656 0.839216
0.879515 0.883955 0.879515
0.921309 0.923735 0.91928
0.962753 0.962753 0.958312
0.20058 0.20058 0.208835
0.216999 0.216037 0.224292
0.233143 0.231266 0.239536
0.248966 0.246174 0.254444
0.264836 0.261067 0.269337
0.28069 0.275822 0.284092
0.296559 0.290318 0.298589
0.313054 0.304784 0.313054
0.32987 0.319188 0.327459
0.251606 0.252567 0.259876
0.267414 0.267414 0.274723
0.28307 0.282155 0.289464
0.298589 0.296757 0.304067
0.31426 0.311452 0.318761
0.330053 0.326146 0.33344
0.345983 0.340703 0.348013
0.362692 0.355383 0.362692
0.379843 0.370123 0.377432
0.301183 0.303044 0.309438
0.316838 0.317754 0.324147
0.332403 0.332403 0.338796
0.348104 0.347189 0.353582
0.364034 0.362142 0.368536
0.380179 0.377188 0.383581
0.396704 0.39234 0.398733
0.414069 0.407675 0.414069
0.432059 0.423239 0.429633
0.35079 0.353567 0.359045
0.366735 0.368566 0.374044
0.382696 0.383612 0.389105
0.399054 0.399054 0.404532
0.415717 0.41474 0.420218
0.432654 0.430579 0.436057
0.450278 0.44683 0.452308
0.468864 0.463386 0.468864
0.488167 0.480278 0.485756
0.401923 0.405676 0.410178
0.418585 0.421378 0.425879
0.435569 0.437461 0.441978
0.453025 0.454002 0.458503
0.47097 0.47097 0.475471
0.489326 0.488228 0.492729
0.508644 0.506172 0.510674
0.529137 0.524636 0.529137
0.550484 0.543572 0.548074
0.456245 0.461112 0.4645
0.474189 0.478096 0.481498
0.49279 0.495796 0.499184
0.511971 0.514061 0.517449
0.531868 0.532967 0.53637
0.552438 0.552438 0.55584
0.574289 0.572915 0.576318
0.597635 0.594247 0.597635
0.622721 0.616907 0.62031
0.515724 0.52195 0.52398
0.535698 0.540978 0.543008
0.556588 0.560952 0.562997
0.578378 0.581827 0.583856
0.601099 0.603571 0.605615
0.6262 0.627573 0.629602
0.654078 0.654078 0.656107
0.68513 0.683101 0.68513
0.718914 0.714458 0.716487
0.582727 0.590997 0.590997
0.606043 0.613352 0.613352
0.631739 0.638132 0.638132
0.660227 0.665705 0.665705
0.691295 0.695796 0.695796
0.725429 0.728832 0.728832
0.762249 0.764279 0.764279
0.801617 0.801617 0.801617
0.843 0.840589 0.840589
0.666957 0.677623 0.675212
0.699062 0.708782 0.706355
0.734051 0.742855 0.740444
0.77142 0.779309 0.776898
0.810544 0.817456 0.815045
0.851423 0.857237 0.854826
0.893156 0.897612 0.895186
0.934752 0.937163 0.934752
0.975845 0.975845 0.973434
0.205753 0.205753 0.216434
0.222095 0.221134 0.231815
0.238041 0.236179 0.24686
0.253941 0.251148 0.26183
0.269764 0.265995 0.276677
0.285603 0.280735 0.291402
0.301442 0.295216 0.305882
0.317937 0.309682 0.320348
0.334768 0.324086 0.334768
0.256565 0.257527 0.267247
0.272328 0.272328 0.282048
0.287846 0.286931 0.296651
0.303471 0.30164 0.31136
0.319142 0.31635 0.32607
0.334966 0.331044 0.340764
0.350927 0.345647 0.355367
0.367681 0.360372 0.370092
0.384909 0.375174 0.384909
0.306065 0.307942 0.316747
0.321736 0.322652 0.331456
0.337285 0.337285 0.34609
0.353079 0.352163 0.360967
0.369039 0.367147 0.375967
0.385153 0.382162 0.390967
0.401846 0.397482 0.406302
0.419333 0.41294 0.421744
0.4374 0.428595 0.4374
0.355764 0.358541 0.366445
0.37174 0.373571 0.38146
0.387808 0.388724 0.396628
0.404227 0.404227 0.412131
0.420996 0.42002 0.427909
0.438041 0.435966 0.443854
0.455848 0.452399 0.460288
0.474601 0.469123 0.477012
0.494011 0.486122 0.494011
0.407156 0.41091 0.417838
0.42388 0.426688 0.4336
0.441016 0.442908 0.449836
0.458625 0.459602 0.466514
0.476661 0.476661 0.483589
0.495308 0.494209 0.501122
0.514824 0.512352 0.51928
0.535531 0.531029 0.537957
0.557122 0.55021 0.557122
0.461906 0.466773 0.472587
0.480003 0.483909 0.489723
0.498802 0.501793 0.507607
0.518242 0.520317 0.526131
0.538216 0.539315 0.545129
0.559228 0.559228 0.565042
0.581353 0.579995 0.585794
0.604959 0.601556 0.60737
0.630961 0.625147 0.630961
0.521904 0.52813 0.53257
0.542275 0.547555 0.551995
0.5635 0.567864 0.57232
0.585641 0.58909 0.59353
0.608927 0.611399 0.615839
0.634714 0.636072 0.640528
0.663493 0.663493 0.667933
0.695323 0.693294 0.697734
0.730419 0.725978 0.730419
0.589868 0.598138 0.600549
0.614191 0.621485 0.623911
0.640772 0.647166 0.649577
0.670085 0.675563 0.677989
0.701991 0.706493 0.708919
0.737072 0.740475 0.742885
0.774807 0.776837 0.779248
0.814649 0.814649 0.81706
0.856535 0.854124 0.856535
0.677165 0.687846 0.687846
0.710277 0.719997 0.719997
0.746014 0.754833 0.754833
0.78381 0.791699 0.791699
0.823865 0.830777 0.830777
0.86508 0.870893 0.870893
0.906722 0.911162 0.911162
0.948013 0.950439 0.950439
0.988159 0.988159 0.988159
