modules/luts/cube_folder/Classy.CUBE
TITLE "Generated by Resolve"
LUT_3D_SIZE 9
0 0 0
0.037995 0.00666819 0.00758373
0.198596 0 0.0062562
0.482429 0 0.0243839
0.804532 0 0.0655375
1 0 0.111147
1 0 0.125643
1 0 0.128099
1 0 0.128832
0.00195315 0.0488289 0.000167849
0.0393072 0.0457313 0.000335698
0.177325 0.0374914 0.00321965
0.450507 0.00422675 0.0176089
0.775097 0 0.0569162
1 0 0.10576
1 0 0.123064
1 0 0.125978
1 0 0.126909
0.00306706 0.163867 0
0.00299077 0.159396 0
0.136751 0.1523 0.00122072
0.413764 0.133471 0.00723278
0.743038 0.0658274 0.0365148
1 0 0.0910353
1 0 0.112871
1 0 0.11693
1 0 0.118318
0.00747692 0.398886 0
0.00733959 0.391379 0
0.00717174 0.382391 0
0.335317 0.369329 0.00303655
0.699413 0.346624 0.0113985
0.993271 0.310582 0.0174411
1 0.283635 0.0380102
1 0.272419 0.046479
1 0.263218 0.0512551
0.0129244 0.689082 0
0.0127718 0.681147 0
0.0126192 0.673259 0
0.0170291 0.663874 0
0.602441 0.648066 0.00569162
0.948318 0.628931 0.014023
1 0.614252 0.0155947
1 0.606485 0.015671
1 0.599573 0.0157168
0.0177768 0.948165 0
0.0176699 0.942275 0
0.0175479 0.936095 0
0.0174258 0.929534 0
0.378286 0.918593 0
0.853697 0.905043 0.00828565
1 0.894057 0.0125734
1 0.887312 0.012665
1 0.881041 0.0127413
0.018677 0.996323 0
0.018677 0.996323 0
0.018677 0.996323 0
0.018677 0.996323 0
0.018677 0.996323 0
0.758022 0.992798 0.0043183
1 0.991943 0.0108034
1 0.991882 0.0112917
1 0.991882 0.0112917
0.018677 0.996323 0
0.018677 0.996323 0
0.018677 0.996323 0
0.018677 0.996323 0
0.018677 0.996323 0
0.699947 0.993011 0.00268559
0.978622 0.992035 0.0101625
1 0.991882 0.0112917
1 0.991882 0.0112917
0.018677 0.996323 0
0.018677 0.996323 0
0.018677 0.996323 0
0.018677 0.996323 0
0.018677 0.996323 0
0.648966 0.99321 0.00122072
0.962249 0.992081 0.00975052
1 0.991882 0.0112917
1 0.991882 0.0112917
0.00314336 0.00325017 0.00985733
0.0397803 0.00682078 0.035462
0.194217 0 0.0520485
0.476905 0 0.0675975
0.799817 0 0.100984
1 0 0.135409
1 0 0.146807
1 0 0.148363
1 0 0.148318
0.00239567 0.038056 0.0373541
0.0340734 0.035462 0.0378119
0.173114 0.0279393 0.0404364
0.445319 0.000564584 0.0546578
0.770672 0 0.0893416
1 0 0.127382
1 0 0.141329
1 0 0.143267
1 0 0.143465
0.00257877 0.158618 0.0113375
0.00251774 0.154009 0.0106508
0.133455 0.147234 0.015198
0.408789 0.128893 0.0291447
0.738354 0.0590219 0.0648203
1 0 0.111055
1 0 0.128954
1 0 0.13196
1 0 0.132616
0.00740063 0.394385 0
0.00724804 0.386664 0
0.00708019 0.377951 0
0.33135 0.365011 0.00300603
0.694972 0.341772 0.0113375
0.990921 0.305989 0.0271
1 0.278508 0.0576944
1 0.266773 0.0664378
1 0.256886 0.0699168
0.0128481 0.685359 0
0.0126955 0.677348 0
0.0125429 0.669184 0
0.0183719 0.660121 0
0.597818 0.643595 0.00564584
0.945449 0.625193 0.0140078
1 0.610071 0.0156252
1 0.602274 0.0157015
1 0.5953 0.0157778
0.017731 0.945266 0
0.0176242 0.939574 0
0.0175021 0.93341 0
0.01738 0.926513 0
0.366629 0.915663 0
0.850034 0.902068 0.00822461
1 0.890593 0.0126192
1 0.883146 0.0127108
1 0.877333 0.0127871
0.018677 0.996323 0
0.018677 0.996323 0
0.018677 0.996323 0
0.018677 0.996323 0
0.018677 0.996323 0
0.75288 0.992813 0.00418097
1 0.991943 0.0107576
1 0.991882 0.0112917
1 0.991882 0.0112917
0.018677 0.996323 0
0.018677 0.996323 0
0.018677 0.996323 0
0.018677 0.996323 0
0.018677 0.996323 0
0.692714 0.993042 0.00248722
0.976623 0.992035 0.0101167
1 0.991882 0.0112917
1 0.991882 0.0112917
0.018677 0.996323 0
0.018677 0.996323 0
0.018677 0.996323 0
0.018677 0.996323 0
0.018677 0.996323 0
0.641474 0.99324 0.0010071
0.959121 0.992096 0.00967422
1 0.991882 0.0112917
1 0.991882 0.0112917
0.00573739 0.00712596 0.0969253
0.0325628 0.00634775 0.13521
0.184451 0.000350958 0.176394
0.469184 0 0.182055
0.793271 0 0.197177
1 0 0.214801
1 0 0.219959
1 0 0.219455
1 0 0.218097
0.00582895 0.00755322 0.0859388
0.0161898 0.00798047 0.1037
0.162982 0.00117494 0.161303
0.437461 0 0.16669
0.764126 0 0.182361
1 0 0.202197
1 0 0.208911
1 0 0.208759
1 0 0.207233
0 0.139361 0.140764
0 0.134997 0.137285
0.12192 0.12813 0.138323
0.400443 0.107622 0.144183
0.731121 0.0301366 0.161028
0.998718 0 0.184726
1 0 0.194247
1 0 0.194903
1 0 0.194064
0.00567636 0.385992 0.0496376
0.00556954 0.378546 0.0485695
0.00541695 0.370108 0.0488594
0.32398 0.357168 0.0634928
0.68835 0.333288 0.09308
0.986206 0.296986 0.131197
1 0.268147 0.149081
1 0.254978 0.151781
1 0.245136 0.151995
0.0127413 0.67921 0
0.012604 0.671824 0
0.0124514 0.663844 0
0.0180209 0.654536 0
0.593515 0.637858 0.00563058
0.94226 0.619348 0.0139925
1 0.604334 0.0156863
1 0.595895 0.0157626
1 0.589456 0.0158083
0.0176547 0.941299 0
0.0175479 0.93579 0
0.0174258 0.929671 0
0.0173037 0.922438 0
0.354803 0.911879 0
0.845716 0.897887 0.00817884
1 0.886061 0.0126802
1 0.878386 0.0127718
1 0.872587 0.0128481
0.018677 0.996323 0
0.018677 0.996323 0
0.018677 0.996323 0
0.018677 0.996323 0
0.018677 0.996323 0
0.747082 0.992828 0.00401312
1 0.991958 0.0107118
1 0.991882 0.0112917
1 0.991882 0.0112917
0.018677 0.996323 0
0.018677 0.996323 0
0.018677 0.996323 0
0.018677 0.996323 0
0.018677 0.996323 0
0.684657 0.993072 0.00224308
0.97409 0.992035 0.0100557
1 0.991882 0.0112917
1 0.991882 0.0112917
0.018677 0.996323 0
0.018677 0.996323 0
0.018677 0.996323 0
0.018677 0.996323 0
0.018677 0.996323 0
0.633173 0.993286 0.000762951
0.955917 0.992096 0.00959792
1 0.991882 0.0112917
1 0.991882 0.0112917
0 0.00343328 0.437415
0 0.00357061 0.427359
0.131594 0.00154116 0.445441
0.449485 0.000915541 0.443717
0.780209 9.15541e-05 0.446525
0.997314 0 0.449577
0.99736 0 0.447105
0.997406 0 0.443427
0.997482 0 0.438788
0 0.00392157 0.404334
0 0.00410468 0.394385
0.108156 0.00148013 0.420554
0.418433 0.000869764 0.419043
0.751202 3.0518e-05 0.421286
0.997665 0 0.42591
0.997696 0 0.424033
0.997742 0 0.420478
0.997818 0 0.415991
0 0.00560006 0.373327
0 0.005066 0.359365
0.0542 0.00151064 0.392081
0.380285 0.000839246 0.390738
0.718456 0 0.393393
0.993225 0 0.399268
0.998077 0 0.398138
0.998138 0 0.394553
0.998199 0 0.390188
0 0.348211 0.356786
0 0.340902 0.350179
0 0.332464 0.343435
0.299153 0.318959 0.347646
0.674128 0.293385 0.352392
0.977523 0.251072 0.36025
1 0.213107 0.360632
1 0.195254 0.357153
1 0.182483 0.353048
0.00474556 0.665125 0.264042
0.00480659 0.657908 0.257176
0.00488289 0.649989 0.24976
0.00489815 0.640528 0.243015
0.578363 0.624781 0.259953
0.930297 0.605829 0.272404
1 0.590875 0.276509
1 0.581964 0.273701
1 0.575692 0.269841
0.0164187 0.932021 0.0214847
0.0168917 0.926589 0.000503548
0.017258 0.920607 0
0.0171359 0.913649 0
0.332921 0.90312 0
0.839155 0.888869 0.0371557
1 0.876554 0.0563668
1 0.869856 0.0523384
1 0.86392 0.0441901
0.018677 0.996323 0
0.018677 0.996323 0
0.018677 0.996323 0
0.018677 0.996323 0
0.018677 0.996323 0
0.739712 0.992859 0.00381476
0.997024 0.991958 0.0106355
1 0.991882 0.0112917
1 0.991882 0.0112917
0.018677 0.996323 0
0.018677 0.996323 0
0.018677 0.996323 0
0.018677 0.996323 0
0.018677 0.996323 0
0.675074 0.993103 0.00196841
0.97084 0.99205 0.00996414
1 0.991882 0.0112917
1 0.991882 0.0112917
0.018677 0.996323 0
0.018677 0.996323 0
0.018677 0.996323 0
0.018677 0.996323 0
0.018677 0.996323 0
0.622553 0.993332 0.000457771
0.951873 0.992111 0.00949111
1 0.991882 0.0112917
1 0.991882 0.0112917
0 0.00306706 0.755611
0 0.00303655 0.748409
0 0.00300603 0.74136
0.40557 0.0021973 0.740414
0.757198 0.00151064 0.740215
0.993484 0.000946059 0.740612
0.99353 0.0009308 0.736767
0.993576 0.000915541 0.732464
0.993622 0.000885023 0.728283
0 0.00296025 0.731838
0 0.00294499 0.7252
0 0.00291447 0.718425
0.372595 0.00216678 0.716915
0.728756 0.00146487 0.717021
0.993744 0.000839246 0.718273
0.993805 0.000823987 0.714687
0.993851 0.000808728 0.71017
0.993912 0.00077821 0.705882
0 0.0028687 0.706996
0 0.00283818 0.700389
0 0.00280766 0.693401
0.330373 0.00215152 0.691218
0.695674 0.00143435 0.691203
0.985443 0.000747692 0.692927
0.99411 0.000701915 0.689632
0.994171 0.000686656 0.685023
0.994217 0.000656138 0.680537
0 0.133059 0.676234
0 0.119341 0.669718
0 0.105592 0.662806
0.230823 0.0856641 0.659022
0.647684 0.0300908 0.660395
0.962249 0.000656138 0.662852
0.994476 0.000564584 0.660044
0.994537 0.000534066 0.655573
0.994598 0.000518807 0.651041
0 0.614786 0.616373
0 0.607767 0.610025
0 0.599405 0.60293
0 0.589929 0.596246
0.546731 0.572976 0.609567
0.910018 0.552361 0.612879
1 0.535378 0.611383
1 0.527016 0.607004
1 0.520485 0.60238
0.00105287 0.907744 0.546853
0.00115969 0.902632 0.53991
0.00129702 0.896635 0.53135
0.00141909 0.890288 0.523491
0.2551 0.879545 0.525765
0.813291 0.863905 0.540276
1 0.851362 0.541619
1 0.845045 0.536812
1 0.838895 0.531487
0.00451667 1 0.488243
0.00479133 1 0.478614
0.00511177 1 0.467903
0.00541695 1 0.457237
0.00564584 1 0.448966
0.711101 0.996841 0.465843
0.97789 0.995758 0.468238
1 0.995407 0.46183
1 0.995163 0.453407
0.00550851 1 0.453803
0.00584421 1 0.442374
0.00621042 1 0.429435
0.00656138 1 0.417212
0.00691234 1 0.405234
0.644663 0.996735 0.416236
0.95256 0.995438 0.418845
1 0.995163 0.411643
1 0.995087 0.401816
0.00640879 1 0.422568
0.00679026 1 0.409186
0.00724804 1 0.393408
0.00769055 1 0.377569
0.00807202 1 0.364401
0.59234 0.996643 0.373724
0.934218 0.995178 0.377874
1 0.994842 0.371496
1 0.994736 0.359731
0 0.00392157 0.967834
0 0.00390631 0.964599
0 0.00389105 0.961273
0.341482 0.00321965 0.962798
0.730205 0.00248722 0.966323
0.990387 0.00196841 0.969162
0.990829 0.00196841 0.96759
0.99086 0.00195315 0.965515
0.990875 0.00195315 0.963516
0 0.00387579 0.956832
0 0.00386053 0.953735
0 0.00386053 0.950561
0.2972 0.00325017 0.951385
0.69955 0.00250248 0.95491
0.990372 0.00192264 0.958206
0.990951 0.00190738 0.956054
0.990997 0.00190738 0.953323
0.991028 0.00189212 0.950774
0 0.00383001 0.94493
0 0.00381476 0.941939
0 0.0037995 0.937942
0.236835 0.00331121 0.93695
0.664546 0.00251774 0.939803
0.975341 0.00189212 0.942779
0.991135 0.00184634 0.940627
0.991165 0.00183108 0.93814
0.991196 0.00183108 0.935454
0 0.00376898 0.928023
0 0.00375372 0.924132
0 0.0037232 0.919921
0.0682383 0.00355535 0.916945
0.613245 0.002533 0.921263
0.94316 0.00187686 0.924468
0.991333 0.00177005 0.922942
0.991363 0.00175479 0.920104
0.991409 0.00173953 0.916671
0 0.510002 0.898268
0 0.499947 0.894621
0 0.488548 0.890379
0 0.476631 0.886091
0.502098 0.456855 0.888823
0.885557 0.429694 0.891508
0.99559 0.406043 0.890455
0.995514 0.393805 0.887205
0.995468 0.385824 0.883818
0 0.858274 0.843809
0 0.85272 0.838804
0 0.846601 0.833143
0 0.840085 0.827878
0.16817 0.828565 0.829435
0.782193 0.811002 0.846769
0.998901 0.797971 0.847654
1 0.789899 0.844114
1 0.783902 0.840253
0 1 0.808515
0 1 0.802502
0 1 0.796002
0 0.99968 0.789654
0 0.997909 0.784024
0.672099 0.989487 0.800473
0.95433 0.982208 0.805951
1 0.978302 0.81593
1 0.976318 0.804791
0 1 0.78909
0 1 0.781811
0 1 0.774517
0 1 0.765393
0 1 0.757336
0.60032 1 0.76968
0.929702 0.997269 0.781674
0.997055 0.992813 0.845304
0.997772 0.992798 0.838499
0 1 0.770459
0 1 0.760906
0 1 0.751369
0 1 0.741527
0 1 0.732341
0.545373 1 0.743008
0.908858 0.998276 0.74931
0.996017 0.992996 0.811917
0.99884 0.992905 0.80824
0 0.00402838 0.993088
0 0.00402838 0.993088
0 0.00402838 0.993088
0.311269 0.00340276 0.997345
0.717952 0.00267033 1
0.987549 0.00213626 1
0.990372 0.00213626 1
0.990372 0.00213626 1
0.990372 0.00213626 1
0 0.00402838 0.993088
0 0.00402838 0.993088
0 0.00402838 0.993088
0.253941 0.00350958 0.996582
0.685557 0.00273136 1
0.98468 0.00215152 1
0.990372 0.00213626 1
0.990372 0.00213626 1
0.990372 0.00213626 1
0 0.00402838 0.993088
0 0.00402838 0.993088
0 0.00402838 0.993088
0.16936 0.00367742 0.995468
0.648249 0.0027924 1
0.965331 0.00218204 1
0.990372 0.00213626 1
0.990372 0.00213626 1
0.990372 0.00213626 1
0 0.00402838 0.993088
0 0.00402838 0.993088
0 0.00402838 0.993088
0 0.00402838 0.993088
0.593088 0.00289921 1
0.931716 0.00225834 1
0.990372 0.00213626 1
0.990372 0.00213626 1
0.990372 0.00213626 1
0 0.438758 0.990341
0 0.423056 0.990448
0 0.405463 0.990341
0 0.386908 0.990372
0.472618 0.357824 0.996948
0.869734 0.313222 1
0.992981 0.272465 1
0.992767 0.250507 1
0.992615 0.234409 1
0 0.824964 0.963226
0 0.818509 0.962844
0 0.810834 0.962554
0 0.80209 0.962478
0.107195 0.788098 0.967956
0.763256 0.768582 0.984237
0.993515 0.753491 0.988281
0.997696 0.744472 0.987655
0.997635 0.736919 0.986679
0 0.982879 0.939071
0 0.980713 0.937865
0 0.978469 0.936645
0 0.975723 0.935454
0 0.971283 0.934218
0.64213 0.960403 0.954772
0.937652 0.951019 0.964553
0.999939 0.946731 0.964569
0.999939 0.943633 0.963043
0 1 0.931777
0 1 0.929839
0 1 0.927489
0 1 0.925109
0 1 0.923247
0.563806 1 0.94078
0.922347 0.995163 0.956436
0.992538 0.994644 0.980941
0.996323 0.995453 0.984512
0 1 0.925475
0 1 0.923018
0 1 0.920485
0 1 0.917983
0 1 0.915846
0.501183 1 0.930861
0.895933 0.997314 0.945098
0.990127 0.994842 0.976181
0.996658 0.996384 0.984436
0 0.00402838 0.993088
0 0.00402838 0.993088
0 0.00402838 0.993088
0.301091 0.00343328 0.997208
0.713008 0.00267033 1
0.986786 0.00213626 1
0.990372 0.00213626 1
0.990372 0.00213626 1
0.990372 0.00213626 1
0 0.00402838 0.993088
0 0.00402838 0.993088
0 0.00402838 0.993088
0.239063 0.00354009 0.996384
0.6804 0.00273136 1
0.983337 0.00215152 1
0.990372 0.00213626 1
0.990372 0.00213626 1
0.990372 0.00213626 1
0 0.00402838 0.993088
0 0.00402838 0.993088
0 0.00402838 0.993088
0.147433 0.0037232 0.995178
0.642664 0.00280766 1
0.96144 0.0021973 1
0.990372 0.00213626 1
0.990372 0.00213626 1
0.990372 0.00213626 1
0 0.00402838 0.993088
0 0.00402838 0.993088
0 0.00402838 0.993088
0 0.00402838 0.993088
0.587045 0.00289921 1
0.927749 0.00225834 1
0.990372 0.00213626 1
0.990372 0.00213626 1
0.990372 0.00213626 1
0 0.419532 0.990463
0 0.401877 0.99057
0 0.382101 0.990692
0 0.361074 0.990829
0.464195 0.328222 0.997269
0.864729 0.275822 1
0.992523 0.224857 1
0.992264 0.196963 1
0.992065 0.176638 1
0 0.816602 0.976898
0 0.808835 0.977508
0 0.80119 0.978119
0 0.790906 0.978943
0.0890669 0.77705 0.983734
0.757397 0.756786 0.998367
0.991058 0.740963 1
0.997406 0.730953 1
0.997314 0.722148 1
0 0.977111 0.961791
0 0.974655 0.961776
0 0.972091 0.961822
0 0.968887 0.962051
0 0.963989 0.96286
0.631357 0.952438 0.985595
0.933379 0.942138 0.996582
0.999207 0.937453 0.998001
0.99939 0.933944 0.998199
0 1 0.957137
0 1 0.956909
0 1 0.956664
0 1 0.956527
0 1 0.956893
0.549035 0.999557 0.976059
0.910536 0.990005 0.986984
0.988037 0.989334 0.990402
0.994553 0.990295 0.991577
0 1 0.95552
0 1 0.95523
0 1 0.955001
0 1 0.954726
0 1 0.954818
0.480476 1 0.971496
0.892256 0.99707 0.984115
0.99176 0.996185 0.993759
0.998688 0.998825 0.998108
0 0.00402838 0.993088
0 0.00402838 0.993088
0 0.00402838 0.993088
0.296437 0.00343328 0.997147
0.710018 0.00268559 1
0.986419 0.00213626 1
0.990372 0.00213626 1
0.990372 0.00213626 1
0.990372 0.00213626 1
0 0.00402838 0.993088
0 0.00402838 0.993088
0 0.00402838 0.993088
0.231525 0.00355535 0.996292
0.676921 0.00274662 1
0.982834 0.00215152 1
0.990372 0.00213626 1
0.990372 0.00213626 1
0.990372 0.00213626 1
0 0.00402838 0.993088
0 0.00402838 0.993088
0 0.00402838 0.993088
0.137087 0.00373846 0.995041
0.639078 0.00280766 1
0.958679 0.0021973 1
0.990372 0.00213626 1
0.990372 0.00213626 1
0.990372 0.00213626 1
0 0.00402838 0.993088
0 0.00402838 0.993088
0 0.00402838 0.993088
0 0.00402838 0.993088
0.58265 0.00291447 1
0.925139 0.00227359 1
0.990372 0.00213626 1
0.990372 0.00213626 1
0.990372 0.00213626 1
0 0.409735 0.990524
0 0.390875 0.990646
0 0.370962 0.990768
0 0.349142 0.990906
0.458854 0.313085 0.997284
0.86128 0.258747 1
0.992325 0.203952 1
0.992035 0.173327 1
0.991836 0.15346 1
0 0.81236 0.977218
0 0.804654 0.977844
0 0.796521 0.978515
0 0.78558 0.9794
0.0805371 0.770748 0.983902
0.753429 0.751217 0.998352
0.989883 0.734829 1
0.997345 0.724056 1
0.997253 0.715404 1
0 0.974685 0.967926
0 0.972305 0.968078
0 0.969619 0.968322
0 0.966445 0.968566
0 0.961395 0.968856
0.624552 0.949355 0.990158
0.93138 0.93901 0.999496
0.998993 0.933867 1
0.999329 0.930495 1
0 1 0.964172
0 1 0.964233
0 1 0.964279
0 1 0.964416
0 1 0.965057
0.540398 0.997696 0.984237
0.905608 0.988464 0.994842
0.98677 0.98761 0.993835
0.994141 0.98854 0.994293
0 1 0.96318
0 1 0.96318
0 1 0.963272
0 1 0.963333
0 1 0.963821
0.467796 1 0.980468
0.889052 0.997177 0.99237
0.992035 0.996475 0.996277
0.999207 0.999359 0.999344
