modules/luts/cube_folder/Classy.CUBE
TITLE "Generated by Resolve"
LUT_3D_SIZE 5
0 0 0
0.198596 0 0.0062562
0.804532 0 0.0655375
1 0 0.125643
1 0 0.128832
0.00306706 0.163867 0
0.136751 0.1523 0.00122072
0.743038 0.0658274 0.0365148
1 0 0.112871
1 0 0.118318
0.0129244 0.689082 0
0.0126192 0.673259 0
0.602441 0.648066 0.00569162
1 0.614252 0.0155947
1 0.599573 0.0157168
0.018677 0.996323 0
0.018677 0.996323 0
0.018677 0.996323 0
1 0.991943 0.0108034
1 0.991882 0.0112917
0.018677 0.996323 0
0.018677 0.996323 0
0.018677 0.996323 0
0.962249 0.992081 0.00975052
1 0.991882 0.0112917
0.00573739 0.00712596 0.0969253
0.184451 0.000350958 0.176394
0.793271 0 0.197177
1 0 0.219959
1 0 0.218097
0 0.139361 0.140764
0.12192 0.12813 0.138323
0.731121 0.0301366 0.161028
1 0 0.194247
1 0 0.194064
0.0127413 0.67921 0
0.0124514 0.663844 0
0.593515 0.637858 0.00563058
1 0.604334 0.0156863
1 0.589456 0.0158083
0.018677 0.996323 0
0.018677 0.996323 0
0.018677 0.996323 0
1 0.991958 0.0107118
1 0.991882 0.0112917
0.018677 0.996323 0
0.018677 0.996323 0
0.018677 0.996323 0
0.955917 0.992096 0.00959792
1 0.991882 0.0112917
0 0.00306706 0.755611
0 0.00300603 0.74136
0.757198 0.00151064 0.740215
0.99353 0.0009308 0.736767
0.993622 0.000885023 0.728283
0 0.0028687 0.706996
0 0.00280766 0.693401
0.695674 0.00143435 0.691203
0.99411 0.000701915 0.689632
0.994217 0.000656138 0.680537
0 0.614786 0.616373
0 0.599405 0.60293
0.546731 0.572976 0.609567
1 0.535378 0.611383
1 0.520485 0.60238
0.00451667 1 0.488243
0.00511177 1 0.467903
0.00564584 1 0.448966
0.97789 0.995758 0.468238
1 0.995163 0.453407
0.00640879 1 0.422568
0.00724804 1 0.393408
0.00807202 1 0.364401
0.934218 0.995178 0.377874
1 0.994736 0.359731
0 0.00402838 0.993088
0 0.00402838 0.993088
0.717952 0.00267033 1
0.990372 0.00213626 1
0.990372 0.00213626 1
0 0.00402838 0.993088
0 0.00402838 0.993088
0.648249 0.0027924 1
0.990372 0.00213626 1
0.990372 0.00213626 1
0 0.438758 0.990341
0 0.405463 0.990341
0.472618 0.357824 0.996948
0.992981 0.272465 1
0.992615 0.234409 1
0 0.982879 0.939071
0 0.978469 0.936645
0 0.971283 0.934218
0.937652 0.951019 0.964553
0.999939 0.943633 0.963043
0 1 0.925475
0 1 0.920485
0 1 0.915846
0.895933 0.997314 0.945098
0.996658 0.996384 0.984436
0 0.00402838 0.993088
0 0.00402838 0.993088
0.710018 0.00268559 1
0.990372 0.00213626 1
0.990372 0.00213626 1
0 0.00402838 0.993088
0 0.00402838 0.993088
0.639078 0.00280766 1
0.990372 0.00213626 1
0.990372 0.00213626 1
0 0.409735 0.990524
0 0.370962 0.990768
0.458854 0.313085 0.997284
0.992325 0.203952 1
0.991836 0.15346 1
0 0.974685 0.967926
0 0.969619 0.968322
0 0.961395 0.968856
0.93138 0.93901 0.999496
0.999329 0.930495 1
0 1 0.96318
0 1 0.963272
0 1 0.963821
0.889052 0.997177 0.99237
0.999207 0.999359 0.999344
