modules/luts/cube_folder/Classy.CUBE
TITLE "Generated by Resolve"
LUT_3D_SIZE 33
0 0 0
0 0 0
0.00396735 0.00262455 0.00267033
0.0163882 0.00544747 0.00576791
0.037995 0.00666819 0.00758373
0.0662852 0.00616464 0.00796521
0.102831 0.00425727 0.00730907
0.149142 0.00128176 0.00608835
0.198596 0 0.0062562
0.252094 0 0.00863661
0.32166 0 0.0123751
0.400458 0 0.0176852
0.482429 0 0.0243839
0.564263 0 0.0324102
0.646021 0 0.0419318
0.726238 0 0.0529641
0.804532 0 0.0655375
0.881041 0 0.079057
0.953796 0 0.092195
0.996826 0 0.10309
1 0 0.111147
1 0 0.116976
1 0 0.121065
1 0 0.123857
1 0 0.125643
1 0 0.126726
1 0 0.12726
1 0 0.127626
1 0 0.128099
1 0 0.128832
1 0 0.128832
1 0 0.128832
1 0 0.128832
0 0 0
0 0 0
0.00334173 0.00234989 0.00238041
0.0150454 0.00526436 0.00555428
0.0358587 0.00663767 0.00747692
0.0634165 0.00627146 0.00798047
0.0992294 0.00447089 0.00740063
0.145281 0.00151064 0.00616464
0.194873 0 0.00611887
0.247181 0 0.00840772
0.315007 0 0.0119631
0.393408 0 0.0171511
0.475319 0 0.0237583
0.557733 0 0.0317388
0.639002 0 0.0410925
0.719097 0 0.0518654
0.797574 0 0.0643168
0.874525 0 0.0778821
0.947906 0 0.0911269
0.994568 0 0.102312
1 0 0.110475
1 0 0.116533
1 0 0.120775
1 0 0.12369
1 0 0.125505
1 0 0.12665
1 0 0.12723
1 0 0.127611
1 0 0.128023
1 0 0.128832
1 0 0.128832
1 0 0.128832
1 0 0.128832
0.00531014 0.00805676 0.00520333
0.00517281 0.00769055 0.00508125
0.00839246 0.00854505 0.00570687
0.0202945 0.0104067 0.00694286
0.0408179 0.0111238 0.00740063
0.0678721 0.0103914 0.00697337
0.10193 0.00843824 0.00588998
0.144076 0.00534066 0.00477607
0.18996 0.0027924 0.00529488
0.241474 0.000854505 0.00758373
0.307393 0 0.011017
0.385336 0 0.0160983
0.467521 0 0.0226444
0.549722 0 0.030518
0.631083 0 0.0398108
0.711284 0 0.0505226
0.790311 0 0.0627909
0.867475 0 0.0764019
0.941283 0 0.0897841
0.991836 0 0.101228
1 0 0.109697
1 0 0.115953
1 0 0.120439
1 0 0.123491
1 0 0.125383
1 0 0.126574
1 0 0.127184
1 0 0.12755
1 0 0.127977
1 0 0.128817
1 0 0.128832
1 0 0.128832
1 0 0.128832
0.00646983 0.0259556 0.00572213
0.00653086 0.025452 0.00581369
0.00933852 0.0251316 0.00582895
0.0225223 0.025391 0.00540169
0.0453193 0.0252232 0.0043183
0.0738689 0.0241398 0.00299077
0.105669 0.0222019 0.00222782
0.141802 0.019791 0.00267033
0.183734 0.0167849 0.00378424
0.23473 0.0122988 0.00564584
0.300572 0.00627146 0.00901808
0.377249 0.000976577 0.0138857
0.459037 0 0.0202487
0.541344 0 0.0280003
0.622873 0 0.0371862
0.703487 0 0.047837
0.782986 0 0.0599832
0.860243 0 0.0734875
0.934264 0 0.087129
0.989044 0 0.09897
1 0 0.10779
1 0 0.11429
1 0 0.119036
1 0 0.122301
1 0 0.124346
1 0 0.125536
1 0 0.126223
1 0 0.126665
1 0 0.127138
1 0 0.127871
1 0 0.127977
1 0 0.127993
1 0 0.127993
0.00195315 0.0488289 0.000167849
0.00204471 0.0482643 0.000289921
0.00296025 0.0474861 0.000427253
0.0144045 0.0466926 0.00030518
0.0393072 0.0457313 0.000335698
0.0681468 0.0442969 0.00102235
0.0991379 0.0426642 0.00166323
0.13518 0.0404669 0.00238041
0.177325 0.0374914 0.00321965
0.228367 0.0330968 0.00437934
0.292821 0.0260319 0.00677501
0.368582 0.0152743 0.0113375
0.450507 0.00422675 0.0176089
0.532647 0 0.0252995
0.614588 0 0.0343786
0.695644 0 0.0449073
0.775097 0 0.0569162
0.852674 0 0.0703136
0.926986 0 0.0842145
0.98616 0 0.0965286
1 0 0.10576
1 0 0.11252
1 0 0.117388
1 0 0.120836
1 0 0.123064
1 0 0.124346
1 0 0.125048
1 0 0.125505
1 0 0.125978
1 0 0.126665
1 0 0.126864
1 0 0.126894
1 0 0.126909
0.00135805 0.072343 0
0.00134279 0.0717784 0
0.00135805 0.0711376 0
0.00733959 0.0701305 0
0.0293736 0.0688945 0
0.0585946 0.0674754 0.000488289
0.0908522 0.065919 0.00128176
0.127611 0.0638895 0.00207523
0.170382 0.0612497 0.00294499
0.221042 0.057145 0.00395209
0.28455 0.0504158 0.00537118
0.359854 0.0399939 0.00863661
0.441505 0.0252384 0.0145266
0.524254 0.00822461 0.0221866
0.605982 0 0.0311742
0.686961 0 0.0416114
0.766857 0 0.0535286
0.84445 0 0.066743
0.919661 0 0.0809033
0.9832 0 0.0937972
1 0 0.10338
1 0 0.110399
1 0 0.115511
1 0 0.119173
1 0 0.121553
1 0 0.122911
1 0 0.123735
1 0 0.124208
1 0 0.124666
1 0 0.125338
1 0 0.125612
1 0 0.125643
1 0 0.125658
0.00183108 0.0977188 0
0.00181582 0.0972 0
0.00180056 0.0963607 0
0.00309758 0.095079 0
0.0170291 0.0938582 0
0.0462043 0.0925917 0
0.0806287 0.0911879 0.000686656
0.118807 0.0895247 0.00164797
0.162173 0.0872206 0.00259403
0.213138 0.083711 0.00363165
0.275929 0.0783703 0.00488289
0.351019 0.0697795 0.00663767
0.433204 0.0569314 0.0109865
0.515953 0.0382086 0.0183566
0.597604 0.0159915 0.0270542
0.678447 0.00128176 0.0376593
0.75877 0 0.0495308
0.836606 0 0.0626688
0.912398 0 0.0769665
0.980026 0 0.0905165
1 0 0.100557
1 0 0.107897
1 0 0.113283
1 0 0.117128
1 0 0.119646
1 0 0.121187
1 0 0.122072
1 0 0.122545
1 0 0.122988
1 0 0.12369
1 0 0.124056
1 0 0.124102
1 0 0.124132
0.00239567 0.128008 0
0.00238041 0.127291 0
0.00236515 0.126207 0
0.00234989 0.125017 0
0.00650034 0.123766 0
0.028336 0.122469 0
0.0645609 0.120958 0
0.106462 0.119158 0.0009308
0.151812 0.117052 0.00205997
0.203616 0.114092 0.00320439
0.266453 0.109865 0.00450141
0.342168 0.103487 0.00602731
0.424109 0.0937209 0.00791943
0.507103 0.0798352 0.0131685
0.589227 0.060029 0.021912
0.670344 0.0337835 0.0322881
0.750881 0.0081178 0.0442054
0.828824 0 0.0573129
0.904402 0 0.0716259
0.975662 0 0.0859083
1 0 0.0967117
1 0 0.104479
1 0 0.110201
1 0 0.114244
1 0 0.11693
1 0 0.118608
1 0 0.119631
1 0 0.12015
1 0 0.120623
1 0 0.121294
1 0 0.121782
1 0 0.121859
1 0 0.121904
0.00306706 0.163867 0
0.0030518 0.16289 0
0.00303655 0.161776 0
0.00300603 0.160449 0
0.00299077 0.159396 0
0.00950637 0.157977 0
0.0391546 0.156359 0
0.086183 0.154513 0
0.136751 0.1523 0.00122072
0.191012 0.149813 0.00256352
0.255177 0.146334 0.00399786
0.331167 0.141009 0.00556954
0.413764 0.133471 0.00723278
0.49749 0.123476 0.00907912
0.580316 0.11014 0.0143587
0.662745 0.0915084 0.0246891
0.743038 0.0658274 0.0365148
0.820493 0.0340581 0.0490272
0.896239 0.00442512 0.0640574
0.967941 0 0.0789654
1 0 0.0910353
1 0 0.0993362
1 0 0.105516
1 0 0.109926
1 0 0.112871
1 0 0.114687
1 0 0.115785
1 0 0.116426
1 0 0.11693
1 0 0.117586
1 0 0.118196
1 0 0.118273
1 0 0.118318
0.00387579 0.207095 0
0.00386053 0.205905 0
0.00383001 0.204547 0
0.00381476 0.203372 0
0.00378424 0.201892 0
0.00375372 0.20032 0
0.0123598 0.198642 0
0.0517281 0.196506 0
0.112078 0.194415 0
0.172686 0.192111 0.00154116
0.239857 0.188861 0.00321965
0.317662 0.184207 0.00495918
0.401648 0.178134 0.00669871
0.486824 0.17026 0.00843824
0.571221 0.160784 0.010132
0.65391 0.147936 0.0139467
0.734615 0.13164 0.0255589
0.813092 0.110628 0.0386358
0.888991 0.0825818 0.0530709
0.96022 0.0486305 0.06598
1 0.0127413 0.0818189
1 0 0.0914931
1 0 0.0983291
1 0 0.103182
1 0 0.106462
1 0 0.108522
1 0 0.109773
1 0 0.110521
1 0 0.111116
1 0 0.111818
1 0 0.112566
1 0 0.112673
1 0 0.112795
0.00489815 0.261601 0
0.00488289 0.260548 0
0.00485237 0.258839 0
0.00482185 0.257069 0
0.00479133 0.255253 0
0.00474556 0.253422 0
0.00471504 0.25153 0
0.0152438 0.249714 0
0.0640574 0.247318 0
0.140734 0.244373 0
0.216602 0.241215 0.00192264
0.29955 0.237232 0.00399786
0.386557 0.232288 0.00595102
0.474098 0.226032 0.00779736
0.559365 0.218158 0.00953689
0.643503 0.208576 0.0112459
0.725002 0.196963 0.013489
0.804318 0.182925 0.0224002
0.881453 0.166903 0.0362402
0.954208 0.147234 0.0516823
0.999283 0.125628 0.0658427
1 0.104189 0.0772106
1 0.0854047 0.0856031
1 0.0693828 0.0936294
1 0.058732 0.095201
1 0.0501259 0.0977951
1 0.0442969 0.0993668
1 0.0407721 0.100267
1 0.0381323 0.101015
1 0.0350652 0.101808
1 0.0316777 0.102785
1 0.0306249 0.103029
1 0.0297551 0.103212
0.00613413 0.32723 0
0.00610361 0.325795 0
0.00607309 0.323629 0
0.00602731 0.321675 0
0.0059968 0.319646 0
0.00595102 0.317357 0
0.0059205 0.31603 0
0.00588998 0.313909 0
0.0165866 0.311406 0
0.0744793 0.308644 0
0.175998 0.305455 0
0.271962 0.301717 0.00242618
0.365667 0.297673 0.00479133
0.456626 0.292271 0.00686656
0.544686 0.285863 0.00875868
0.630365 0.278157 0.0105287
0.713283 0.269627 0.0122225
0.794217 0.259907 0.0138705
0.871962 0.248478 0.016907
0.945815 0.235279 0.0266728
0.99704 0.22211 0.0398108
1 0.209888 0.0513161
1 0.199695 0.0608377
1 0.190997 0.0682231
1 0.183978 0.0735332
1 0.177829 0.0769207
1 0.172824 0.0791333
1 0.1691 0.0804913
1 0.166766 0.0813306
1 0.162707 0.0824445
1 0.157931 0.0839704
1 0.155337 0.0843519
1 0.152224 0.0847791
0.00747692 0.398886 0
0.0074464 0.397086 0
0.00740063 0.395041 0
0.00737011 0.39295 0
0.00733959 0.391379 0
0.00729381 0.389227 0
0.00726329 0.38706 0
0.00721752 0.384894 0
0.00717174 0.382391 0
0.0173342 0.37995 0
0.0955062 0.377371 0
0.228 0.373449 0
0.335317 0.369329 0.00303655
0.433402 0.36463 0.00552377
0.525353 0.359289 0.00766003
0.614038 0.353094 0.00959792
0.699413 0.346624 0.0113985
0.781521 0.33875 0.0131075
0.860426 0.330098 0.0147097
0.935485 0.320272 0.0162509
0.993271 0.310582 0.0174411
1 0.302083 0.0203098
1 0.294759 0.0269932
1 0.288579 0.0333104
1 0.283635 0.0380102
1 0.279698 0.0413672
1 0.276478 0.0437476
1 0.274784 0.0451057
1 0.272419 0.046479
1 0.269963 0.0479286
1 0.267277 0.0498207
1 0.265049 0.0506142
1 0.263218 0.0512551
0.00885023 0.472114 0
0.00881972 0.470314 0
0.00877394 0.468254 0
0.00874342 0.466667 0
0.0087129 0.464561 0
0.00866712 0.462409 0
0.00863661 0.460319 0
0.00859083 0.457877 0
0.00854505 0.455665 0
0.00851453 0.453864 0
0.0238651 0.451026 0
0.147601 0.447517 0
0.289998 0.443626 0.000549325
0.401526 0.439414 0.00367742
0.500679 0.434714 0.00621042
0.59353 0.42974 0.00839246
0.68127 0.423941 0.0103609
0.76553 0.417746 0.0121614
0.846204 0.41059 0.0138552
0.922988 0.402777 0.0154574
0.987167 0.395666 0.0167697
1 0.388754 0.0172885
1 0.382681 0.017319
1 0.377829 0.0173495
1 0.373739 0.01738
1 0.370794 0.0173953
1 0.368368 0.0173953
1 0.366049 0.0174258
1 0.364218 0.0174411
1 0.362036 0.0174563
1 0.359625 0.0174563
1 0.358618 0.0174716
1 0.356802 0.0174716
0.0102235 0.545113 0
0.010193 0.543328 0
0.0101625 0.541802 0
0.0101167 0.539742 0
0.0100862 0.537636 0
0.0100404 0.535546 0
0.00999466 0.53315 0
0.00996414 0.531334 0
0.00991836 0.529137 0
0.00987259 0.526848 0
0.00982681 0.524483 0
0.038819 0.521447 0
0.217884 0.51754 0
0.358587 0.514076 0.00128176
0.469078 0.509834 0.00436408
0.567758 0.504921 0.00689708
0.659571 0.49987 0.00907912
0.746715 0.494636 0.0110628
0.829801 0.488609 0.0128786
0.908568 0.482856 0.0145418
0.977844 0.476234 0.0159915
1 0.470405 0.0167239
1 0.465339 0.0167849
1 0.460945 0.0168002
1 0.45771 0.0168307
1 0.4551 0.0168612
1 0.452674 0.0168612
1 0.450813 0.0168765
1 0.448875 0.0168917
1 0.446876 0.016907
1 0.445335 0.0169223
1 0.443809 0.0169223
1 0.442084 0.0169375
0.0115816 0.617319 0
0.0115511 0.616053 0
0.0115206 0.614038 0
0.0114748 0.612024 0
0.0114443 0.61001 0
0.0113985 0.607675 0
0.011368 0.606104 0
0.0113222 0.603967 0
0.0112764 0.601633 0
0.0112459 0.59939 0
0.0111849 0.596872 0
0.0111391 0.5944 0
0.082536 0.591714 0
0.296864 0.587533 0
0.427649 0.583276 0.00204471
0.535912 0.579049 0.00503548
0.63357 0.574487 0.00753796
0.724697 0.569604 0.00973526
0.810697 0.564828 0.0117189
0.891936 0.559457 0.0135042
0.964401 0.553674 0.0150759
1 0.548592 0.0160525
1 0.544137 0.0161898
1 0.54078 0.0162203
1 0.537652 0.0162356
1 0.534997 0.0162509
1 0.532723 0.0162814
1 0.530739 0.0162966
1 0.529427 0.0163119
1 0.527565 0.0163272
1 0.525917 0.0163424
1 0.524147 0.0163424
1 0.522484 0.0163577
0.0129244 0.689082 0
0.0128939 0.687343 0
0.0128481 0.685359 0
0.0128176 0.683375 0
0.0127718 0.681147 0
0.0127413 0.679652 0
0.0127108 0.677607 0
0.012665 0.675349 0
0.0126192 0.673259 0
0.0125734 0.670848 0
0.0125429 0.668849 0
0.0124971 0.666743 0
0.0170291 0.663874 0
0.193057 0.660029 0
0.372213 0.655787 0
0.495872 0.651774 0.0027924
0.602441 0.648066 0.00569162
0.698573 0.643641 0.00817884
0.788128 0.63888 0.0103609
0.872129 0.63389 0.012314
0.948318 0.628931 0.014023
1 0.624094 0.0152285
1 0.620615 0.0155489
1 0.617365 0.0155795
1 0.614252 0.0155947
1 0.611811 0.01561
1 0.609659 0.0156405
1 0.60798 0.0156558
1 0.606485 0.015671
1 0.60473 0.015671
1 0.602609 0.0157015
1 0.601175 0.0157015
1 0.599573 0.0157168
0.0142214 0.75877 0
0.0141909 0.757076 0
0.0141604 0.755138 0
0.0141299 0.753185 0
0.0140993 0.751736 0
0.0140536 0.749783 0
0.014023 0.747539 0
0.0139773 0.745327 0
0.0139315 0.743282 0
0.013901 0.741222 0
0.0138705 0.739376 0
0.0138247 0.736919 0
0.0137789 0.734462 0
0.0215457 0.731441 0
0.289845 0.727108 0
0.444953 0.723445 7.62951e-05
0.563836 0.719478 0.00352483
0.667659 0.715343 0.00636301
0.761776 0.710979 0.0087892
0.84918 0.706645 0.0109255
0.929442 0.70193 0.0128176
0.990417 0.697963 0.0142214
1 0.694286 0.014847
1 0.69131 0.0148775
1 0.688426 0.0148928
1 0.686122 0.0149233
1 0.684596 0.0149386
1 0.682734 0.0149538
1 0.680537 0.0149844
1 0.679377 0.0149996
1 0.677607 0.0150149
1 0.676158 0.0150149
1 0.674586 0.0150454
0.0155032 0.826764 0
0.0154726 0.825116 0
0.0154421 0.823224 0
0.0154116 0.821805 0
0.0153658 0.819867 0
0.0153353 0.817731 0
0.0152895 0.815778 0
0.015259 0.813642 0
0.0152285 0.812146 0
0.0151827 0.809903 0
0.0151369 0.807645 0
0.0151064 0.805493 0
0.0150607 0.80296 0
0.0150149 0.800687 0
0.153765 0.797238 0
0.376562 0.793194 0
0.516411 0.789151 0.000991836
0.630442 0.785199 0.00427253
0.731395 0.781186 0.00700389
0.823728 0.777401 0.0093843
0.907378 0.773037 0.0114595
0.973861 0.769192 0.0130312
1 0.765713 0.0140383
1 0.762646 0.0141299
1 0.75993 0.0141604
1 0.758282 0.0141756
1 0.756359 0.0141909
1 0.75433 0.0142214
1 0.752697 0.0142367
1 0.751064 0.0142519
1 0.74966 0.0142672
1 0.748211 0.0142824
1 0.7467 0.0142977
0.0167239 0.891646 0
0.0166934 0.890532 0
0.0166629 0.888762 0
0.0166323 0.886976 0
0.0165866 0.884932 0
0.016556 0.883146 0
0.0165255 0.881148 0
0.016495 0.87953 0
0.0164645 0.877699 0
0.0164187 0.875608 0
0.0163729 0.873487 0
0.0163424 0.871534 0
0.0162966 0.869368 0
0.0162509 0.867063 0
0.0162051 0.864561 0
0.265446 0.860319 0
0.455253 0.85658 0
0.585672 0.852934 0.0018616
0.696147 0.84947 0.0049897
0.793713 0.845716 0.00762951
0.881697 0.841398 0.00991836
0.952682 0.837736 0.0116884
1 0.834485 0.0129397
1 0.831617 0.0133364
1 0.829526 0.0133669
1 0.827436 0.0133974
1 0.82536 0.0134279
1 0.823667 0.0134279
1 0.82182 0.0134585
1 0.820722 0.0134737
1 0.81915 0.013489
1 0.817563 0.0135042
1 0.815854 0.0135348
0.0177768 0.948165 0
0.0177615 0.946868 0
0.017731 0.945403 0
0.0177005 0.943923 0
0.0176699 0.942275 0
0.0176394 0.940795 0
0.0176089 0.939498 0
0.0175784 0.937789 0
0.0175479 0.936095 0
0.0175174 0.934539 0
0.0174868 0.932769 0
0.0174563 0.931334 0
0.0174258 0.929534 0
0.01738 0.927245 0
0.0173495 0.925139 0
0.112352 0.922179 0
0.378286 0.918593 0
0.534539 0.915419 0
0.656077 0.911879 0.00283818
0.760815 0.908522 0.00578317
0.853697 0.905043 0.00828565
0.92874 0.901747 0.0102235
0.98584 0.899199 0.0116579
1 0.896483 0.0125582
1 0.894057 0.0125734
1 0.89192 0.012604
1 0.890196 0.0126192
1 0.88838 0.0126497
1 0.887312 0.012665
1 0.885893 0.0126802
1 0.884184 0.0126955
1 0.882643 0.012726
1 0.881041 0.0127413
0.0185397 0.988998 0
0.0185245 0.988098 0
0.0185092 0.986938 0
0.0184787 0.985916 0
0.0184634 0.985016 0
0.0184482 0.983993 0
0.0184329 0.982818 0
0.0184024 0.981628 0
0.0183871 0.980468 0
0.0183566 0.979278 0
0.0183413 0.978439 0
0.0183261 0.977203 0
0.0182956 0.975875 0
0.018265 0.974426 0
0.0182345 0.972839 0
0.018204 0.971237 0
0.273396 0.968231 0
0.479957 0.965301 0
0.616175 0.962325 0.000823987
0.728618 0.959304 0.0040589
0.826444 0.95613 0.00677501
0.906203 0.953536 0.00889601
0.966018 0.951019 0.0104524
1 0.948882 0.0115663
1 0.947036 0.0118868
1 0.945418 0.0119173
1 0.943908 0.0119326
1 0.942794 0.0119478
1 0.94136 0.0119631
1 0.940124 0.0119783
1 0.938781 0.0120089
1 0.93727 0.0120241
1 0.936324 0.0120394
0.018677 0.996323 0
0.018677 0.996323 0
0.018677 0.996323 0
0.018677 0.996323 0
0.018677 0.996323 0
0.018677 0.996323 0
0.018677 0.996323 0
0.018677 0.996323 0
0.018677 0.996323 0
0.018677 0.996323 0
0.018677 0.996323 0
0.018677 0.996323 0
0.018677 0.996323 0
0.018677 0.996323 0
0.018677 0.996323 0
0.018677 0.996323 0
0.165316 0.995514 0
0.420432 0.994217 0
0.576684 0.99321 0
0.698131 0.99173 0.00265507
0.801328 0.990234 0.00555428
0.884825 0.988739 0.00779736
0.947555 0.987427 0.00944533
0.993835 0.986252 0.0106355
1 0.985336 0.011368
1 0.98468 0.0113985
1 0.984207 0.0113985
1 0.98378 0.0113985
1 0.983474 0.0114137
1 0.982727 0.0114137
1 0.981582 0.011429
1 0.980636 0.0114443
1 0.979568 0.0114595
0.018677 0.996323 0
0.018677 0.996323 0
0.018677 0.996323 0
0.018677 0.996323 0
0.018677 0.996323 0
0.018677 0.996323 0
0.018677 0.996323 0
0.018677 0.996323 0
0.018677 0.996323 0
0.018677 0.996323 0
0.018677 0.996323 0
0.018677 0.996323 0
0.018677 0.996323 0
0.018677 0.996323 0
0.018677 0.996323 0
0.018677 0.996323 0
0.0627909 0.996078 0
0.347433 0.994568 0
0.541268 0.993667 0
0.671 0.993133 0.0018616
0.778088 0.992721 0.00486763
0.865644 0.992401 0.00724804
0.931182 0.992187 0.00895705
0.979553 0.99202 0.010193
1 0.991913 0.0110628
1 0.991882 0.0112917
1 0.991882 0.0112917
1 0.991882 0.0112917
1 0.991882 0.0112917
1 0.991882 0.0112917
1 0.991882 0.0112917
1 0.991882 0.0112917
1 0.991745 0.0112917
0.018677 0.996323 0
0.018677 0.996323 0
0.018677 0.996323 0
0.018677 0.996323 0
0.018677 0.996323 0
0.018677 0.996323 0
0.018677 0.996323 0
0.018677 0.996323 0
0.018677 0.996323 0
0.018677 0.996323 0
0.018677 0.996323 0
0.018677 0.996323 0
0.018677 0.996323 0
0.018677 0.996323 0
0.018677 0.996323 0
0.018677 0.996323 0
0.018677 0.996323 0
0.278904 0.994919 0
0.507134 0.99382 0
0.646555 0.993225 0.00114443
0.758022 0.992798 0.0043183
0.848936 0.992462 0.00679026
0.917281 0.992233 0.00859083
0.967651 0.992065 0.00988785
1 0.991943 0.0108034
1 0.991882 0.0112764
1 0.991882 0.0112917
1 0.991882 0.0112917
1 0.991882 0.0112917
1 0.991882 0.0112917
1 0.991882 0.0112917
1 0.991882 0.0112917
1 0.991882 0.0112917
0.018677 0.996323 0
0.018677 0.996323 0
0.018677 0.996323 0
0.018677 0.996323 0
0.018677 0.996323 0
0.018677 0.996323 0
0.018677 0.996323 0
0.018677 0.996323 0
0.018677 0.996323 0
0.018677 0.996323 0
0.018677 0.996323 0
0.018677 0.996323 0
0.018677 0.996323 0
0.018677 0.996323 0
0.018677 0.996323 0
0.018677 0.996323 0
0.018677 0.996323 0
0.227283 0.995178 0
0.474159 0.993973 0
0.624933 0.993317 0.000518807
0.74078 0.992859 0.00383001
0.835035 0.992508 0.00642405
0.905913 0.992264 0.00830091
0.957687 0.992096 0.00962844
0.995163 0.991974 0.0105898
1 0.991897 0.0112001
1 0.991882 0.0112917
1 0.991882 0.0112917
1 0.991882 0.0112917
1 0.991882 0.0112917
1 0.991882 0.0112917
1 0.991882 0.0112917
1 0.991882 0.0112917
0.018677 0.996323 0
0.018677 0.996323 0
0.018677 0.996323 0
0.018677 0.996323 0
0.018677 0.996323 0
0.018677 0.996323 0
0.018677 0.996323 0
0.018677 0.996323 0
0.018677 0.996323 0
0.018677 0.996323 0
0.018677 0.996323 0
0.018677 0.996323 0
0.018677 0.996323 0
0.018677 0.996323 0
0.018677 0.996323 0
0.018677 0.996323 0
0.018677 0.996323 0
0.185016 0.995407 0
0.445136 0.99411 0
0.604868 0.993393 0
0.726467 0.99292 0.00343328
0.823606 0.992554 0.00611887
0.896208 0.992294 0.0080415
0.949615 0.992111 0.00943008
0.988327 0.991989 0.0104219
1 0.991913 0.0110933
1 0.991882 0.0112764
1 0.991882 0.0112917
1 0.991882 0.0112917
1 0.991882 0.0112917
1 0.991882 0.0112917
1 0.991882 0.0112917
1 0.991882 0.0112917
0.018677 0.996323 0
0.018677 0.996323 0
0.018677 0.996323 0
0.018677 0.996323 0
0.018677 0.996323 0
0.018677 0.996323 0
0.018677 0.996323 0
0.018677 0.996323 0
0.018677 0.996323 0
