modules/luts/cube_folder/Deep.CUBE
TITLE "Generated by Resolve"
LUT_3D_SIZE 9
0 0 0
0.0999924 0 0
0.196185 0 0
0.298085 0 0
0.425162 0 0
0.582071 0 0
0.758587 0 0
0.934188 0 0
1 0 0
0 0.0742199 0
0.0619059 0.0619059 0
0.171481 0.0531167 0
0.275456 0.046128 0
0.400504 0.0336004 0
0.555978 0.0128481 0
0.733272 0 0
0.911025 0 0
1 0 0
0 0.160967 0
0.0335546 0.152819 0
0.143877 0.143877 0
0.250965 0.135607 0
0.374792 0.123171 0
0.530266 0.102525 0
0.709697 0.0762188 0
0.892912 0.0495308 0
1 0.0245365 0
0 0.246235 0
0.0138247 0.240009 0
0.120043 0.233356 0
0.226673 0.226673 0
0.348684 0.216312 0
0.504646 0.197391 0
0.687221 0.172595 0
0.877348 0.147066 0
1 0.124163 0
0 0.338689 0
0 0.334401 0
0.093019 0.33048 0
0.199313 0.32694 0
0.320363 0.320363 0
0.476036 0.305577 0
0.662882 0.284535 0
0.862257 0.262531 0
1 0.244251 0
0 0.447761 0
0 0.446754 0
0.0524758 0.446677 0
0.160815 0.448081 0
0.28304 0.447517 0
0.439963 0.439963 0
0.631662 0.425086 0
0.839963 0.407584 0
1 0.39321 0
0 0.578225 0
0 0.583001 0
0.00753796 0.589029 0
0.119463 0.596948 0
0.24329 0.602899 0
0.399634 0.602152 0
0.593072 0.593072 0
0.807462 0.579553 0
1 0.569039 0
0 0.732265 0
0 0.74284 0
0 0.754223 0
0.0835737 0.76762 0
0.208347 0.779736 0
0.363104 0.785214 0
0.555505 0.781689 0
0.772168 0.772168 0
0.987716 0.764263 0
0 0.901976 0
0 0.917571 0
0 0.933745 0
0.0665904 0.951492 0
0.191791 0.968109 0
0.342962 0.978241 0
0.531991 0.978393 0
0.747066 0.971008 0
0.963409 0.963409 0
0 0 0.106386
0.0964981 0 0.0964981
0.198489 0 0.079881
0.301762 0 0.0678111
0.429786 0 0.051545
0.587076 0 0.0284581
0.763317 0 0.000549325
0.938613 0 0
1 0 0
0 0.0701457 0.0701457
0.0576028 0.0576181 0.0575875
0.179965 0.04654 0.04654
0.282521 0.0407263 0.0407263
0.407752 0.0285801 0.0285801
0.563409 0.00802625 0.00802625
0.740047 0 0
0.917098 0 0
1 0 0
0 0.159472 0.0406043
0.018967 0.153719 0.018967
0.142061 0.142061 0.00613413
0.256214 0.131533 0.0108492
0.382406 0.118578 0.00657664
0.538766 0.0979477 0
0.718196 0.0719463 0
0.90016 0.0460059 0
1 0.0213016 0
0 0.245411 0.0191501
0.00254826 0.240589 0.00254826
0.11223 0.233982 0
0.225666 0.225666 0
0.352926 0.213748 0
0.512169 0.194293 0
0.696376 0.169512 0
0.886152 0.144594 0
1 0.122301 0
0 0.338567 0
0 0.33547 0
0.0855421 0.33196 0
0.195148 0.328191 0
0.320607 0.320607 0
0.481331 0.305196 0
0.671748 0.283848 0
0.872312 0.262226 0
1 0.244465 0
0 0.448692 0
0 0.448798 0
0.0467384 0.449531 0
0.156863 0.45153 0
0.282017 0.450996 0
0.443015 0.443015 0
0.638956 0.427436 0
0.849821 0.409491 0
1 0.39559 0
0 0.580728 0
0 0.586999 0
0.00445563 0.593927 0
0.117205 0.602365 0
0.242542 0.608667 0
0.401038 0.607843 0
0.598245 0.598245 0
0.8159 0.584344 0
1 0.573571 0
0 0.736904 0
0 0.748577 0
0 0.760647 0
0.0831617 0.774517 0
0.208759 0.787121 0
0.364309 0.792905 0
0.558862 0.788952 0
0.779019 0.779019 0
0.997253 0.770489 0
0 0.908354 0
0 0.924605 0
0 0.94136 0
0.0679789 0.959564 0
0.19321 0.976577 0
0.344289 0.986984 0
0.534035 0.986496 0
0.751522 0.978851 0
0.970382 0.970382 0
0 0 0.204135
0.0838788 0 0.202701
0.191714 0 0.191714
0.299611 0 0.175937
0.430182 0 0.155383
0.588952 0 0.128801
0.766247 0 0.0985428
0.941726 0 0.0696269
1 0 0.0413062
0 0.0644236 0.182681
0.0539406 0.0539406 0.187472
0.176272 0.042771 0.176272
0.285405 0.0364233 0.15523
0.412299 0.024567 0.135012
0.568719 0.00416571 0.10985
0.745678 0 0.0809796
0.922454 0 0.0530556
1 0 0.0259098
0 0.155322 0.155322
0.0146029 0.149737 0.149737
0.138048 0.138018 0.138064
0.266361 0.125154 0.125154
0.39202 0.113191 0.113191
0.548257 0.0932479 0.0932479
0.726848 0.0679637 0.0679637
0.907637 0.042771 0.042771
1 0.0186313 0.0186313
0 0.243183 0.12871
0 0.239628 0.117128
0.0987716 0.235447 0.0987716
0.224552 0.224552 0.08925
0.360754 0.210056 0.090135
0.522774 0.190265 0.0792859
0.707515 0.165881 0.0600748
0.895933 0.141909 0.0394446
1 0.120562 0.0205997
0 0.337469 0.0966812
0 0.33576 0.0870985
0.0761578 0.333654 0.0761578
0.187869 0.33019 0.0692607
0.320958 0.320958 0.06981
0.488609 0.304097 0.0664378
0.682963 0.282506 0.0553597
0.884108 0.261341 0.0418555
1 0.244602 0.0305943
0 0.448905 0.0488441
0 0.450477 0.0442206
0.0403449 0.452399 0.0403449
0.150515 0.455207 0.0408026
0.279393 0.454994 0.0463874
0.446082 0.446082 0.0497292
0.647486 0.429557 0.0463569
0.861692 0.411124 0.0398413
1 0.397421 0.0355993
0 0.583185 0
0 0.590631 0
0.0012665 0.59855 0.0012665
0.113481 0.607843 0.00891127
0.24007 0.615 0.0195926
0.40148 0.614008 0.0277867
0.603418 0.603418 0.0299992
0.825574 0.588754 0.0287022
1 0.577707 0.0296941
0 0.741238 0
0 0.753811 0
0 0.766934 0
0.0822003 0.781628 0
0.207996 0.794873 0
0.363943 0.801038 0.00840772
0.561471 0.796399 0.0136721
0.785748 0.785748 0.0150759
1 0.77641 0.0181277
0 0.914397 0
0 0.931472 0
0 0.948714 0
0.068986 0.96762 0
0.193668 0.985153 0
0.344091 0.995865 0.00244144
0.534783 0.995331 0.00869764
0.755428 0.986664 0.00941482
0.977111 0.977111 0.0106508
0 0 0.311772
0.0755779 0 0.312093
0.181003 0 0.30576
0.290883 0 0.290883
0.423835 0 0.267506
0.585443 0 0.236881
0.76495 0 0.203143
0.941848 0 0.171389
1 0 0.140688
0 0.0603037 0.292561
0.0517281 0.0517281 0.295735
0.161929 0.0433814 0.293538
0.276051 0.0351263 0.276051
0.40853 0.0220035 0.249607
0.568521 0.00134279 0.218585
0.747417 0 0.185153
0.925078 0 0.154345
1 0 0.124926
0 0.150225 0.267979
0.0233921 0.143069 0.269871
0.133532 0.133532 0.276158
0.261326 0.12108 0.261326
0.394965 0.108568 0.231098
0.553948 0.089128 0.201923
0.733333 0.0643626 0.171542
0.913024 0.0400092 0.14342
1 0.0162966 0.117159
0 0.239261 0.239261
0 0.235309 0.235309
0.0955062 0.231586 0.231586
0.221088 0.221118 0.221057
0.374868 0.203586 0.203586
0.53579 0.185306 0.185306
0.719158 0.162142 0.162142
0.906065 0.139223 0.139223
1 0.119036 0.119036
0 0.33518 0.203387
0 0.334081 0.19765
0.0703746 0.333715 0.189181
0.175311 0.333379 0.175311
0.321691 0.321691 0.168124
0.50103 0.301854 0.16643
0.697826 0.280308 0.155062
0.898207 0.260502 0.141253
1 0.244739 0.129656
0 0.448524 0.152941
0 0.451209 0.150027
0.0367132 0.45478 0.146334
0.143297 0.4598 0.143297
0.273594 0.460502 0.143511
0.449607 0.449607 0.146151
0.65948 0.430869 0.144045
0.876631 0.412604 0.138567
1 0.399313 0.134661
0 0.585397 0.097673
0 0.593896 0.100984
0 0.603113 0.104646
0.110109 0.613886 0.110109
0.236057 0.622232 0.118013
0.400046 0.621393 0.124743
0.609003 0.609003 0.126986
0.837736 0.593194 0.126848
1 0.581674 0.128618
0 0.745602 0.0516365
0 0.759075 0.0604257
0 0.7729 0.0695659
0.0818494 0.789059 0.0818494
0.206378 0.80351 0.0952926
0.361929 0.810407 0.106264
0.562905 0.805112 0.111116
0.792981 0.792981 0.112581
1 0.782467 0.115953
0 0.920546 0.0265965
0 0.938384 0.0402838
0 0.956237 0.0541848
0.0706188 0.976089 0.0706188
0.193973 0.994339 0.087541
0.342672 1 0.100771
0.534356 1 0.106355
0.758358 0.995285 0.106554
0.984176 0.984176 0.10721
0 0 0.453086
0.0675212 0 0.454124
0.169635 0 0.449897
0.278004 0 0.436454
0.411032 0 0.411032
0.574945 0 0.375814
0.757565 0 0.336706
0.936782 0 0.299992
1 0 0.26508
0 0.0548104 0.431312
0.0472572 0.0472572 0.434821
0.150698 0.0406043 0.434577
0.261051 0.0329137 0.422263
0.39469 0.0195315 0.39469
0.559045 0 0.357229
0.742123 0 0.317113
0.922194 0 0.280369
1 0 0.247013
0 0.143603 0.404593
0.0255589 0.136492 0.408881
0.129015 0.129015 0.41503
0.243046 0.119738 0.410086
0.381109 0.105913 0.381109
0.547707 0.085481 0.3411
0.731807 0.0605478 0.301472
0.913802 0.0363012 0.267079
1 0.0131838 0.236408
0 0.233066 0.371939
0.00236515 0.228351 0.373404
0.102388 0.223255 0.379644
0.214618 0.214618 0.390295
0.367742 0.198398 0.367742
0.539391 0.179919 0.324483
0.72517 0.157824 0.289097
0.912291 0.136034 0.260075
1 0.116701 0.235874
0 0.33051 0.33051
0 0.329183 0.329183
0.0734722 0.328542 0.328542
0.172473 0.328969 0.328969
0.318547 0.318608 0.318486
0.520317 0.295125 0.295125
0.713893 0.27602 0.27602
0.911925 0.258183 0.258183
1 0.243793 0.243793
0 0.445975 0.274647
0 0.449149 0.274205
0.0375677 0.45391 0.273152
0.139391 0.461326 0.27097
0.260349 0.466621 0.260349
0.452476 0.452476 0.253849
0.67631 0.429892 0.254566
0.894667 0.411948 0.25008
1 0.399741 0.245579
0 0.58584 0.215396
0 0.595148 0.219821
0.00140383 0.605356 0.223499
0.108385 0.618189 0.227237
0.229267 0.629236 0.229267
0.393118 0.629526 0.229358
0.614466 0.614466 0.230457
0.852293 0.596368 0.232319
1 0.584344 0.235416
0 0.748638 0.166247
0 0.762905 0.17528
0 0.777768 0.183749
0.0822766 0.795316 0.193973
0.203708 0.811597 0.203708
0.356085 0.819883 0.210147
0.561486 0.814404 0.212604
0.8 0.8 0.213916
1 0.787747 0.218204
0 0.925628 0.138796
0 0.944152 0.152316
0 0.962814 0.165026
0.0727703 0.983597 0.179797
0.194003 1 0.194003
0.339208 1 0.203998
0.530999 1 0.207218
0.759609 1 0.2056
0.990784 0.990784 0.205661
0 0 0.629526
0.0581064 0 0.630961
0.157351 0 0.62858
0.263066 0 0.617884
0.393774 0 0.594003
0.558053 0 0.558053
0.742855 0 0.515389
0.92517 0 0.474128
1 0 0.434775
0 0.0467384 0.606882
0.0399786 0.0399786 0.609888
0.139422 0.0343023 0.610681
0.245274 0.0274357 0.60264
0.375601 0.0146639 0.579126
0.541176 0 0.541176
0.727718 0 0.496666
0.911742 0 0.454276
1 0 0.415183
0 0.13463 0.57969
0.0220645 0.127886 0.584558
0.121691 0.121691 0.590036
0.228031 0.114321 0.588495
0.359869 0.101762 0.568597
0.528878 0.0807813 0.528878
0.718746 0.0549325 0.482506
0.906355 0.0303349 0.439872
1 0.00761425 0.402853
0 0.224018 0.545785
0.00268559 0.218891 0.550759
0.101961 0.214038 0.559243
0.207752 0.207752 0.568261
0.342641 0.195743 0.560906
0.520821 0.175433 0.520821
0.716762 0.151949 0.472343
0.909483 0.130648 0.43209
1 0.112169 0.399558
0 0.322332 0.500999
0 0.32047 0.504387
0.0766461 0.319203 0.511299
0.178851 0.317952 0.524041
0.310018 0.310018 0.540154
0.510582 0.288487 0.510582
0.717601 0.269398 0.459892
0.918196 0.253285 0.426474
1 0.240177 0.40322
0 0.439689 0.439689
0 0.442924 0.442924
0.0408789 0.447425 0.447425
0.143114 0.455024 0.455024
0.257923 0.46128 0.46128
0.448753 0.448829 0.448676
0.699214 0.42179 0.42179
0.912276 0.407065 0.407065
1 0.396887 0.396887
0 0.582483 0.374289
0 0.592218 0.380514
0.00433356 0.603113 0.385794
0.110048 0.617014 0.391501
0.224659 0.630793 0.391592
0.37525 0.637125 0.37525
0.617792 0.617792 0.362799
0.870573 0.595331 0.369375
1 0.583322 0.373785
0 0.748089 0.318563
0 0.762982 0.327672
0 0.778897 0.335943
0.0838636 0.797665 0.344137
0.201389 0.816022 0.349248
0.346166 0.827924 0.346166
0.552529 0.823606 0.337774
0.805402 0.805402 0.336431
1 0.789929 0.343053
0 0.927626 0.285359
0 0.946487 0.297337
0 0.966262 0.308736
0.0749218 0.987961 0.320729
0.193057 1 0.3299
0.333806 1 0.333806
0.522469 1 0.329442
0.756161 1 0.322805
0.996201 0.996201 0.321813
0 0 0.826673
0.0476081 0 0.828321
0.144747 0 0.827329
0.247868 0 0.819593
0.375219 0 0.799786
0.538094 0 0.766262
0.723888 0 0.723888
0.908537 0 0.681239
1 0 0.639445
0 0.0370184 0.805127
0.0308843 0.0308843 0.807614
0.127672 0.0259098 0.808911
0.230015 0.0195926 0.803479
0.356313 0.00767529 0.785473
0.519677 0 0.751873
0.707851 0 0.707851
0.895186 0 0.663508
1 0 0.621103
0 0.124147 0.780118
0.0154421 0.1178 0.784405
0.11249 0.11249 0.78938
0.214572 0.10631 0.789364
0.340108 0.0952316 0.775952
0.506035 0.0746929 0.743526
0.698131 0.0482795 0.698131
0.890837 0.0228733 0.652308
1 0 0.610895
0 0.213046 0.748577
0 0.208057 0.754498
0.096788 0.203784 0.762768
0.1991 0.1991 0.770718
0.324544 0.189822 0.768109
0.495232 0.17084 0.74107
0.695537 0.146273 0.695537
0.89601 0.123964 0.649531
1 0.105608 0.61062
0 0.311604 0.705333
0 0.309606 0.712016
0.0757 0.308248 0.722042
0.178271 0.30753 0.73698
0.302556 0.302556 0.750713
0.4804 0.286381 0.740291
0.697353 0.264836 0.697353
0.909895 0.247227 0.651469
1 0.234424 0.616556
0 0.430381 0.643503
0 0.433524 0.651316
0.0431067 0.437949 0.662135
0.147616 0.444709 0.678752
0.266865 0.448783 0.700465
0.438987 0.438987 0.72076
0.689219 0.413642 0.689219
0.916396 0.399039 0.638346
1 0.390585 0.609674
0 0.575784 0.575784
0 0.58558 0.58558
0.00740063 0.596231 0.596231
0.113649 0.609888 0.609888
0.228489 0.623041 0.623041
0.370398 0.630137 0.630137
0.612299 0.612207 0.612406
0.894087 0.58497 0.58497
1 0.576303 0.576303
0 0.743801 0.51545
0 0.758831 0.526604
0 0.775265 0.538003
0.0862593 0.794339 0.550118
0.20119 0.813397 0.558724
0.337728 0.828244 0.555871
0.528435 0.830747 0.528435
0.806943 0.806943 0.508568
1 0.786419 0.521263
0 0.925704 0.477058
0 0.944976 0.489982
0 0.965133 0.502464
0.0763256 0.987305 0.514611
0.191897 1 0.52282
0.326894 1 0.522301
0.506539 1 0.506539
0.742367 1 0.484733
0.998245 0.998245 0.479591
0 0 1
0.0379797 0 1
0.133303 0 1
0.233997 0 1
0.358267 0 1
0.518639 0 0.970779
0.704005 0 0.931441
0.890349 0 0.890349
1 0 0.850477
0 0.0277409 1
0.0219883 0.0219883 1
0.117006 0.0174716 1
0.216709 0.0117342 1
0.338994 0.000610361 0.986831
0.499229 0 0.958328
0.686687 0 0.918471
0.877165 0 0.877165
1 0 0.836255
0 0.114031 0.979019
0.00807202 0.108141 0.982422
0.103502 0.103502 0.986465
0.202914 0.0981765 0.987182
0.32369 0.0882734 0.978119
0.484764 0.0687724 0.952392
0.67599 0.0422217 0.913878
0.871778 0.0159762 0.871778
1 0 0.831205
0 0.202289 0.953552
0 0.197635 0.958526
0.0903639 0.194034 0.965148
0.19057 0.19057 0.972168
0.31075 0.183139 0.971435
0.473655 0.166094 0.952773
0.671717 0.141787 0.917922
0.876814 0.118257 0.876829
1 0.0992905 0.838544
0 0.30071 0.916533
0 0.298817 0.924361
0.0729686 0.297978 0.934844
0.174929 0.298314 0.948821
0.295506 0.295506 0.960204
0.461219 0.283055 0.955978
0.671168 0.262791 0.929381
0.890684 0.243091 0.890684
1 0.228916 0.853986
0 0.420157 0.860731
0 0.423423 0.871199
0.0443122 0.428244 0.886137
0.149798 0.435111 0.906188
0.270069 0.439445 0.928374
0.433417 0.433417 0.94342
0.656672 0.414496 0.934874
0.897551 0.395224 0.897551
1 0.384466 0.859907
0 0.567468 0.796933
0 0.57702 0.810452
0.00991836 0.587869 0.826535
0.117891 0.6009 0.847196
0.23508 0.612543 0.870115
0.384787 0.6168 0.893492
0.602853 0.602853 0.912764
0.884306 0.576303 0.884306
1 0.567285 0.839704
0 0.737606 0.737606
0 0.752544 0.752544
0 0.768856 0.768856
0.0893263 0.787671 0.787671
0.205097 0.805722 0.805722
0.341909 0.819516 0.819516
0.521706 0.8224 0.8224
0.799115 0.799237 0.799008
1 0.773846 0.773846
0 0.921233 0.697856
0 0.940581 0.714076
0 0.960723 0.729778
0.0780804 0.982773 0.746365
0.192676 1 0.759808
0.324254 1 0.765301
0.49308 1 0.752911
0.712596 1 0.712596
0.99649 0.99649 0.685832
0 0 1
0.028397 0 1
0.122377 0 1
0.221286 0 1
0.342626 0 1
0.500252 0 1
0.684474 0 1
0.872572 0 1
1 0 1
0 0.018555 1
0.013077 0.013077 1
0.106569 0.00881972 1
0.204547 0.00363165 1
0.323583 0 1
0.480629 0 1
0.666529 0 1
0.858244 0 1
1 0 1
0 0.104189 1
0.000457771 0.0986801 1
0.0944381 0.0944381 1
0.19205 0.0899672 1
0.309545 0.0810101 1
0.465919 0.0624857 1
0.654978 0.0367132 1
0.852369 0.0101625 1
1 0 1
0 0.192279 1
0 0.187945 1
0.0836805 0.184894 1
0.1823 0.1823 1
0.299046 0.176196 1
0.456397 0.160754 1
0.650752 0.137865 1
0.857114 0.11429 1
1 0.0949416 1
0 0.290761 1
0 0.289158 1
0.0692912 0.288991 1
0.170809 0.290181 1
0.289082 0.289082 1
0.448264 0.279332 1
0.650736 0.261219 1
0.870237 0.241321 1
1 0.226108 1
0 0.411063 1
0 0.414481 1
0.0446479 0.420142 1
0.150637 0.427573 1
0.270649 0.432609 1
0.429099 0.429099 1
0.637995 0.414527 1
0.873671 0.395743 1
1 0.382925 1
0 0.559869 1
0 0.569604 1
0.0132448 0.580606 1
0.122179 0.593729 1
0.241321 0.605051 1
0.393057 0.609201 1
0.599664 0.599664 1
0.852964 0.579339 1
1 0.565301 1
0 0.73138 0.954467
0 0.746822 0.972915
0 0.763012 0.993393
0.0946822 0.781369 1
0.211948 0.798657 1
0.353292 0.810452 1
0.540887 0.809613 1
0.790463 0.790463 1
1 0.765179 1
0 0.916732 0.916732
0 0.936217 0.936217
0 0.9561 0.9561
0.08159 0.977295 0.977295
0.19707 0.998093 0.998093
0.329458 1 1
0.49752 1 1
0.703426 1 1
0.986664 0.986664 0.986664
