modules/luts/cube_folder/Deep.CUBE
TITLE "Generated by Resolve"
LUT_3D_SIZE 33
0 0 0
0.0183261 0 0
0.0480201 0 0
0.0747082 0 0
0.0999924 0 0
0.124285 0 0
0.148272 0 0
0.172 0 0
0.196185 0 0
0.220447 0 0
0.245411 0 0
0.271244 0 0
0.298085 0 0
0.326665 0 0
0.357473 0 0
0.39028 0 0
0.425162 0 0
0.46183 0 0
0.500282 0 0
0.540413 0 0
0.582071 0 0
0.624887 0 0
0.668879 0 0
0.713573 0 0
0.758587 0 0
0.803662 0 0
0.847944 0 0
0.89131 0 0
0.934188 0 0
0.97818 0 0
1 0 0
1 0 0
1 0 0
0 0.00177005 0
0 0 0
0.035111 0 0
0.0658274 0 0
0.0929122 0 0
0.118441 0 0
0.143191 0 0
0.167468 0 0
0.191714 0 0
0.216114 0 0
0.241169 0 0
0.266896 0 0
0.294011 0 0
0.322438 0 0
0.352621 0 0
0.385412 0 0
0.420218 0 0
0.456718 0 0
0.495048 0 0
0.534798 0 0
0.576364 0 0
0.619287 0 0
0.663264 0 0
0.707683 0 0
0.752911 0 0
0.79794 0 0
0.842496 0 0
0.886198 0 0
0.928878 0 0
0.972946 0 0
1 0 0
1 0 0
1 0 0
0 0.0271763 0
0 0.0234989 0
0.0180667 0.0180667 0
0.0530556 0.0139467 0
0.0830854 0.0112001 0
0.110246 0.00943008 0
0.135958 0.00807202 0
0.160845 0.00689708 0
0.185443 0.00579843 0
0.210056 0.00468452 0
0.235187 0.0033875 0
0.261112 0.00202945 0
0.288121 0.000289921 0
0.31635 0 0
0.346624 0 0
0.37908 0 0
0.413535 0 0
0.450156 0 0
0.488426 0 0
0.528374 0 0
0.569635 0 0
0.612528 0 0
0.65655 0 0
0.701518 0 0
0.746715 0 0
0.791775 0 0
0.83624 0 0
0.88014 0 0
0.923095 0 0
0.9673 0 0
1 0 0
1 0 0
1 0 0
0 0.0512245 0
0 0.0485084 0
0.00468452 0.0444648 0
0.0402838 0.0402838 0
0.0722057 0.0370336 0
0.100954 0.034638 0
0.127794 0.0326543 0
0.153338 0.0310674 0
0.178576 0.0295872 0
0.203586 0.0281987 0
0.228916 0.0269474 0
0.254856 0.0252842 0
0.281743 0.0233616 0
0.309972 0.021088 0
0.340124 0.0182956 0
0.372442 0.0150301 0
0.407034 0.0111086 0
0.443381 0.00660716 0
0.481315 0.00167849 0
0.521202 0 0
0.562676 0 0
0.605707 0 0
0.649561 0 0
0.694362 0 0
0.739666 0 0
0.785 0 0
0.829953 0 0
0.874174 0 0
0.916823 0 0
0.96112 0 0
1 0 0
1 0 0
1 0 0
0 0.0742199 0
0 0.0719921 0
0 0.0688945 0
0.0298619 0.0652781 0
0.0619059 0.0619059 0
0.0916152 0.0590677 0
0.119341 0.0567636 0
0.145815 0.0547799 0
0.171481 0.0531167 0
0.197009 0.0515602 0
0.222568 0.0499123 0
0.248707 0.0480964 0
0.275456 0.046128 0
0.303716 0.0437476 0
0.3337 0.041001 0
0.365957 0.0376745 0
0.400504 0.0336004 0
0.436606 0.0291142 0
0.474662 0.0241245 0
0.514519 0.0186313 0
0.555978 0.0128481 0
0.598795 0.00665293 0
0.642878 4.57771e-05 0
0.687846 0 0
0.733272 0 0
0.778485 0 0
0.823804 0 0
0.868238 0 0
0.911025 0 0
0.955428 0 0
0.999802 0 0
1 0 0
1 0 0
0 0.0964981 0
0 0.0945296 0
0 0.0920577 0
0.0215 0.088838 0
0.0530251 0.0856641 0
0.0828107 0.0828107 0
0.111131 0.0802777 0
0.138064 0.0781872 0
0.164446 0.0763104 0
0.190173 0.0744945 0
0.216175 0.0726024 0
0.242435 0.0706798 0
0.269413 0.0685588 0
0.297719 0.066331 0
0.327443 0.0634928 0
0.359518 0.0600443 0
0.393851 0.0560006 0
0.430121 0.0514382 0
0.468315 0.0464485 0
0.507897 0.0411688 0
0.549401 0.0352331 0
0.592355 0.0289158 0
0.63653 0.0222782 0
0.681315 0.0155184 0
0.727001 0.00862135 0
0.772793 0.00170901 0
0.818204 0 0
0.862638 0 0
0.90631 0 0
0.950271 0 0
0.994904 0 0
1 0 0
1 0 0
0 0.118425 0
0 0.116609 0
0 0.11429 0
0.0148013 0.111421 0
0.0454566 0.108537 0
0.0748913 0.105837 0
0.103456 0.103456 0
0.130846 0.101137 0
0.157351 0.0990616 0
0.18352 0.0970626 0
0.209628 0.0951095 0
0.236088 0.0931106 0
0.263355 0.0910506 0
0.291691 0.0885481 0
0.321279 0.0857404 0
0.35317 0.0823072 0
0.387335 0.078294 0
0.423682 0.0737621 0
0.461738 0.0688792 0
0.501564 0.063386 0
0.543008 0.057496 0
0.585809 0.0512551 0
0.63003 0.0446326 0
0.675319 0.0378424 0
0.721218 0.0309453 0
0.766873 0.024033 0
0.812558 0.0171359 0
0.857572 0.0104372 0
0.901549 0.00404364 0
0.945693 0 0
0.990372 0 0
1 0 0
1 0 0
0 0.139788 0
0 0.138109 0
0 0.136065 0
0.00927749 0.13341 0
0.0390173 0.130785 0
0.0682841 0.128374 0
0.0962692 0.126009 0
0.123705 0.123705 0
0.1505 0.121553 0
0.176837 0.119524 0
0.203204 0.117479 0
0.229923 0.115557 0
0.257115 0.113344 0
0.285527 0.110796 0
0.315206 0.107942 0
0.346853 0.104585 0
0.381125 0.100771 0
0.417319 0.0962234 0
0.455299 0.091249 0
0.495201 0.0857557 0
0.536568 0.0798962 0
0.579599 0.0736858 0
0.62414 0.0672313 0
0.669413 0.0604105 0
0.715251 0.0534676 0
0.761471 0.0464637 0
0.807477 0.0395666 0
0.852705 0.03299 0
0.897063 0.0267491 0
0.941253 0.0204166 0
0.986236 0.0139315 0
1 0.00756847 0
1 0.00123598 0
0 0.160967 0
0 0.159365 0
0 0.157519 0
0.00447089 0.155215 0
0.0335546 0.152819 0
0.0621347 0.150408 0
0.090013 0.148104 0
0.117052 0.145983 0
0.143877 0.143877 0
0.170504 0.14197 0
0.196963 0.13994 0
0.223713 0.137819 0
0.250965 0.135607 0
0.279332 0.133104 0
0.308995 0.130282 0
0.340703 0.127138 0
0.374792 0.123171 0
0.410803 0.11873 0
0.448936 0.113756 0
0.488624 0.1084 0
0.530266 0.102525 0
0.573648 0.0964218 0
0.617899 0.0899367 0
0.663417 0.0831617 0
0.709697 0.0762188 0
0.756176 0.0692302 0
0.802258 0.0624247 0
0.848142 0.0558785 0
0.892912 0.0495308 0
0.937118 0.0433661 0
0.982376 0.0369421 0
1 0.0305943 0
1 0.0245365 0
0 0.182071 0
0 0.180499 0
0 0.178866 0
0 0.176761 0
0.0285344 0.174426 0
0.0565194 0.172244 0
0.0840467 0.170092 0
0.110994 0.168048 0
0.137682 0.166201 0
0.164218 0.164218 0
0.190677 0.162249 0
0.217502 0.160174 0
0.244862 0.157946 0
0.273228 0.155489 0
0.302907 0.152926 0
0.33434 0.149706 0
0.368353 0.145846 0
0.40444 0.141421 0
0.442527 0.136522 0
0.482429 0.13138 0
0.524163 0.125597 0
0.567224 0.119493 0
0.611933 0.112963 0
0.657664 0.106203 0
0.703914 0.099382 0
0.750912 0.0926528 0
0.797635 0.0857862 0
0.843763 0.079118 0
0.888655 0.0728466 0
0.933181 0.0667735 0
0.978775 0.0604715 0
1 0.0543984 0
1 0.0482338 0
0 0.203189 0
0 0.201846 0
0 0.200229 0
0 0.19823 0
0.0236667 0.196048 0
0.0512551 0.194003 0
0.0785229 0.192111 0
0.105379 0.190265 0
0.131685 0.188434 0
0.158099 0.186542 0
0.184604 0.184604 0
0.211307 0.18265 0
0.238895 0.180606 0
0.267338 0.178271 0
0.296788 0.175631 0
0.327977 0.172549 0
0.361791 0.168826 0
0.39791 0.164508 0
0.436164 0.159838 0
0.476005 0.154635 0
0.517784 0.148928 0
0.561028 0.142901 0
0.605936 0.136477 0
0.651682 0.129854 0
0.698589 0.123186 0
0.745724 0.11632 0
0.792645 0.109606 0
0.8392 0.103029 0
0.884886 0.0967269 0
0.929412 0.0907912 0
0.975525 0.0847639 0
1 0.0786755 0
1 0.0726787 0
0 0.224643 0
0 0.223209 0
0 0.221683 0
0 0.219837 0
0.0188296 0.217807 0
0.0462806 0.21593 0
0.0731365 0.214237 0
0.0995804 0.212482 0
0.125948 0.210727 0
0.152117 0.209033 0
0.178561 0.207218 0
0.205417 0.205417 0
0.232837 0.203464 0
0.261158 0.201221 0
0.290669 0.198672 0
0.321721 0.195758 0
0.355047 0.192233 0
0.391409 0.18819 0
0.42945 0.183551 0
0.469581 0.178393 0
0.511147 0.172869 0
0.554726 0.166857 0
0.59968 0.160739 0
0.646021 0.154223 0
0.693172 0.147478 0
0.740337 0.140764 0
0.787823 0.134035 0
0.834928 0.12752 0
0.881148 0.121553 0
0.92607 0.115831 0
0.972335 0.109712 0
1 0.103731 0
1 0.0979019 0
0 0.246235 0
0 0.244877 0
0 0.243427 0
0 0.241779 0
0.0138247 0.240009 0
0.041001 0.238224 0
0.0675364 0.236591 0
0.0938735 0.234958 0
0.120043 0.233356 0
0.146166 0.231846 0
0.172656 0.23032 0
0.19939 0.22858 0
0.226673 0.226673 0
0.254887 0.224582 0
0.284337 0.222187 0
0.315511 0.219501 0
0.348684 0.216312 0
0.384695 0.212268 0
0.42269 0.207767 0
0.462867 0.202762 0
0.504646 0.197391 0
0.54844 0.191684 0
0.5935 0.185595 0
0.64004 0.179126 0
0.687221 0.172595 0
0.73521 0.165942 0
0.783123 0.15935 0
0.830518 0.15314 0
0.877348 0.147066 0
0.92256 0.141527 0
0.969329 0.135668 0
1 0.129854 0
1 0.124163 0
0 0.268223 0
0 0.266957 0
0 0.265614 0
0 0.264286 0
0.00842298 0.262486 0
0.0354467 0.260807 0
0.0619669 0.259281 0
0.0880293 0.257893 0
0.114107 0.256489 0
0.140291 0.255161 0
0.16643 0.253727 0
0.193133 0.252171 0
0.220417 0.250462 0
0.248539 0.248539 0
0.277928 0.246387 0
0.30901 0.2439 0
0.342123 0.240818 0
0.377905 0.237079 0
0.415869 0.232746 0
0.455787 0.227955 0
0.498085 0.222873 0
0.541711 0.217319 0
0.587167 0.211337 0
0.633738 0.205066 0
0.681483 0.198581 0
0.729961 0.192142 0
0.778317 0.185916 0
0.826383 0.179675 0
0.873716 0.173693 0
0.919707 0.16817 0
0.966384 0.162661 0
1 0.15729 0
1 0.151965 0
0 0.290837 0
0 0.289631 0
0 0.288548 0
0 0.287251 0
0.00233463 0.285634 0
0.0293736 0.284047 0
0.0558022 0.282628 0
0.0819257 0.281575 0
0.107897 0.280339 0
0.133913 0.279088 0
0.160021 0.277806 0
0.186572 0.276417 0
0.21384 0.274907 0
0.242145 0.273381 0
0.271412 0.271412 0
0.30222 0.269032 0
0.335134 0.266163 0
0.370733 0.262669 0
0.408865 0.258671 0
0.449027 0.254276 0
0.491173 0.249195 0
0.534936 0.243778 0
0.580606 0.238025 0
0.627436 0.232059 0
0.6757 0.225834 0
0.724315 0.219669 0
0.773327 0.213367 0
0.822065 0.207324 0
0.86978 0.201694 0
0.916716 0.196323 0
0.963668 0.191165 0
1 0.185992 0
1 0.180926 0
0 0.314351 0
0 0.313283 0
0 0.312139 0
0 0.310964 0
0 0.309483 0
0.0224613 0.308095 0
0.0490272 0.307042 0
0.0750591 0.305898 0
0.100938 0.304845 0
0.126925 0.303777 0
0.15314 0.302708 0
0.179583 0.301579 0
0.206973 0.30042 0
0.235096 0.298924 0
0.264408 0.297185 0
0.29514 0.29514 0
0.327886 0.292561 0
0.363241 0.289357 0
0.401648 0.285664 0
0.441672 0.281453 0
0.483742 0.276753 0
0.527916 0.271534 0
0.573541 0.265995 0
0.621057 0.260441 0
0.669429 0.25452 0
0.718746 0.248447 0
0.768277 0.242344 0
0.817334 0.236515 0
0.866163 0.231052 0
0.913756 0.226307 0
0.961181 0.221424 0
1 0.216403 0
1 0.211566 0
0 0.338689 0
0 0.337758 0
0 0.336751 0
0 0.335744 0
0 0.334401 0
0.0146944 0.333303 0
0.0411688 0.33225 0
0.067277 0.331319 0
0.093019 0.33048 0
0.119005 0.329595 0
0.145525 0.328847 0
0.172137 0.327977 0
0.199313 0.32694 0
0.22742 0.325673 0
0.256687 0.324147 0
0.28748 0.322347 0
0.320363 0.320363 0
0.355566 0.317525 0
0.393591 0.31397 0
0.433829 0.309941 0
0.476036 0.305577 0
0.5205 0.300725 0
0.566644 0.295766 0
0.614298 0.290181 0
0.662882 0.284535 0
0.712764 0.278767 0
0.762737 0.273152 0
0.812848 0.267582 0
0.862257 0.262531 0
0.910658 0.257694 0
0.958419 0.253315 0
1 0.248737 0
1 0.244251 0
0 0.364202 0
0 0.363363 0
0 0.362509 0
0 0.361837 0
0 0.360739 0
0.00535592 0.35964 0
0.0318608 0.358724 0
0.0581826 0.357946 0
0.084062 0.357382 0
0.110277 0.356893 0
0.136584 0.356252 0
0.163302 0.35552 0
0.1906 0.354788 0
0.218845 0.353857 0
0.248173 0.352636 0
0.279133 0.351278 0
0.311818 0.349401 0
0.346975 0.346975 0
0.384985 0.343893 0
0.425483 0.340169 0
0.467658 0.33611 0
0.512306 0.331868 0
0.558892 0.327031 0
0.606806 0.321965 0
0.656214 0.316533 0
0.706065 0.311147 0
0.757183 0.305959 0
0.80795 0.300786 0
0.858091 0.295918 0
0.907362 0.29131 0
0.955413 0.28716 0
1 0.282841 0
1 0.27895 0
0 0.39086 0
0 0.390188 0
0 0.389563 0
0 0.389013 0
0 0.388128 0
0 0.387243 0
0.0216831 0.386542 0
0.0479286 0.385992 0
0.0741283 0.385809 0
0.100374 0.385489 0
0.126787 0.385138 0
0.153567 0.38468 0
0.18085 0.384192 0
0.209323 0.383703 0
0.23888 0.382971 0
0.26978 0.381857 0
0.302464 0.38027 0
0.337545 0.37821 0
0.37554 0.37554 0
0.416205 0.37258 0
0.459098 0.368933 0
0.503532 0.364889 0
0.550362 0.360342 0
0.598672 0.355657 0
0.648508 0.350759 0
0.699489 0.345953 0
0.750683 0.340871 0
0.801938 0.335897 0
0.852964 0.331182 0
0.902739 0.326909 0
0.951507 0.323003 0
1 0.319142 0
1 0.315175 0
0 0.418616 0
0 0.418326 0
0 0.417853 0
0 0.41735 0
0 0.416693 0
0 0.416083 0
0.0107576 0.415778 0
0.0374151 0.41561 0
0.0636149 0.415427 0
0.0896773 0.415412 0
0.116365 0.415366 0
0.143359 0.415335 0
0.171054 0.415305 0
0.199298 0.415167 0
0.228855 0.414694 0
0.259937 0.414008 0
0.292805 0.412985 0
0.327764 0.41146 0
0.366018 0.409323 0
0.406653 0.406653 0
0.449454 0.403525 0
0.49453 0.399954 0
0.541253 0.395972 0
0.590097 0.391516 0
0.640375 0.387182 0
0.691768 0.382406 0
0.743267 0.377707 0
0.795209 0.37293 0
0.846479 0.368414 0
0.897475 0.364462 0
0.946639 0.360967 0
0.997284 0.357092 0
1 0.353368 0
0 0.447761 0
0 0.447501 0
0 0.447288 0
0 0.447089 0
0 0.446754 0
0 0.446403 0
0 0.446372 0
0.0260014 0.446464 0
0.0524758 0.446677 0
0.0788281 0.446983 0
0.105486 0.447242 0
0.13286 0.447791 0
0.160815 0.448081 0
0.189273 0.448356 0
0.218875 0.448325 0
0.249897 0.448035 0
0.28304 0.447517 0
0.318456 0.446693 0
0.356268 0.445121 0
0.397131 0.442741 0
0.439963 0.439963 0
0.485084 0.436744 0
0.532189 0.433371 0
0.581155 0.429496 0
0.631662 0.425086 0
0.683055 0.4206 0
0.735454 0.416022 0
0.787549 0.411719 0
0.839963 0.407584 0
0.891325 0.403662 0
0.94136 0.400153 0
0.991958 0.396674 0
1 0.39321 0
0 0.478126 0
0 0.478096 0
0 0.47808 0
0 0.478172 0
0 0.478462 0
0 0.47837 0
0 0.478508 0
0.0143282 0.478828 0
0.041062 0.479423 0
0.0676738 0.480293 0
0.0949416 0.481209 0
0.12224 0.48188 0
0.15021 0.482567 0
0.179171 0.483207 0
0.208957 0.483818 0
0.240269 0.484138 0
0.27332 0.484169 0
0.308598 0.483513 0
0.346395 0.482368 0
0.387167 0.480537 0
0.430228 0.478111 0
0.475364 0.475364 0
0.52285 0.47219 0
0.571633 0.468666 0
0.622507 0.464668 0
0.67422 0.460472 0
0.72697 0.456092 0
0.779965 0.452216 0
0.832624 0.448249 0
0.884398 0.444572 0
0.935286 0.441199 0
0.986023 0.437949 0
1 0.434852 0
0 0.50985 0
0 0.510185 0
0 0.510506 0
0 0.511086 0
0 0.511452 0
0 0.511818 0
0 0.512398 0
0.00259403 0.513161 0
0.0295415 0.514092 0
0.0567941 0.515435 0
0.0839704 0.516732 0
0.111666 0.517983 0
0.139986 0.519081 0
0.168948 0.520088 0
0.199023 0.521324 0
0.230533 0.521965 0
0.263523 0.522286 0
0.298528 0.522072 0
0.336431 0.521202 0
0.376928 0.519875 0
0.420386 0.518135 0
0.465599 0.515679 0
0.512734 0.512734 0
0.561883 0.509407 0
0.612558 0.505821 0
0.665019 0.502022 0
0.718105 0.498283 0
0.771572 0.494209 0
0.824399 0.490486 0
0.877012 0.486961 0
0.928283 0.483925 0
0.979706 0.481102 0
1 0.478187 0
0 0.543069 0
0 0.543938 0
0 0.544762 0
0 0.545586 0
0 0.546334 0
0 0.547005 0
0 0.547967 0
0 0.549523 0
0.0186923 0.550927 0
0.0458839 0.552422 0
0.0732738 0.554009 0
0.101122 0.555611 0
0.129534 0.557198 0
0.159075 0.558862 0
0.188998 0.560143 0
0.220279 0.561166 0
0.253468 0.561822 0
0.288518 0.562112 0
0.326146 0.561761 0
0.366979 0.560952 0
0.409857 0.55938 0
0.455329 0.557275 0
0.502647 0.554788 0
0.551827 0.551827 0
0.602762 0.548577 0
0.655253 0.545281 0
0.708782 0.541573 0
0.762417 0.537911 0
0.81622 0.534249 0
0.868849 0.531029 0
0.921324 0.528405 0
0.972793 0.52578 0
1 0.522957 0
0 0.578225 0
0 0.579293 0
0 0.580377 0
0 0.581674 0
0 0.583001 0
0 0.584085 0
0 0.585641 0
0 0.587213 0
0.00753796 0.589029 0
0.0352178 0.590906 0
0.0625925 0.59292 0
0.0905318 0.594797 0
0.119463 0.596948 0
0.14876 0.598795 0
0.179126 0.600427 0
0.210315 0.601877 0
0.24329 0.602899 0
0.278752 0.6038 0
0.31632 0.603922 0
0.356786 0.603326 0
0.399634 0.602152 0
0.444755 0.600427 0
0.492332 0.598199 0
0.542016 0.595987 0
0.593072 0.593072 0
0.645487 0.589807 0
0.698894 0.586389 0
0.75317 0.582895 0
0.807462 0.579553 0
0.861158 0.576852 0
0.913649 0.574075 0
0.965194 0.571664 0
1 0.569039 0
0 0.614832 0
0 0.616358 0
0 0.617853 0
0 0.619455 0
0 0.621225 0
0 0.622873 0
0 0.624552 0
0 0.626444 0
0 0.628473 0
0.0245212 0.630701 0
0.0523995 0.633341 0
0.0807355 0.635706 0
0.109346 0.637919 0
0.138796 0.639994 0
0.169116 0.642039 0
0.200488 0.643946 0
0.23386 0.64567 0
0.268833 0.646708 0
0.306401 0.64712 0
0.346746 0.646937 0
0.38938 0.646296 0
0.434684 0.644938 0
0.482277 0.643442 0
0.531868 0.641123 0
0.583017 0.638529 0
0.635676 0.635676 0
0.689311 0.632547 0
0.743801 0.629252 0
0.798505 0.62649 0
0.85272 0.62356 0
0.905425 0.621134 0
0.957336 0.618936 0
1 0.616419 0
0 0.652842 0
0 0.654704 0
0 0.656626 0
0 0.658732 0
0 0.660777 0
0 0.662593 0
0 0.664607 0
0 0.666911 0
0 0.669291 0
0.0146181 0.671977 0
0.0425727 0.6748 0
0.0709392 0.677485 0
0.0999008 0.68011 0
0.129335 0.682612 0
0.159762 0.684916 0
0.191455 0.68748 0
0.224445 0.689387 0
0.259556 0.690822 0
0.296834 0.691676 0
0.337163 0.691783 0
0.380133 0.691661 0
0.425055 0.690974 0
0.472541 0.689509 0
0.521813 0.687587 0
0.573236 0.685191 0
0.625803 0.682628 0
0.68011 0.68011 0
0.734661 0.677256 0
0.789563 0.674235 0
0.843809 0.671504 0
0.897459 0.669047 0
0.949264 0.667216 0
1 0.665263 0
0 0.692058 0
0 0.694179 0
0 0.696666 0
0 0.699046 0
0 0.701381 0
0 0.703456 0
0 0.70576 0
0 0.708431 0
0 0.711452 0
