modules/luts/cube_folder/Deep.CUBE
TITLE "Generated by Resolve"
LUT_3D_SIZE 5
0 0 0
0.196185 0 0
0.425162 0 0
0.758587 0 0
1 0 0
0 0.160967 0
0.143877 0.143877 0
0.374792 0.123171 0
0.709697 0.0762188 0
1 0.0245365 0
0 0.338689 0
0.093019 0.33048 0
0.320363 0.320363 0
0.662882 0.284535 0
1 0.244251 0
0 0.578225 0
0.00753796 0.589029 0
0.24329 0.602899 0
0.593072 0.593072 0
1 0.569039 0
0 0.901976 0
0 0.933745 0
0.191791 0.968109 0
0.531991 0.978393 0
0.963409 0.963409 0
0 0 0.204135
0.191714 0 0.191714
0.430182 0 0.155383
0.766247 0 0.0985428
1 0 0.0413062
0 0.155322 0.155322
0.138048 0.138018 0.138064
0.39202 0.113191 0.113191
0.726848 0.0679637 0.0679637
1 0.0186313 0.0186313
0 0.337469 0.0966812
0.0761578 0.333654 0.0761578
0.320958 0.320958 0.06981
0.682963 0.282506 0.0553597
1 0.244602 0.0305943
0 0.583185 0
0.0012665 0.59855 0.0012665
0.24007 0.615 0.0195926
0.603418 0.603418 0.0299992
1 0.577707 0.0296941
0 0.914397 0
0 0.948714 0
0.193668 0.985153 0
0.534783 0.995331 0.00869764
0.977111 0.977111 0.0106508
0 0 0.453086
0.169635 0 0.449897
0.411032 0 0.411032
0.757565 0 0.336706
1 0 0.26508
0 0.143603 0.404593
0.129015 0.129015 0.41503
0.381109 0.105913 0.381109
0.731807 0.0605478 0.301472
1 0.0131838 0.236408
0 0.33051 0.33051
0.0734722 0.328542 0.328542
0.318547 0.318608 0.318486
0.713893 0.27602 0.27602
1 0.243793 0.243793
0 0.58584 0.215396
0.00140383 0.605356 0.223499
0.229267 0.629236 0.229267
0.614466 0.614466 0.230457
1 0.584344 0.235416
0 0.925628 0.138796
0 0.962814 0.165026
0.194003 1 0.194003
0.530999 1 0.207218
0.990784 0.990784 0.205661
0 0 0.826673
0.144747 0 0.827329
0.375219 0 0.799786
0.723888 0 0.723888
1 0 0.639445
0 0.124147 0.780118
0.11249 0.11249 0.78938
0.340108 0.0952316 0.775952
0.698131 0.0482795 0.698131
1 0 0.610895
0 0.311604 0.705333
0.0757 0.308248 0.722042
0.302556 0.302556 0.750713
0.697353 0.264836 0.697353
1 0.234424 0.616556
0 0.575784 0.575784
0.00740063 0.596231 0.596231
0.228489 0.623041 0.623041
0.612299 0.612207 0.612406
1 0.576303 0.576303
0 0.925704 0.477058
0 0.965133 0.502464
0.191897 1 0.52282
0.506539 1 0.506539
0.998245 0.998245 0.479591
0 0 1
0.122377 0 1
0.342626 0 1
0.684474 0 1
1 0 1
0 0.104189 1
0.0944381 0.0944381 1
0.309545 0.0810101 1
0.654978 0.0367132 1
1 0 1
0 0.290761 1
0.0692912 0.288991 1
0.289082 0.289082 1
0.650736 0.261219 1
1 0.226108 1
0 0.559869 1
0.0132448 0.580606 1
0.241321 0.605051 1
0.599664 0.599664 1
1 0.565301 1
0 0.916732 0.916732
0 0.9561 0.9561
0.19707 0.998093 0.998093
0.49752 1 1
0.986664 0.986664 0.986664
