modules/luts/cube_folder/Prime.CUBE
TITLE "Generated by Resolve"
LUT_3D_SIZE 33
0.182055 0.174762 0.176913
0.18407 0.174945 0.177295
0.186511 0.17499 0.177584
0.190036 0.174563 0.177569
0.195834 0.173495 0.177218
0.204929 0.171603 0.176501
0.216419 0.169085 0.175448
0.230182 0.165988 0.174121
0.246571 0.162127 0.172381
0.265568 0.157504 0.170245
0.287205 0.152148 0.167712
0.311315 0.145998 0.164736
0.337438 0.139269 0.161456
0.365728 0.131914 0.157839
0.396597 0.123827 0.153857
0.429725 0.115175 0.149584
0.464469 0.106142 0.145144
0.499886 0.0969711 0.140658
0.535729 0.0877241 0.136141
0.570596 0.0788281 0.131838
0.604059 0.0703441 0.127764
0.636164 0.0624247 0.124041
0.666545 0.0552377 0.12079
0.695308 0.0487984 0.118044
0.722576 0.0428321 0.115572
0.748669 0.0372778 0.113359
0.774258 0.0321813 0.111467
0.799344 0.0277256 0.110109
0.824155 0.0238651 0.10927
0.850874 0.0196231 0.108278
0.877775 0.0154726 0.107393
0.904936 0.0114748 0.106676
0.932418 0.00770581 0.106188
0.181827 0.177218 0.176547
0.183749 0.17731 0.176822
0.186191 0.17734 0.177111
0.189822 0.177035 0.177203
0.195758 0.176104 0.177005
0.204913 0.174273 0.176333
0.216403 0.171756 0.17528
0.230091 0.168582 0.173877
0.246372 0.164614 0.17203
0.265248 0.159884 0.169787
0.286809 0.154421 0.167163
0.310887 0.148257 0.164172
0.337041 0.141573 0.160922
0.365454 0.13434 0.157427
0.39649 0.126421 0.153597
0.42977 0.117906 0.149477
0.464637 0.10898 0.145144
0.500237 0.0999924 0.140841
0.536355 0.0910353 0.136629
0.571664 0.0825666 0.132753
0.605661 0.0746471 0.129229
0.638315 0.0672618 0.12604
0.669123 0.0604868 0.123232
0.69836 0.0545357 0.120974
0.726452 0.0493935 0.11931
0.753613 0.0449073 0.118135
0.780163 0.0407721 0.11722
0.806012 0.0370794 0.116625
0.831342 0.0337377 0.116304
0.858671 0.0301061 0.115938
0.886259 0.0266423 0.115724
0.914 0.0232395 0.115602
0.941985 0.0199741 0.115602
0.182086 0.17966 0.176684
0.184085 0.179812 0.177035
0.186542 0.179873 0.17734
0.190143 0.179522 0.177417
0.196002 0.1785 0.177111
0.205035 0.176577 0.176333
0.216419 0.173938 0.175174
0.230015 0.170687 0.173693
0.246326 0.166735 0.171862
0.265278 0.162081 0.169696
0.286946 0.156741 0.167178
0.311208 0.150759 0.16437
0.337514 0.144213 0.161273
0.366033 0.137087 0.1579
0.397253 0.129351 0.154253
0.430915 0.121233 0.150515
0.4663 0.112825 0.1467
0.502419 0.104356 0.142916
0.538979 0.0958419 0.139132
0.574716 0.0877852 0.135683
0.609415 0.0805676 0.13286
0.642954 0.0740826 0.130571
0.674815 0.0683604 0.128801
0.704921 0.0632639 0.127413
0.733654 0.0587625 0.12639
0.761364 0.0548409 0.12578
0.788602 0.0513924 0.125566
0.815076 0.0483101 0.125582
0.84097 0.0455329 0.125811
0.868818 0.0424201 0.125948
0.896941 0.0394903 0.126284
0.925277 0.0366827 0.126741
0.953811 0.0339818 0.127321
0.182284 0.182177 0.176745
0.184176 0.182239 0.177005
0.186496 0.182147 0.177172
0.190021 0.181735 0.177172
0.195834 0.180667 0.176822
0.204883 0.178744 0.176059
0.216373 0.176226 0.175006
0.230137 0.173129 0.173678
0.246571 0.169314 0.171984
0.265675 0.164813 0.169955
0.287495 0.159609 0.167605
0.311971 0.153841 0.165011
0.338689 0.147707 0.162325
0.367803 0.141176 0.159533
0.399542 0.133974 0.15642
0.433585 0.126223 0.153048
0.469444 0.118288 0.149722
0.506294 0.110552 0.146654
0.543969 0.103136 0.143984
0.580728 0.0961318 0.141573
0.616129 0.0896162 0.139452
0.650248 0.0836957 0.137743
0.682689 0.0785687 0.136553
0.713481 0.0741588 0.135836
0.74284 0.0702678 0.135439
0.771069 0.066865 0.135363
0.798779 0.0638895 0.135607
0.825788 0.0613413 0.136156
0.852216 0.0591135 0.136934
0.880598 0.0565347 0.137606
0.9093 0.0541848 0.138521
0.938308 0.0520485 0.139651
0.967529 0.0500191 0.140902
0.182315 0.184253 0.176669
0.184207 0.184314 0.176928
0.186587 0.184283 0.177142
0.190219 0.183978 0.177249
0.196201 0.183093 0.177081
0.205402 0.181308 0.176455
0.216999 0.178897 0.175525
0.23093 0.175967 0.17435
0.2477 0.172488 0.172992
0.267262 0.168429 0.171435
0.289616 0.16379 0.169619
0.31458 0.158511 0.167514
0.341756 0.152834 0.165286
0.371389 0.146807 0.162997
0.403983 0.140444 0.160739
0.439078 0.133761 0.158434
0.475868 0.126772 0.156039
0.513436 0.119738 0.153689
0.551675 0.112902 0.151583
0.589044 0.106493 0.149783
0.625132 0.100664 0.148333
0.659831 0.0953231 0.147204
0.692775 0.0907149 0.146532
0.724102 0.0868086 0.146334
0.75404 0.0835126 0.146532
0.782834 0.0806744 0.147005
0.811093 0.0782483 0.147799
0.838712 0.0763256 0.148974
0.865827 0.0747845 0.150439
0.894881 0.0728618 0.151781
0.924239 0.0711833 0.153353
0.953872 0.0696574 0.155108
0.983719 0.0682536 0.15697
0.181933 0.186816 0.176135
0.183978 0.18703 0.176532
0.186511 0.187152 0.176913
0.19028 0.186969 0.177142
0.196445 0.186267 0.177157
0.206043 0.184894 0.176944
0.218173 0.183017 0.176532
0.232639 0.180621 0.175906
0.249821 0.177539 0.17496
0.26981 0.173922 0.173816
0.292897 0.170001 0.172732
0.318822 0.165682 0.171588
0.347005 0.161013 0.170367
0.377462 0.155825 0.168933
0.410681 0.150088 0.167285
0.446357 0.143969 0.165545
0.483803 0.137636 0.163806
0.521996 0.131243 0.162097
0.560723 0.12488 0.160479
0.598688 0.119081 0.159258
0.635325 0.113787 0.158373
0.670604 0.109041 0.157824
0.704051 0.104921 0.157641
0.735988 0.10164 0.158068
0.766491 0.098909 0.158816
0.795926 0.0967117 0.159945
0.824826 0.0949264 0.161379
0.853117 0.0936599 0.163226
0.880949 0.0928359 0.165393
0.910689 0.0916152 0.167422
0.940719 0.0905928 0.16968
0.971115 0.0898451 0.172198
1 0.0890822 0.174701
0.180163 0.190646 0.174044
0.182452 0.191104 0.174701
0.185397 0.191638 0.175494
0.189731 0.19202 0.176287
0.196429 0.191867 0.176852
0.206409 0.19086 0.177005
0.219028 0.189471 0.177081
0.234257 0.187839 0.177218
0.252491 0.185824 0.177325
0.273564 0.183276 0.177264
0.297322 0.180041 0.176867
0.323827 0.176287 0.176287
0.352605 0.172213 0.175662
0.383749 0.167712 0.174899
0.417578 0.162585 0.173861
0.453758 0.156985 0.172656
0.491722 0.151156 0.17142
0.530495 0.145342 0.170291
0.569772 0.139544 0.169207
0.608179 0.134173 0.168444
0.645411 0.129473 0.168154
0.681376 0.125414 0.168276
0.715541 0.122011 0.168826
0.748074 0.119326 0.169848
0.779339 0.117357 0.171374
0.809537 0.115923 0.173251
0.839048 0.114733 0.175296
0.867948 0.114092 0.177752
0.896468 0.113954 0.180606
0.926909 0.11342 0.183352
0.95761 0.113085 0.186267
0.988693 0.113008 0.189456
1 0.112917 0.192645
0.176287 0.197284 0.169604
0.179049 0.198215 0.170718
0.182467 0.199222 0.171984
0.187366 0.200168 0.173342
0.194919 0.200855 0.174762
0.205966 0.200931 0.175982
0.219501 0.200443 0.176974
0.235386 0.199481 0.177783
0.254276 0.198108 0.178531
0.275898 0.196139 0.179034
0.300343 0.193561 0.179294
0.327413 0.190387 0.179294
0.356695 0.186816 0.179171
0.388373 0.182849 0.178943
0.422782 0.178302 0.1785
0.459525 0.173266 0.177844
0.498039 0.167987 0.177172
0.537438 0.162799 0.176669
0.577401 0.157687 0.176272
0.61648 0.152987 0.176165
0.654353 0.148928 0.176516
0.690883 0.145418 0.177218
0.72575 0.142733 0.17847
0.758953 0.140734 0.180148
0.790906 0.139437 0.182361
0.821805 0.138705 0.184939
0.852094 0.138308 0.187762
0.881621 0.138277 0.190845
0.910765 0.138766 0.194339
0.941863 0.138918 0.197726
0.973251 0.139223 0.201312
1 0.139788 0.205158
1 0.140276 0.208911
0.171374 0.206882 0.163897
0.175128 0.208804 0.166018
0.179538 0.210803 0.168276
0.185245 0.212558 0.170443
0.193408 0.213855 0.172457
0.20502 0.214496 0.174258
0.219226 0.214679 0.175906
0.235767 0.214359 0.177356
0.25507 0.213413 0.178546
0.277272 0.212009 0.179614
0.302251 0.209979 0.180423
0.32987 0.207355 0.180972
0.35967 0.204303 0.181369
0.391959 0.200931 0.18175
0.426993 0.197024 0.181918
0.464424 0.19266 0.181949
0.503578 0.188037 0.181918
0.543648 0.18352 0.182071
0.584314 0.17911 0.182391
0.624079 0.175097 0.182986
0.662638 0.171725 0.184024
0.699992 0.169039 0.185534
0.735409 0.166888 0.187335
0.769299 0.165576 0.189715
0.801923 0.164965 0.192584
0.833509 0.16492 0.19585
0.864439 0.165148 0.199329
0.89456 0.165728 0.202991
0.924407 0.166903 0.207187
0.956115 0.167666 0.211185
0.988098 0.168582 0.215366
1 0.169726 0.219776
1 0.170733 0.224063
0.167041 0.220508 0.158587
0.171359 0.222995 0.161257
0.176364 0.225589 0.164111
0.182757 0.228031 0.166964
0.191516 0.229923 0.169589
0.203647 0.231083 0.171893
0.218372 0.231785 0.174075
0.235477 0.232044 0.176104
0.25536 0.231678 0.177859
0.27805 0.230747 0.1794
0.303639 0.229328 0.180819
0.331975 0.22742 0.182086
0.362463 0.225055 0.183169
0.395361 0.222309 0.184176
0.431128 0.21912 0.185061
0.469261 0.215457 0.185794
0.508965 0.211383 0.186313
0.549706 0.207538 0.187152
0.591073 0.203815 0.188159
0.631525 0.200519 0.189456
0.670771 0.197818 0.191165
0.708812 0.195819 0.193362
0.744869 0.194324 0.195804
0.779416 0.193668 0.198856
0.812696 0.193713 0.20238
0.844907 0.194278 0.206271
0.876326 0.19501 0.210239
0.907149 0.196277 0.214603
0.937545 0.198016 0.219348
0.969802 0.199298 0.223896
1 0.200732 0.228565
1 0.202213 0.233326
1 0.203784 0.238163
0.161822 0.2374 0.152163
0.166705 0.240452 0.155398
0.172213 0.243549 0.158755
0.179141 0.246525 0.162158
0.188495 0.249012 0.165362
0.201175 0.250721 0.168215
0.216449 0.251987 0.170947
0.234211 0.252872 0.173617
0.25478 0.253193 0.176059
0.277989 0.252811 0.178149
0.304234 0.252033 0.180209
0.333257 0.250813 0.182162
0.364462 0.249149 0.183963
0.398032 0.247074 0.185626
0.43447 0.244572 0.187213
0.47332 0.241627 0.188647
0.51371 0.238239 0.189853
0.555108 0.235035 0.191333
0.597147 0.232013 0.193042
0.63827 0.229374 0.194995
0.678172 0.227329 0.19736
0.716793 0.225925 0.200153
0.753521 0.225086 0.20325
0.788678 0.225025 0.206897
0.822538 0.22565 0.211002
0.855283 0.226764 0.215442
0.88716 0.227939 0.219837
0.918532 0.229786 0.224781
0.949401 0.231968 0.229984
0.982116 0.233722 0.235004
1 0.235706 0.240223
1 0.237705 0.245502
1 0.24004 0.251118
0.155383 0.25716 0.144289
0.16083 0.260792 0.148104
0.166888 0.264439 0.151995
0.174395 0.267979 0.155962
0.184405 0.271138 0.159838
0.197772 0.273518 0.163378
0.213687 0.275441 0.166766
0.232105 0.276997 0.170092
0.253391 0.278019 0.173251
0.277424 0.278447 0.17615
0.304356 0.27837 0.178897
0.333928 0.277684 0.181399
0.36582 0.276722 0.183886
0.400076 0.275334 0.186236
0.437201 0.273503 0.188495
0.476707 0.271244 0.190616
0.517739 0.268467 0.192447
0.559808 0.265949 0.194598
0.602487 0.263554 0.196933
0.644221 0.261524 0.199496
0.684718 0.26009 0.202472
0.723766 0.259098 0.205692
0.761151 0.25893 0.209461
0.796826 0.259388 0.213611
0.831174 0.260502 0.218204
0.864363 0.262058 0.223102
0.896712 0.263722 0.227985
0.928679 0.266133 0.233478
0.960174 0.268971 0.239338
0.993576 0.271412 0.245029
1 0.274022 0.250919
1 0.276677 0.25684
1 0.279637 0.263066
0.147921 0.280201 0.135164
0.15407 0.28452 0.139666
0.160784 0.288823 0.144228
0.168948 0.293034 0.148852
0.179644 0.29688 0.153414
0.193591 0.29984 0.157519
0.210178 0.302419 0.161578
0.229267 0.304662 0.165591
0.25127 0.306386 0.169451
0.275975 0.3075 0.173037
0.303578 0.308095 0.176471
0.333852 0.308125 0.179675
0.3664 0.307805 0.182803
0.401297 0.307073 0.185809
0.439063 0.305882 0.188708
0.47921 0.304234 0.191455
0.520821 0.302052 0.193866
0.563485 0.30013 0.196628
0.606714 0.298283 0.199512
0.648981 0.296788 0.202609
0.689982 0.295857 0.206073
0.729488 0.295323 0.209751
0.767346 0.295613 0.213977
0.80354 0.296605 0.218662
0.838483 0.298299 0.22385
0.872221 0.300404 0.229282
0.905364 0.302861 0.234958
0.937987 0.305928 0.241138
0.970108 0.309392 0.247608
1 0.312383 0.253834
1 0.31545 0.260166
1 0.318868 0.266865
1 0.322347 0.27361
0.140032 0.306386 0.125414
0.146868 0.311391 0.130602
0.154284 0.316411 0.135882
0.163119 0.321279 0.141176
0.174517 0.325811 0.146426
0.189288 0.32961 0.151369
0.206424 0.332723 0.155962
0.226184 0.335653 0.160647
0.248859 0.338064 0.165179
0.274235 0.339834 0.169436
0.30251 0.341085 0.173526
0.333364 0.341695 0.17731
0.366552 0.342031 0.181094
0.40206 0.341894 0.18471
0.440406 0.341299 0.18819
0.481041 0.340139 0.191424
0.523217 0.338521 0.1944
0.566369 0.337087 0.19765
0.610056 0.335698 0.200992
0.652796 0.334676 0.204562
0.694347 0.334295 0.208576
0.734478 0.334371 0.212879
0.772992 0.335332 0.217777
0.809873 0.337011 0.223148
0.845472 0.339361 0.228992
0.879698 0.341955 0.234897
0.913558 0.345144 0.241291
0.946777 0.348806 0.248066
0.979446 0.352804 0.25507
1 0.356115 0.261646
1 0.359869 0.26865
1 0.363729 0.275792
1 0.367605 0.282948
0.132052 0.335988 0.115389
0.139483 0.341573 0.121172
0.147601 0.347295 0.127138
0.157107 0.35285 0.13312
0.169192 0.358053 0.13904
0.184649 0.362539 0.144671
0.202411 0.366293 0.149905
0.222843 0.369863 0.155245
0.246128 0.3729 0.160403
0.272129 0.375296 0.16527
0.300984 0.377142 0.169955
0.332403 0.378302 0.174289
0.366125 0.379171 0.178607
0.402152 0.379553 0.182742
0.440986 0.379431 0.186709
0.481941 0.378622 0.19028
0.524712 0.3776 0.193851
0.56846 0.376745 0.197681
0.612802 0.376013 0.201678
0.656214 0.375662 0.205921
0.698207 0.375723 0.210391
0.739178 0.376654 0.215534
0.778317 0.378225 0.221042
0.815808 0.380499 0.227024
0.851713 0.383185 0.233188
0.886732 0.386542 0.239872
0.921111 0.390249 0.246799
0.954803 0.394385 0.254032
0.98761 0.39855 0.261189
1 0.402518 0.268437
1 0.406638 0.275807
1 0.410803 0.283253
1 0.414755 0.290486
0.12372 0.368902 0.104799
0.131762 0.375113 0.111208
0.140551 0.381491 0.11783
0.150713 0.387701 0.124468
0.163439 0.393561 0.131044
0.179416 0.398566 0.137194
0.197879 0.403006 0.143114
0.218891 0.407172 0.149035
0.242741 0.410758 0.154757
0.269261 0.413672 0.160143
0.298512 0.41593 0.16524
0.33048 0.417639 0.170123
0.36466 0.418967 0.174899
0.401221 0.419883 0.179568
0.440665 0.420371 0.184131
0.482231 0.420157 0.188312
0.525734 0.419867 0.192615
0.570138 0.419684 0.197116
0.615091 0.419562 0.201724
0.658885 0.419577 0.206332
0.701701 0.420478 0.211643
0.743236 0.421973 0.217319
0.782895 0.424063 0.223377
0.820829 0.42678 0.229786
0.857252 0.429969 0.236469
0.892668 0.433753 0.243565
0.927459 0.437842 0.250889
0.96144 0.442283 0.258427
0.994598 0.446769 0.265919
1 0.451011 0.273411
1 0.455344 0.280995
1 0.459663 0.288594
1 0.463645 0.295857
0.114946 0.405005 0.0935836
0.123644 0.411872 0.100633
0.133043 0.41886 0.107881
0.143816 0.425681 0.115114
0.157107 0.432105 0.122271
0.173526 0.437537 0.128847
0.192599 0.442603 0.135378
0.214099 0.447257 0.141802
0.238407 0.451301 0.147967
0.2654 0.454688 0.153857
0.295109 0.457389 0.15938
0.32781 0.459846 0.165011
0.362676 0.461845 0.170459
0.399908 0.463447 0.175799
0.439872 0.464454 0.180896
0.482155 0.464958 0.185794
0.526284 0.465293 0.190723
0.571267 0.46569 0.195789
0.616648 0.46598 0.200839
0.661067 0.466636 0.206073
0.704387 0.468025 0.211856
0.746334 0.469947 0.21799
0.786297 0.472328 0.224323
0.824521 0.475349 0.231022
0.861463 0.479057 0.238224
0.897169 0.483116 0.245609
0.932189 0.487465 0.253178
0.96614 0.491844 0.26067
0.999649 0.496696 0.268528
1 0.501045 0.276112
1 0.505409 0.283742
1 0.509728 0.291341
1 0.513649 0.298543
0.106538 0.443702 0.0825971
0.115923 0.451255 0.0903334
0.125856 0.458778 0.0981155
0.137133 0.466102 0.105852
0.150896 0.473014 0.113481
0.167758 0.478874 0.1205
0.187335 0.484459 0.12755
0.20943 0.489693 0.134554
0.234379 0.494392 0.141375
0.261875 0.498268 0.147738
0.292409 0.501808 0.154116
0.325765 0.504906 0.160388
0.361242 0.50753 0.166445
0.399069 0.509712 0.172381
0.439475 0.511162 0.17792
0.482414 0.512322 0.183459
0.527047 0.513176 0.188907
0.572503 0.514046 0.194461
0.618158 0.514611 0.199771
0.663111 0.515801 0.205554
0.706798 0.51754 0.211704
0.749065 0.519783 0.218143
0.789136 0.522286 0.224582
0.827726 0.525673 0.231678
0.864836 0.529534 0.239033
0.900664 0.53373 0.24654
0.93576 0.538155 0.25417
0.969726 0.54255 0.261692
1 0.547387 0.26952
1 0.551659 0.277058
1 0.555871 0.284535
1 0.560006 0.29192
1 0.563867 0.299062
0.0991073 0.484611 0.0725261
0.10898 0.492653 0.080766
0.119387 0.500648 0.0890059
0.131197 0.508522 0.0972915
0.145525 0.515969 0.105455
0.163104 0.52256 0.113222
0.183352 0.528817 0.120928
0.206104 0.534707 0.128603
0.231693 0.540032 0.136049
0.259739 0.544472 0.142962
0.290913 0.548653 0.149981
0.324804 0.552285 0.156786
0.3608 0.555428 0.163378
0.398886 0.55787 0.169558
0.439979 0.560006 0.175799
0.483345 0.561578 0.18175
0.528374 0.562829 0.187594
0.573892 0.56376 0.19321
0.620096 0.564889 0.199069
0.665324 0.566339 0.205112
0.709209 0.568292 0.211475
0.751492 0.570535 0.217929
0.791791 0.573266 0.224598
0.830442 0.576715 0.231739
0.867552 0.580591 0.239109
0.903349 0.584741 0.246586
0.938354 0.589075 0.254139
0.972137 0.593301 0.261463
1 0.597925 0.269093
1 0.601938 0.276356
1 0.605859 0.283543
1 0.609644 0.290593
1 0.613291 0.29752
0.0937972 0.527062 0.0645914
0.104295 0.535744 0.0734722
0.115389 0.544411 0.0823987
0.127871 0.552956 0.091371
0.142672 0.560876 0.100008
0.161013 0.568246 0.108522
0.181903 0.575113 0.116854
0.205234 0.581598 0.125109
0.231083 0.587182 0.13283
0.259892 0.592401 0.14052
0.291569 0.597055 0.148013
0.325887 0.601129 0.155261
0.36202 0.60441 0.16199
0.400748 0.607492 0.168811
0.442161 0.609949 0.175357
0.485786 0.611811 0.181598
0.53106 0.613275 0.187671
0.576761 0.614389 0.193469
0.623087 0.615656 0.199451
0.668421 0.617197 0.2056
0.712337 0.619181 0.211994
0.754528 0.621363 0.218357
0.794858 0.624094 0.225055
0.833371 0.62742 0.232074
0.870314 0.631113 0.239261
0.905867 0.635035 0.246494
0.940597 0.639078 0.253773
0.974365 0.64329 0.261082
1 0.647486 0.268269
1 0.65095 0.274998
1 0.65449 0.281788
1 0.657893 0.288457
1 0.661128 0.294987
0.0918441 0.571267 0.0601358
0.102998 0.580591 0.0696574
0.114687 0.589883 0.0791943
0.127626 0.598871 0.0885939
0.14313 0.607492 0.0979324
0.162005 0.615396 0.106996
0.183383 0.622766 0.115831
0.207019 0.629541 0.124376
0.233448 0.635721 0.132677
0.262669 0.641321 0.140764
0.294682 0.646342 0.148623
0.329183 0.650584 0.156039
0.365713 0.654261 0.163165
0.404654 0.657557 0.170199
0.446235 0.660182 0.176913
0.489982 0.66215 0.183276
0.535149 0.663539 0.189258
0.581033 0.66482 0.195224
0.627344 0.666056 0.20119
0.672587 0.667521 0.207248
0.71635 0.669367 0.213504
0.758572 0.671534 0.219867
0.798428 0.673838 0.226108
0.836652 0.67686 0.232837
0.873259 0.680232 0.239689
0.908492 0.683818 0.246601
0.94287 0.68751 0.253513
0.976242 0.691341 0.260441
1 0.695216 0.267338
1 0.698482 0.273854
1 0.701579 0.280217
1 0.70454 0.286427
1 0.707317 0.292485
0.0937819 0.616815 0.0596933
0.105455 0.626673 0.0697337
0.117464 0.636255 0.0795605
0.131014 0.645869 0.089601
0.147051 0.655039 0.0994888
0.166339 0.663355 0.108949
0.188128 0.671122 0.118181
0.211978 0.678111 0.126955
0.238788 0.684672 0.135637
0.268269 0.690532 0.143984
0.300481 0.695766 0.152041
0.334966 0.699977 0.159442
0.371756 0.703914 0.166812
0.410742 0.707271 0.173907
0.452323 0.70988 0.180621
0.49604 0.711818 0.186938
0.541176 0.713161 0.192889
0.586801 0.714214 0.198611
0.632898 0.715236 0.204364
0.677882 0.716442 0.210178
0.72134 0.717968 0.216098
0.763226 0.719799 0.222141
0.803037 0.722057 0.228336
0.840894 0.724727 0.234699
0.877104 0.727687 0.241154
0.911864 0.730816 0.247593
0.945663 0.733913 0.25391
0.978744 0.737453 0.260563
1 0.74078 0.266896
1 0.743496 0.272877
1 0.74612 0.278737
1 0.748837 0.284749
1 0.751141 0.290318
0.0995651 0.663233 0.0632486
0.11165 0.673487 0.0737011
0.124041 0.683467 0.0839246
0.138003 0.693492 0.0943618
0.154345 0.702968 0.104555
0.173922 0.711543 0.114305
0.195651 0.71928 0.123507
0.219959 0.726726 0.132723
0.246891 0.73341 0.141527
0.276448 0.739361 0.149966
0.308721 0.744625 0.158053
0.343175 0.748821 0.165438
0.379904 0.752697 0.172747
0.418769 0.755917 0.179706
0.460136 0.758343 0.186236
0.503624 0.760052 0.192325
0.548608 0.761227 0.198093
0.594049 0.762081 0.203647
0.639567 0.762539 0.20882
0.684199 0.763378 0.214267
0.727275 0.764538 0.219806
0.76875 0.765972 0.225452
0.808179 0.767834 0.23125
0.845609 0.770062 0.237186
0.881361 0.77258 0.243198
0.91574 0.775311 0.249256
0.949248 0.778134 0.255283
0.981704 0.781033 0.261295
1 0.783993 0.267247
1 0.786267 0.272786
1 0.788418 0.278187
1 0.790402 0.283452
1 0.792233 0.288548
0.108736 0.710155 0.0703593
0.120867 0.720455 0.0808576
0.133761 0.730938 0.0915847
0.147936 0.741176 0.102235
0.164431 0.750805 0.112596
0.183948 0.759335 0.122271
0.205921 0.7673 0.131701
0.230243 0.774762 0.140932
0.257145 0.781415 0.149722
0.286625 0.787289 0.158068
0.31873 0.792386 0.166003
0.353048 0.79646 0.173251
0.389456 0.8 0.18024
0.428016 0.80293 0.186908
0.469078 0.805035 0.193103
0.51223 0.806394 0.198856
0.556832 0.807218 0.204273
0.601938 0.807736 0.209476
0.647303 0.808026 0.214496
0.691539 0.808484 0.219547
0.734173 0.809186 0.224659
0.775204 0.810178 0.229847
0.81416 0.811566 0.235172
0.851133 0.813336 0.24065
0.886427 0.815381 0.246189
0.920287 0.817624 0.251728
0.953277 0.819913 0.257252
0.98526 0.822339 0.262791
1 0.824826 0.268284
1 0.826658 0.273365
1 0.828351 0.278309
1 0.829923 0.283162
1 0.831373 0.287892
0.120226 0.757198 0.0799115
0.13257 0.767712 0.0906081
0.145556 0.778302 0.101457
0.159792 0.788586 0.112154
0.176287 0.798199 0.122499
0.195758 0.806683 0.132128
0.217609 0.814542 0.141451
0.241749 0.82182 0.150515
0.268452 0.82826 0.159075
0.297658 0.833875 0.167163
0.329458 0.838651 0.174777
0.363668 0.842618 0.181918
0.399802 0.845899 0.188647
0.437995 0.848447 0.194934
0.478538 0.850034 0.200626
0.521111 0.850828 0.205798
0.565301 0.851225 0.210788
0.609949 0.851301 0.215549
0.654871 0.851133 0.220111
0.698634 0.851118 0.224704
0.74081 0.851362 0.229343
0.781384 0.851911 0.234089
0.819867 0.852827 0.238941
0.856382 0.854139 0.243961
0.891279 0.855787 0.249104
0.924788 0.857664 0.254292
0.957305 0.85951 0.259358
0.988846 0.861494 0.264439
1 0.863584 0.269535
1 0.865049 0.274266
1 0.866361 0.278843
1 0.867552 0.283299
1 0.868666 0.287694
0.133272 0.803967 0.0911116
0.145708 0.814572 0.101915
0.158633 0.825086 0.112688
0.172732 0.835248 0.123247
0.189029 0.844678 0.13341
0.208438 0.853101 0.142992
0.230121 0.860777 0.152132
0.253651 0.867445 0.160571
0.280003 0.873549 0.168811
0.308873 0.878813 0.176532
0.340276 0.883207 0.183764
0.37409 0.886778 0.190509
0.409827 0.889647 0.196826
0.447593 0.891768 0.202701
0.487816 0.893034 0.208042
0.530098 0.893538 0.21294
0.573816 0.893462 0.217472
0.618006 0.89308 0.221759
0.66244 0.892424 0.225834
0.705684 0.89189 0.229908
0.747356 0.891646 0.234058
0.787442 0.891676 0.2383
0.825437 0.892103 0.242664
0.861448 0.892927 0.247181
0.895888 0.894118 0.251865
0.929091 0.895689 0.256764
0.961334 0.897231 0.261524
0.992477 0.898833 0.266224
1 0.900542 0.270954
1 0.901701 0.275349
1 0.902724 0.279652
1 0.903639 0.283818
1 0.904448 0.287907
0.147265 0.850324 0.103334
0.15935 0.860578 0.113771
0.172015 0.870848 0.1243
0.185809 0.88069 0.134554
0.201785 0.889799 0.144381
0.220844 0.897887 0.153628
0.242176 0.905196 0.162417
0.265599 0.911772 0.170748
0.291569 0.917479 0.178592
0.320012 0.922316 0.185916
0.350988 0.926284 0.192706
0.384344 0.929397 0.198993
0.419608 0.931807 0.204852
0.456916 0.933471 0.210254
0.496651 0.934249 0.215122
0.538445 0.934249 0.219516
0.581643 0.933669 0.223529
0.62536 0.932799 0.227344
0.669322 0.931685 0.230961
0.712108 0.930694 0.234577
0.753353 0.930007 0.238285
0.793011 0.929625 0.242115
0.83064 0.929702 0.246113
0.866285 0.930144 0.250248
0.900404 0.931014 0.254627
0.933242 0.932219 0.259144
0.965103 0.933394 0.263539
0.995987 0.934722 0.267964
1 0.936141 0.272389
1 0.936965 0.276478
1 0.937743 0.280522
1 0.938445 0.284489
1 0.939315 0.288624
0.160952 0.895445 0.115312
0.172946 0.905592 0.125658
0.185107 0.915358 0.135683
0.19855 0.924865 0.145602
0.213977 0.93341 0.154864
0.232639 0.941085 0.163699
0.253544 0.947982 0.172076
0.276524 0.954116 0.179965
0.302022 0.95935 0.187335
