modules/luts/cube_folder/Prime.CUBE
TITLE "Generated by Resolve"
LUT_3D_SIZE 9
0.182055 0.174762 0.176913
0.195834 0.173495 0.177218
0.246571 0.162127 0.172381
0.337438 0.139269 0.161456
0.464469 0.106142 0.145144
0.604059 0.0703441 0.127764
0.722576 0.0428321 0.115572
0.824155 0.0238651 0.10927
0.932418 0.00770581 0.106188
0.182315 0.184253 0.176669
0.196201 0.183093 0.177081
0.2477 0.172488 0.172992
0.341756 0.152834 0.165286
0.475868 0.126772 0.156039
0.625132 0.100664 0.148333
0.75404 0.0835126 0.146532
0.865827 0.0747845 0.150439
0.983719 0.0682536 0.15697
0.171374 0.206882 0.163897
0.193408 0.213855 0.172457
0.25507 0.213413 0.178546
0.35967 0.204303 0.181369
0.503578 0.188037 0.181918
0.662638 0.171725 0.184024
0.801923 0.164965 0.192584
0.924407 0.166903 0.207187
1 0.170733 0.224063
0.147921 0.280201 0.135164
0.179644 0.29688 0.153414
0.25127 0.306386 0.169451
0.3664 0.307805 0.182803
0.520821 0.302052 0.193866
0.689982 0.295857 0.206073
0.838483 0.298299 0.22385
0.970108 0.309392 0.247608
1 0.322347 0.27361
0.114946 0.405005 0.0935836
0.157107 0.432105 0.122271
0.238407 0.451301 0.147967
0.362676 0.461845 0.170459
0.526284 0.465293 0.190723
0.704387 0.468025 0.211856
0.861463 0.479057 0.238224
0.999649 0.496696 0.268528
1 0.513649 0.298543
0.0918441 0.571267 0.0601358
0.14313 0.607492 0.0979324
0.233448 0.635721 0.132677
0.365713 0.654261 0.163165
0.535149 0.663539 0.189258
0.71635 0.669367 0.213504
0.873259 0.680232 0.239689
1 0.695216 0.267338
1 0.707317 0.292485
0.120226 0.757198 0.0799115
0.176287 0.798199 0.122499
0.268452 0.82826 0.159075
0.399802 0.845899 0.188647
0.565301 0.851225 0.210788
0.74081 0.851362 0.229343
0.891279 0.855787 0.249104
1 0.863584 0.269535
1 0.868666 0.287694
0.172793 0.939529 0.125399
0.22443 0.97612 0.163561
0.310597 1 0.194141
0.434791 1 0.216571
0.593637 1 0.232044
0.762402 1 0.243854
0.907225 1 0.257969
1 1 0.273701
1 1 0.288579
0.202228 1 0.147524
0.246738 1 0.178546
0.326787 1 0.202991
0.445701 1 0.220142
0.600305 1 0.231388
0.766003 1 0.240116
0.909575 1 0.252995
1 1 0.269841
1 1 0.286336
0.18175 0.175082 0.18587
0.195468 0.173739 0.186114
0.24622 0.162387 0.181277
0.336934 0.139376 0.170214
0.464179 0.106462 0.154116
0.60415 0.0710613 0.137118
0.723415 0.0442817 0.125673
0.826459 0.0267796 0.120836
0.935821 0.0117342 0.118837
0.181857 0.184405 0.185473
0.195972 0.183474 0.186114
0.248173 0.173571 0.182727
0.343206 0.154879 0.175982
0.478538 0.130053 0.167956
0.628672 0.104814 0.161135
0.758526 0.0886244 0.160281
0.871305 0.0808576 0.165179
0.990448 0.0756085 0.172961
0.173434 0.209552 0.175219
0.196536 0.217594 0.184848
0.259083 0.218036 0.191806
0.36466 0.209903 0.195605
0.509697 0.194766 0.197284
0.669734 0.179446 0.200366
0.810056 0.173709 0.209979
0.933532 0.176638 0.225559
1 0.18143 0.243427
0.153216 0.286107 0.149706
0.185962 0.303807 0.168978
0.258625 0.314366 0.186069
0.375021 0.317037 0.200671
0.53048 0.312337 0.212787
0.700221 0.306706 0.225574
0.849683 0.310109 0.244312
0.982238 0.322148 0.269001
1 0.335958 0.295857
0.123873 0.414542 0.111757
0.166812 0.442435 0.141222
0.248844 0.462364 0.167666
0.374228 0.474022 0.191287
0.538842 0.478462 0.212528
0.717617 0.48188 0.234363
0.875105 0.493324 0.261128
1 0.511437 0.291905
1 0.528237 0.321767
0.103868 0.583902 0.0814069
0.155932 0.620905 0.119997
0.24712 0.650004 0.155612
0.379797 0.668971 0.186511
0.549187 0.678187 0.212543
0.72987 0.683497 0.236271
0.886519 0.694102 0.262211
1 0.708202 0.28896
1 0.719493 0.313298
0.134127 0.771725 0.103075
0.190021 0.812558 0.14548
0.282063 0.842496 0.181949
0.412528 0.859251 0.210636
0.577615 0.864164 0.232364
0.752346 0.863523 0.250141
0.901854 0.866987 0.26894
1 0.874357 0.28896
1 0.87895 0.3066
0.185595 0.952941 0.147448
0.236439 0.988739 0.184833
0.321843 1 0.214649
0.445335 1 0.236347
0.603265 1 0.250935
0.771847 1 0.262562
0.916182 1 0.276188
1 1 0.291829
1 1 0.30634
0.212589 1 0.167102
0.256519 1 0.197574
0.336095 1 0.221561
0.454643 1 0.238346
0.609033 1 0.249363
0.774243 1 0.257633
0.918853 1 0.271519
1 1 0.288396
1 1 0.304906
0.177584 0.173663 0.223087
0.191333 0.172351 0.223346
0.241993 0.160922 0.218448
0.332662 0.137865 0.207324
0.460151 0.10518 0.191455
0.600793 0.0704662 0.175143
0.721004 0.0446174 0.164645
0.825299 0.0283665 0.161044
0.935622 0.0142977 0.160021
0.177676 0.183001 0.222675
0.19202 0.182284 0.223545
0.24506 0.173205 0.220996
0.341436 0.155871 0.215595
0.477836 0.132097 0.208637
0.628824 0.107729 0.20267
0.759579 0.0924392 0.202716
0.873579 0.085893 0.208835
0.993713 0.0816205 0.217624
0.172076 0.210941 0.215244
0.196185 0.220005 0.225879
0.259617 0.221332 0.233722
0.366232 0.214221 0.238544
0.512184 0.200015 0.241169
0.673335 0.185779 0.24535
0.814847 0.181262 0.256153
0.939269 0.185138 0.272694
1 0.190616 0.291203
0.155047 0.2907 0.192935
0.188968 0.30956 0.213367
0.262837 0.321324 0.231647
0.380102 0.32488 0.24715
0.536385 0.320989 0.26006
0.706844 0.316075 0.273579
0.85742 0.320607 0.293446
0.991012 0.333669 0.319142
1 0.34818 0.346716
0.129183 0.422599 0.158434
0.172976 0.451347 0.188769
0.256168 0.472435 0.216388
0.382635 0.485176 0.241062
0.548043 0.49041 0.263111
0.727474 0.494499 0.285603
0.88539 0.506355 0.312795
1 0.524239 0.343328
1 0.540734 0.372885
0.112474 0.59527 0.131395
0.165408 0.633143 0.170855
0.256947 0.662593 0.206821
0.389822 0.681743 0.237919
0.559121 0.690867 0.263859
0.739696 0.696086 0.28748
0.895476 0.705806 0.312535
1 0.719448 0.338827
1 0.730007 0.362448
0.144167 0.784512 0.154482
0.200168 0.825452 0.197009
0.291432 0.854612 0.232685
0.421546 0.871015 0.261036
0.585885 0.875181 0.282017
0.759808 0.873732 0.298985
0.908598 0.876478 0.317067
1 0.883101 0.336339
1 0.887358 0.353658
0.194049 0.964157 0.197284
0.24419 0.999237 0.233951
0.328771 1 0.262943
0.451896 1 0.284291
0.609262 1 0.298314
0.777356 1 0.309453
0.921218 1 0.322591
1 1 0.338125
1 1 0.352163
0.218738 1 0.214664
0.262348 1 0.24477
0.341253 1 0.268101
0.459785 1 0.284855
0.613809 1 0.295521
0.77969 1 0.304448
0.924331 1 0.318379
1 1 0.335286
1 1 0.351843
0.165576 0.168704 0.317174
0.179553 0.167636 0.317678
0.23006 0.156039 0.312596
0.320821 0.133089 0.301579
0.448539 0.100633 0.285939
0.590021 0.066743 0.270466
0.711604 0.042298 0.261357
0.816907 0.027039 0.258747
0.928008 0.0137484 0.258518
0.165942 0.178317 0.317037
0.180713 0.178027 0.318334
0.234485 0.169696 0.316518
0.332387 0.153887 0.312642
0.469825 0.131151 0.306722
0.621683 0.107652 0.301625
0.753475 0.0933852 0.302693
0.868391 0.0877699 0.309743
0.989746 0.0847181 0.319753
0.163333 0.209262 0.312596
0.188281 0.219165 0.324071
0.252613 0.221378 0.332815
0.360281 0.215335 0.338704
0.50753 0.202411 0.342611
0.669795 0.189303 0.347906
0.812253 0.185718 0.359655
0.937514 0.190433 0.37702
1 0.196612 0.396262
0.149722 0.292424 0.29369
0.18468 0.312337 0.315175
0.259525 0.325078 0.334447
0.377722 0.329549 0.350866
0.534997 0.326665 0.364782
0.706523 0.32282 0.379355
0.858137 0.328389 0.400244
0.992508 0.342229 0.426749
1 0.357382 0.454963
0.127428 0.427909 0.262806
0.171984 0.45742 0.293889
0.255985 0.479301 0.322286
0.383368 0.492973 0.34789
0.54963 0.499062 0.370794
0.729656 0.503716 0.393866
0.88777 0.515801 0.421271
1 0.533593 0.451728
1 0.549981 0.481163
0.113619 0.603479 0.238651
0.167208 0.642008 0.278767
0.259159 0.671855 0.315129
0.392203 0.691188 0.346395
0.561639 0.700435 0.372473
0.741421 0.70486 0.3953
0.896849 0.714244 0.420005
1 0.727138 0.445563
1 0.736889 0.468376
0.146853 0.794247 0.263264
0.202213 0.834562 0.305165
0.29308 0.863325 0.340444
0.42237 0.878889 0.367941
0.585962 0.882322 0.38819
0.759121 0.88011 0.404395
0.907515 0.88246 0.42208
1 0.888365 0.440635
1 0.892271 0.457603
0.194888 0.972061 0.304234
0.244236 1 0.340093
0.328054 1 0.368353
0.450568 1 0.389059
0.607431 1 0.402579
0.775051 1 0.41323
0.918685 1 0.426169
1 1 0.441474
1 1 0.456046
0.21706 1 0.319066
0.260304 1 0.348837
0.338872 1 0.371832
0.457176 1 0.388342
0.610986 1 0.39881
0.777493 1 0.408362
0.922148 1 0.422309
1 1 0.439246
1 1 0.455833
0.146654 0.160845 0.464317
0.160647 0.159777 0.464836
0.211017 0.148043 0.459617
0.301991 0.125307 0.448814
0.430106 0.0932479 0.433585
0.572335 0.0601053 0.418845
0.695384 0.0371099 0.411185
0.801785 0.0229648 0.409689
0.913756 0.010544 0.41033
0.147173 0.170596 0.464332
0.162661 0.171023 0.466346
0.217426 0.163684 0.465522
0.316518 0.149065 0.462837
0.454795 0.127184 0.457771
0.607569 0.10457 0.453559
0.740414 0.091371 0.455711
0.856611 0.0870375 0.464027
0.978958 0.0849775 0.475029
0.147936 0.204929 0.463264
0.17377 0.215702 0.475624
0.239078 0.218891 0.485344
0.347875 0.213977 0.492363
0.496101 0.202029 0.49723
0.659388 0.189944 0.503563
0.802762 0.187289 0.516228
0.929076 0.193057 0.534646
1 0.200214 0.554864
0.137545 0.29131 0.447593
0.17351 0.312215 0.470085
0.249638 0.326238 0.490623
0.368856 0.331746 0.508064
0.526757 0.329473 0.522606
0.699184 0.326528 0.538079
0.851728 0.333043 0.559915
0.986969 0.347738 0.587274
1 0.3635 0.616098
0.118593 0.430121 0.420035
0.163912 0.460395 0.451865
0.249027 0.483406 0.481407
0.377386 0.498039 0.507973
0.544335 0.504814 0.531579
0.724758 0.50988 0.555032
0.883223 0.522301 0.582803
1 0.540063 0.613214
1 0.555657 0.641855
0.107836 0.608743 0.398917
0.162203 0.648051 0.439811
0.254688 0.678447 0.476722
0.387793 0.697826 0.508049
0.556588 0.706447 0.533486
0.736126 0.710613 0.556069
0.890593 0.719036 0.579812
1 0.731182 0.604623
1 0.740398 0.626886
0.142031 0.800473 0.424506
0.197147 0.840543 0.466148
0.287373 0.868666 0.500801
0.416129 0.883696 0.527779
0.578927 0.886336 0.547234
0.751324 0.88336 0.562661
0.899123 0.885115 0.579751
1 0.890517 0.597803
1 0.894026 0.614374
0.188159 0.976364 0.463554
0.236927 1 0.498848
0.320043 1 0.52639
0.441642 1 0.546212
0.598321 1 0.559533
0.765423 1 0.56968
0.908995 1 0.582544
1 1 0.597498
1 1 0.612818
0.208286 1 0.476356
0.251072 1 0.505669
0.329274 1 0.528298
0.447333 1 0.544579
0.600702 1 0.554589
0.768215 1 0.565148
0.912902 1 0.579126
1 1 0.596094
1 1 0.612696
0.124971 0.151797 0.632334
0.138888 0.150637 0.632761
0.189212 0.138857 0.627512
0.280415 0.11635 0.616938
0.409232 0.0849928 0.602396
0.552407 0.0528115 0.588617
0.676707 0.0310521 0.582193
0.783993 0.0178073 0.581613
0.896925 0.00633249 0.5832
0.125689 0.161746 0.632547
0.142 0.162997 0.635386
0.198123 0.157 0.63592
0.298299 0.143465 0.634318
0.437461 0.122469 0.630121
0.591196 0.100816 0.626886
0.72517 0.0887617 0.630167
0.842359 0.0854047 0.63946
0.965743 0.0843824 0.651514
0.130053 0.199649 0.635065
0.156786 0.211322 0.648325
0.223041 0.215488 0.659007
0.33283 0.211566 0.667018
0.482124 0.200671 0.672938
0.646662 0.189853 0.680537
0.791074 0.18822 0.69424
0.917952 0.194568 0.713237
1 0.202686 0.734417
0.122927 0.289311 0.62266
0.160204 0.311528 0.646464
0.237186 0.326421 0.667872
0.357214 0.332723 0.686107
0.515862 0.331197 0.701396
0.689403 0.329381 0.717983
0.842954 0.336873 0.740826
0.978882 0.35227 0.768872
1 0.368429 0.798108
0.107225 0.431388 0.598352
0.153552 0.462638 0.631189
0.239765 0.486763 0.66183
0.368902 0.50219 0.689189
0.53666 0.509773 0.713588
0.71751 0.515251 0.737469
0.875853 0.52755 0.765118
1 0.544869 0.795087
1 0.56022 0.823499
0.0998398 0.613367 0.580621
0.154635 0.653117 0.621958
0.247196 0.683574 0.658915
0.380194 0.702846 0.690135
0.548867 0.71136 0.715465
0.72752 0.714626 0.737148
0.881575 0.722652 0.760494
1 0.734005 0.784512
1 0.742214 0.805783
0.134401 0.805478 0.606592
0.189075 0.845106 0.647791
0.278828 0.872755 0.681941
0.406851 0.887037 0.708202
0.568841 0.888869 0.726833
0.740505 0.885176 0.741543
0.887419 0.88603 0.757733
1 0.891249 0.775601
1 0.894316 0.79173
0.178531 0.97937 0.643626
0.226291 1 0.677913
0.309041 1 0.705074
0.430091 1 0.724346
0.586297 1 0.737194
0.753033 1 0.74699
0.896376 1 0.759609
1 1 0.77409
1 1 0.790433
0.196551 1 0.654337
0.238682 1 0.682979
0.316869 1 0.705577
0.43444 1 0.72137
0.588602 1 0.732189
0.756146 1 0.742763
0.900877 1 0.756771
1 1 0.77377
1 1 0.790417
0.107561 0.144594 0.76878
0.121279 0.143282 0.769024
0.17174 0.131624 0.763897
0.263157 0.109331 0.753552
0.392813 0.0788128 0.739849
0.537362 0.0479896 0.727428
0.662684 0.0272831 0.722042
0.770809 0.0148623 0.722301
0.884657 0.00430304 0.724788
0.108751 0.155032 0.769467
0.125795 0.157015 0.773037
0.183444 0.152575 0.775113
0.284642 0.140047 0.774533
0.424689 0.119921 0.771206
0.579446 0.099321 0.769009
0.714351 0.0881819 0.77322
0.83267 0.0859541 0.783642
0.957229 0.0861067 0.796857
0.116533 0.196368 0.775418
0.144137 0.208927 0.789548
0.211536 0.214221 0.801373
0.32256 0.211521 0.810605
0.473014 0.201801 0.8177
0.638437 0.191867 0.826169
0.783658 0.191043 0.840696
0.911269 0.198108 0.86041
1 0.207416 0.882765
0.113115 0.289738 0.76672
0.151263 0.312825 0.791394
0.229175 0.328649 0.813718
0.350057 0.335805 0.832822
0.509911 0.335485 0.849317
0.684489 0.334691 0.866941
0.838834 0.343008 0.890578
0.975433 0.35906 0.919295
1 0.375647 0.948943
0.100603 0.435004 0.745586
0.147906 0.467231 0.779416
0.234989 0.492226 0.810925
0.365011 0.508537 0.83917
0.533181 0.516533 0.863981
0.714229 0.52221 0.888075
0.87248 0.534417 0.915618
1 0.551629 0.94548
1 0.566094 0.973007
0.0959945 0.61976 0.730648
0.151202 0.659922 0.772381
0.243931 0.690532 0.809522
0.37705 0.709941 0.840864
0.54493 0.717647 0.865385
0.723232 0.720577 0.886732
0.876554 0.727855 0.909346
1 0.738415 0.93254
1 0.745892 0.953094
0.131014 0.812329 0.757061
0.184894 0.851164 0.797467
0.273991 0.878141 0.830976
0.401251 0.891676 0.856458
0.562463 0.892729 0.874327
0.733761 0.88867 0.888655
0.88011 0.88896 0.904295
1 0.89369 0.921691
1 0.896239 0.937285
0.1729 0.983978 0.791867
0.219928 1 0.825422
0.301946 1 0.85185
0.422599 1 0.870726
0.57818 1 0.882948
0.744854 1 0.892668
0.887892 1 0.904997
1 1 0.920104
1 1 0.936477
0.188861 1 0.800504
0.23064 1 0.828809
0.308598 1 0.851179
0.426123 1 0.866911
0.580758 1 0.878202
0.748333 1 0.888823
0.89308 1 0.902861
1 1 0.91989
1 1 0.936553
0.0928511 0.138582 0.884581
0.106447 0.137118 0.884688
0.157107 0.125673 0.879759
0.248966 0.103807 0.869841
0.379355 0.0740368 0.856886
0.525399 0.0447089 0.84596
0.651774 0.0250553 0.841642
0.760784 0.0135348 0.842771
0.875654 0.0039826 0.846281
0.0949264 0.149889 0.886137
0.112947 0.152865 0.890684
0.171817 0.14963 0.893965
0.273854 0.137942 0.894224
0.414786 0.1187 0.891814
0.570611 0.0991684 0.890684
0.706798 0.0893263 0.896162
0.8262 0.0881819 0.907683
0.951736 0.0893111 0.921859
0.106249 0.194766 0.895628
0.134844 0.208301 0.91075
0.203342 0.21471 0.923674
0.315343 0.213001 0.933898
0.466804 0.204303 0.942
0.633158 0.19527 0.9514
0.779431 0.195499 0.966949
0.908049 0.203586 0.987686
1 0.21387 1
0.106172 0.291493 0.890272
0.14548 0.315724 0.916106
0.224537 0.332692 0.93959
0.346181 0.340612 0.959442
0.506783 0.341054 0.976699
0.682322 0.341222 0.99527
0.837537 0.350393 1
0.974716 0.36701 1
1 0.383825 1
0.0967575 0.439841 0.872236
0.145174 0.473198 0.907179
0.233249 0.499168 0.939681
0.363943 0.516136 0.968582
0.532509 0.524544 0.993805
0.713726 0.530388 1
0.872114 0.542733 1
1 0.559136 1
1 0.573281 1
0.095079 0.627543 0.860227
0.150744 0.668132 0.902419
0.243717 0.699016 0.939803
0.376196 0.717769 0.970504
0.543755 0.72517 0.99472
0.721172 0.727199 1
0.873747 0.73373 1
1 0.743572 1
1 0.750622 1
0.129976 0.819974 0.886519
0.183566 0.858518 0.926635
0.271946 0.884779 0.959426
0.398413 0.897536 0.984115
0.558877 0.897826 1
0.729564 0.893141 1
0.87541 0.892943 1
1 0.897231 1
1 0.899504 1
0.169696 0.989456 0.919142
0.216098 1 0.952087
0.297337 1 0.977737
0.4177 1 0.996323
0.5729 1 1
0.739361 1 1
0.882139 1 1
1 1 1
1 1 1
0.183688 1 0.925826
0.225254 1 0.953918
0.302968 1 0.976028
0.420035 1 0.991333
0.575677 1 1
0.743282 1 1
0.888075 1 1
1 1 1
1 1 1
0.0774853 0.132235 1
0.0910353 0.130739 1
0.141939 0.119524 1
0.234501 0.0983749 0.990982
0.365881 0.0695811 0.979004
0.51313 0.041474 0.969314
0.64036 0.0226596 0.96582
0.750286 0.0120394 0.967865
0.866178 0.00354009 0.972427
0.0806744 0.144656 1
0.100099 0.14905 1
0.160006 0.146853 1
0.262928 0.136049 1
0.404837 0.117784 1
0.561807 0.099382 1
0.69897 0.0905013 1
0.819394 0.0903944 1
0.945846 0.0924392 1
0.0956588 0.193194 1
0.125139 0.20763 1
0.194736 0.215122 1
0.30779 0.21445 1
0.460517 0.207019 1
0.627894 0.199023 1
0.774746 0.199847 1
0.904311 0.208865 1
1 0.220096 1
0.0993057 0.293629 1
0.139559 0.318853 1
0.219303 0.336477 1
0.341711 0.345159 1
0.503441 0.346716 1
0.679942 0.347875 1
0.835843 0.357717 1
0.973419 0.374762 1
1 0.391974 1
0.0928054 0.444892 1
0.142199 0.479255 1
0.231067 0.506004 1
0.362585 0.523812 1
0.531655 0.532708 1
0.712917 0.538613 1
0.87068 0.550332 1
1 0.566476 1
1 0.579644 1
0.0940566 0.635538 0.994797
0.149844 0.67628 1
0.242496 0.706828 1
0.374777 0.725383 1
0.541604 0.732036 1
0.718532 0.733608 1
0.870329 0.739345 1
0.999878 0.748348 1
1 0.754849 1
0.128466 0.827482 1
0.181415 0.86537 1
0.268864 0.890745 1
0.394705 0.902846 1
0.554467 0.902434 1
0.724239 0.896849 1
0.869902 0.896468 1
0.994186 0.900206 1
1 0.902449 1
0.165545 0.994324 1
0.211475 1 1
0.292165 1 1
0.412055 1 1
0.566903 1 1
0.733135 1 1
0.875456 1 1
1 1 1
1 1 1
0.177829 1 1
0.219226 1 1
0.296468 1 1
0.414343 1 1
0.570016 1 1
0.737652 1 1
0.88246 1 1
1 1 1
1 1 1
