modules/luts/cube_folder/Prime.CUBE
TITLE "Generated by Resolve"
LUT_3D_SIZE 5
0.182055 0.174762 0.176913
0.246571 0.162127 0.172381
0.464469 0.106142 0.145144
0.722576 0.0428321 0.115572
0.932418 0.00770581 0.106188
0.171374 0.206882 0.163897
0.25507 0.213413 0.178546
0.503578 0.188037 0.181918
0.801923 0.164965 0.192584
1 0.170733 0.224063
0.114946 0.405005 0.0935836
0.238407 0.451301 0.147967
0.526284 0.465293 0.190723
0.861463 0.479057 0.238224
1 0.513649 0.298543
0.120226 0.757198 0.0799115
0.268452 0.82826 0.159075
0.565301 0.851225 0.210788
0.891279 0.855787 0.249104
1 0.868666 0.287694
0.202228 1 0.147524
0.326787 1 0.202991
0.600305 1 0.231388
0.909575 1 0.252995
1 1 0.286336
0.177584 0.173663 0.223087
0.241993 0.160922 0.218448
0.460151 0.10518 0.191455
0.721004 0.0446174 0.164645
0.935622 0.0142977 0.160021
0.172076 0.210941 0.215244
0.259617 0.221332 0.233722
0.512184 0.200015 0.241169
0.814847 0.181262 0.256153
1 0.190616 0.291203
0.129183 0.422599 0.158434
0.256168 0.472435 0.216388
0.548043 0.49041 0.263111
0.88539 0.506355 0.312795
1 0.540734 0.372885
0.144167 0.784512 0.154482
0.291432 0.854612 0.232685
0.585885 0.875181 0.282017
0.908598 0.876478 0.317067
1 0.887358 0.353658
0.218738 1 0.214664
0.341253 1 0.268101
0.613809 1 0.295521
0.924331 1 0.318379
1 1 0.351843
0.146654 0.160845 0.464317
0.211017 0.148043 0.459617
0.430106 0.0932479 0.433585
0.695384 0.0371099 0.411185
0.913756 0.010544 0.41033
0.147936 0.204929 0.463264
0.239078 0.218891 0.485344
0.496101 0.202029 0.49723
0.802762 0.187289 0.516228
1 0.200214 0.554864
0.118593 0.430121 0.420035
0.249027 0.483406 0.481407
0.544335 0.504814 0.531579
0.883223 0.522301 0.582803
1 0.555657 0.641855
0.142031 0.800473 0.424506
0.287373 0.868666 0.500801
0.578927 0.886336 0.547234
0.899123 0.885115 0.579751
1 0.894026 0.614374
0.208286 1 0.476356
0.329274 1 0.528298
0.600702 1 0.554589
0.912902 1 0.579126
1 1 0.612696
0.107561 0.144594 0.76878
0.17174 0.131624 0.763897
0.392813 0.0788128 0.739849
0.662684 0.0272831 0.722042
0.884657 0.00430304 0.724788
0.116533 0.196368 0.775418
0.211536 0.214221 0.801373
0.473014 0.201801 0.8177
0.783658 0.191043 0.840696
1 0.207416 0.882765
0.100603 0.435004 0.745586
0.234989 0.492226 0.810925
0.533181 0.516533 0.863981
0.87248 0.534417 0.915618
1 0.566094 0.973007
0.131014 0.812329 0.757061
0.273991 0.878141 0.830976
0.562463 0.892729 0.874327
0.88011 0.88896 0.904295
1 0.896239 0.937285
0.188861 1 0.800504
0.308598 1 0.851179
0.580758 1 0.878202
0.89308 1 0.902861
1 1 0.936553
0.0774853 0.132235 1
0.141939 0.119524 1
0.365881 0.0695811 0.979004
0.64036 0.0226596 0.96582
0.866178 0.00354009 0.972427
0.0956588 0.193194 1
0.194736 0.215122 1
0.460517 0.207019 1
0.774746 0.199847 1
1 0.220096 1
0.0928054 0.444892 1
0.231067 0.506004 1
0.531655 0.532708 1
0.87068 0.550332 1
1 0.579644 1
0.128466 0.827482 1
0.268864 0.890745 1
0.554467 0.902434 1
0.869902 0.896468 1
1 0.902449 1
0.177829 1 1
0.296468 1 1
0.570016 1 1
0.88246 1 1
1 1 1
