modules/luts/cube_folder/Wash.CUBE
TITLE "Generated by Resolve"
LUT_3D_SIZE 33
0.237049 0.251408 0.238285
0.250767 0.250813 0.23769
0.264881 0.250172 0.237049
0.278767 0.249393 0.236286
0.292393 0.248508 0.235401
0.305837 0.247517 0.234409
0.319158 0.246479 0.233356
0.33225 0.245212 0.23209
0.345205 0.243809 0.230686
0.358099 0.242267 0.229145
0.370947 0.240574 0.227451
0.383795 0.238834 0.225711
0.396506 0.236851 0.223728
0.409247 0.234714 0.221592
0.422004 0.232395 0.219272
0.434821 0.229923 0.2168
0.447761 0.227283 0.21416
0.460868 0.224491 0.211368
0.474098 0.221424 0.208301
0.487465 0.218173 0.205051
0.50106 0.21474 0.201602
0.514885 0.211109 0.197971
0.528954 0.207355 0.194232
0.543252 0.203494 0.190356
0.557687 0.199481 0.186358
0.572351 0.195407 0.182284
0.587243 0.191302 0.17818
0.602228 0.187274 0.174151
0.617441 0.183368 0.170245
0.632776 0.179553 0.166415
0.648234 0.175875 0.162737
0.663844 0.172381 0.159258
0.679561 0.169146 0.156024
0.234989 0.264103 0.236225
0.248981 0.263783 0.235904
0.263172 0.263203 0.235325
0.277104 0.262486 0.234607
0.290883 0.261738 0.233875
0.304341 0.260777 0.232898
0.317617 0.259678 0.2318
0.330724 0.258442 0.230564
0.343709 0.257053 0.229175
0.356619 0.255528 0.227649
0.369558 0.25391 0.226032
0.3823 0.252094 0.224216
0.395026 0.250111 0.222217
0.407752 0.247959 0.220066
0.420493 0.245624 0.217746
0.43331 0.243153 0.215259
0.446265 0.240528 0.21265
0.459297 0.237644 0.209751
0.47248 0.234531 0.206653
0.485801 0.23125 0.203357
0.499352 0.227756 0.199863
0.513146 0.224109 0.196216
0.527184 0.220295 0.192401
0.54136 0.216312 0.188418
0.555718 0.212222 0.184329
0.570291 0.208072 0.180179
0.585092 0.203876 0.175982
0.600061 0.199832 0.171939
0.615122 0.195773 0.167865
0.63032 0.191821 0.163912
0.64567 0.188022 0.160128
0.661158 0.184421 0.156527
0.676829 0.181125 0.153216
0.233021 0.276783 0.234257
0.247059 0.276509 0.233982
0.261311 0.27599 0.233463
0.27541 0.275441 0.232914
0.289143 0.274647 0.23212
0.302647 0.273716 0.231189
0.315953 0.272648 0.230121
0.329091 0.271443 0.228916
0.342107 0.270085 0.227558
0.355123 0.268681 0.226139
0.367987 0.266987 0.22446
0.380758 0.265171 0.222644
0.393484 0.263203 0.220661
0.406195 0.261051 0.218509
0.419043 0.258808 0.216266
0.43183 0.256291 0.213748
0.444694 0.25359 0.211048
0.457694 0.250675 0.208133
0.470863 0.247547 0.205005
0.484169 0.244236 0.201694
0.497749 0.240787 0.19823
0.511467 0.237049 0.194491
0.525383 0.233127 0.190585
0.539498 0.229084 0.186526
0.553796 0.224933 0.182376
0.568338 0.220722 0.178164
0.583108 0.21651 0.173953
0.59791 0.212284 0.169726
0.612863 0.208133 0.16556
0.62797 0.204074 0.161517
0.643229 0.200183 0.15761
0.658656 0.196521 0.153948
0.674205 0.193103 0.15053
0.23093 0.289204 0.232166
0.24509 0.289067 0.232013
0.259419 0.288624 0.231586
0.273472 0.288029 0.230976
0.287266 0.287297 0.230243
0.300816 0.286412 0.229358
0.314183 0.285405 0.228336
0.327443 0.284321 0.227253
0.340505 0.283009 0.22594
0.35346 0.281529 0.22446
0.366369 0.279881 0.222812
0.379141 0.27808 0.221012
0.391882 0.276112 0.219043
0.404715 0.274067 0.216999
0.417472 0.271748 0.214664
0.430259 0.26923 0.212146
0.443122 0.266514 0.209445
0.456107 0.2636 0.206516
0.469261 0.260456 0.203372
0.482612 0.257191 0.200107
0.496086 0.25362 0.196536
0.509773 0.249851 0.192752
0.523644 0.245899 0.1888
0.537713 0.241794 0.184695
0.55198 0.237598 0.180499
0.566476 0.233356 0.176272
0.581125 0.229007 0.171908
0.59585 0.224704 0.167605
0.610712 0.220462 0.163363
0.625742 0.216327 0.159228
0.64097 0.212421 0.155306
0.656275 0.208621 0.151507
0.671672 0.205051 0.147936
0.228717 0.301442 0.229953
0.242908 0.30132 0.229831
0.257282 0.300923 0.229435
0.271397 0.300374 0.228885
0.285237 0.299702 0.228199
0.298848 0.298878 0.22739
0.312352 0.297993 0.226505
0.325597 0.296895 0.225391
0.338689 0.295628 0.224125
0.35169 0.294194 0.222675
0.36463 0.292576 0.221057
0.377447 0.290806 0.219287
0.390311 0.28896 0.217441
0.403067 0.286839 0.21532
0.415839 0.284535 0.213016
0.428641 0.282032 0.210498
0.441505 0.279316 0.207797
0.454582 0.276478 0.204959
0.46772 0.273335 0.201801
0.48098 0.269978 0.198444
0.494438 0.266377 0.194842
0.508095 0.262577 0.191043
0.521935 0.258579 0.187045
0.536049 0.254536 0.182986
0.55024 0.250263 0.178714
0.564614 0.245899 0.174365
0.579187 0.241489 0.16994
0.593851 0.23711 0.16556
0.608667 0.232807 0.161257
0.623667 0.228656 0.157107
0.638743 0.224582 0.153017
0.653941 0.220691 0.149126
0.669261 0.217029 0.145464
0.226307 0.313405 0.227543
0.240513 0.313313 0.227436
0.254948 0.312978 0.2271
0.269139 0.312505 0.226627
0.283101 0.31194 0.226062
0.296818 0.311238 0.225345
0.310292 0.310323 0.224445
0.323598 0.30927 0.223377
0.336751 0.308049 0.222156
0.349798 0.306661 0.220768
0.362844 0.305165 0.219257
0.375723 0.303456 0.217563
0.38854 0.301564 0.215656
0.401328 0.299474 0.21355
0.414115 0.297185 0.211276
0.426947 0.294697 0.208789
0.439918 0.292088 0.206165
0.452918 0.289174 0.20325
0.466056 0.28603 0.200107
0.479316 0.282658 0.196735
0.49276 0.279057 0.193133
0.506401 0.275242 0.189303
0.520302 0.271305 0.185367
0.534295 0.26714 0.181186
0.54844 0.262837 0.176883
0.562783 0.258427 0.172473
0.57731 0.253956 0.168002
0.591897 0.249516 0.163561
0.606714 0.245212 0.159258
0.621592 0.240925 0.154955
0.636591 0.236759 0.150805
0.651713 0.232792 0.146822
0.666941 0.229038 0.143069
0.223667 0.325139 0.224903
0.237934 0.325093 0.224857
0.25243 0.324819 0.224582
0.266728 0.324453 0.224216
0.280766 0.323964 0.223713
0.294514 0.323278 0.223026
0.308049 0.322438 0.222187
0.321416 0.321447 0.221195
0.33463 0.320287 0.220035
0.347799 0.31902 0.218753
0.360876 0.31754 0.217273
0.373785 0.315862 0.215595
0.386633 0.314 0.213733
0.399466 0.311955 0.211673
0.412284 0.309712 0.209415
0.425238 0.307347 0.20705
0.438148 0.304677 0.204379
0.451179 0.301778 0.20148
0.464332 0.298634 0.198337
0.477577 0.295277 0.19498
0.491112 0.291752 0.19144
0.504753 0.287938 0.187625
0.518563 0.283909 0.183597
0.532525 0.279698 0.179385
0.546654 0.275364 0.175051
0.560952 0.270924 0.170596
0.575525 0.266499 0.166171
0.590066 0.262013 0.161685
0.604746 0.257557 0.157229
0.619547 0.253208 0.152865
0.63447 0.248981 0.148638
0.649531 0.244938 0.144579
0.664775 0.241184 0.140841
0.220813 0.33666 0.222049
0.235142 0.336675 0.222065
0.249805 0.336568 0.221942
0.264118 0.336233 0.221607
0.278172 0.33576 0.221118
0.291997 0.335134 0.220508
0.305608 0.334371 0.21973
0.319081 0.333486 0.218845
0.332418 0.332448 0.217807
0.345602 0.331182 0.216541
0.358694 0.329732 0.215076
0.371664 0.328115 0.213458
0.384573 0.326314 0.211643
0.397513 0.324361 0.209689
0.410422 0.322194 0.207538
0.423331 0.319783 0.205112
0.436271 0.317159 0.202472
0.449317 0.314275 0.199603
0.462501 0.311162 0.196475
0.475837 0.307897 0.193194
0.489326 0.304326 0.189624
0.502968 0.300496 0.185794
0.516762 0.296468 0.18175
0.530724 0.292256 0.177539
0.544839 0.287892 0.17319
0.559182 0.283497 0.16878
0.573632 0.27895 0.164233
0.588144 0.274434 0.159701
0.602777 0.269932 0.155215
0.617533 0.265522 0.15079
0.632395 0.261234 0.146502
0.647471 0.257206 0.142458
0.662562 0.253315 0.138567
0.217716 0.347997 0.218952
0.232197 0.348165 0.219104
0.24683 0.348028 0.218967
0.261219 0.347768 0.218692
0.275349 0.347356 0.21828
0.289235 0.346822 0.217731
0.302953 0.346151 0.217075
0.316533 0.345373 0.216281
0.329885 0.344366 0.215259
0.343145 0.34316 0.214069
0.356313 0.341787 0.21268
0.369345 0.34023 0.211124
0.382361 0.338537 0.209415
0.395361 0.336645 0.207523
0.408286 0.334493 0.205371
0.421241 0.332128 0.203006
0.434226 0.329534 0.200412
0.447318 0.326711 0.197574
0.460624 0.32372 0.194568
0.47393 0.320409 0.191257
0.487419 0.316838 0.187686
0.501076 0.313024 0.183871
0.514885 0.308995 0.179828
0.528893 0.304829 0.175662
0.543038 0.300511 0.171344
0.55729 0.296025 0.166842
0.57171 0.291447 0.162264
0.586191 0.286885 0.157702
0.600793 0.282353 0.153155
0.615564 0.277958 0.148775
0.630411 0.27364 0.144442
0.645335 0.269474 0.140261
0.660365 0.265522 0.136309
0.214389 0.359274 0.215625
0.228855 0.359411 0.215763
0.243565 0.359335 0.215686
0.258015 0.359136 0.215488
0.272221 0.358816 0.215152
0.28629 0.35845 0.214786
0.300053 0.357824 0.21416
0.313649 0.357061 0.213382
0.327077 0.356115 0.212451
0.340414 0.355001 0.211322
0.353689 0.353719 0.210025
0.366873 0.352316 0.208621
0.379919 0.350652 0.206943
0.39292 0.348775 0.205066
0.405921 0.346685 0.202976
0.418936 0.344381 0.200671
0.432013 0.341894 0.198169
0.445228 0.339162 0.195438
0.458488 0.336126 0.192401
0.471824 0.33286 0.18912
0.485344 0.32932 0.18558
0.499031 0.325536 0.181781
0.512917 0.321569 0.177813
0.526925 0.317403 0.173648
0.541024 0.313054 0.169284
0.555291 0.308553 0.164797
0.569696 0.303975 0.160204
0.584161 0.299397 0.155612
0.598795 0.294896 0.15111
0.613489 0.290425 0.146639
0.628275 0.286046 0.14226
0.643168 0.281834 0.138033
0.658152 0.277821 0.13402
0.210803 0.370275 0.212039
0.22533 0.370474 0.212238
0.240101 0.370474 0.212222
0.254627 0.370352 0.2121
0.269001 0.370184 0.211933
0.283055 0.369802 0.211536
0.29691 0.369268 0.211002
0.310582 0.368566 0.2103
0.324102 0.367727 0.209445
0.337514 0.36669 0.208408
0.350942 0.36556 0.207263
0.364126 0.364157 0.205859
0.377249 0.36257 0.204273
0.390341 0.360769 0.202457
0.403418 0.358755 0.200443
0.416526 0.356542 0.19823
0.429709 0.354147 0.195819
0.442908 0.351431 0.193103
0.45623 0.348455 0.190112
0.469627 0.34522 0.186892
0.483192 0.341726 0.183383
0.497002 0.338079 0.179721
0.510872 0.334096 0.175738
0.524865 0.329915 0.171557
0.538994 0.325567 0.167208
0.553246 0.32108 0.162707
0.567712 0.316533 0.158145
0.582208 0.312001 0.153613
0.596765 0.307424 0.149035
0.611429 0.302907 0.144503
0.626169 0.298497 0.140093
0.641032 0.29424 0.135836
0.656031 0.290257 0.131838
0.206928 0.381125 0.208164
0.221515 0.381399 0.208423
0.236347 0.38146 0.208469
0.251057 0.381506 0.208515
0.2654 0.381323 0.208331
0.279545 0.381018 0.208011
0.293477 0.38056 0.207553
0.307225 0.37995 0.206943
0.320928 0.379278 0.206256
0.334432 0.378332 0.20531
0.34786 0.377188 0.204166
0.361135 0.375891 0.202853
0.37435 0.37438 0.201328
0.387518 0.372656 0.199619
0.400763 0.370825 0.197772
0.413931 0.368673 0.195621
0.427115 0.366278 0.19321
0.440391 0.363622 0.190555
0.453788 0.360708 0.18764
0.467262 0.35758 0.184482
0.480964 0.354208 0.181125
0.494728 0.350515 0.177401
0.508644 0.346563 0.173465
0.522667 0.342428 0.169314
0.536828 0.338109 0.164996
0.551141 0.333684 0.160555
0.565621 0.329152 0.156024
0.580087 0.324575 0.151431
0.594644 0.319997 0.146838
0.609293 0.315465 0.142306
0.624018 0.31104 0.137881
0.638895 0.306798 0.133639
0.653849 0.30277 0.129595
0.202747 0.391852 0.203983
0.217472 0.392248 0.204364
0.232395 0.392401 0.204517
0.247074 0.392432 0.204532
0.261509 0.392325 0.204425
0.275715 0.392096 0.204196
0.289738 0.39173 0.203815
0.30367 0.391287 0.203372
0.317372 0.390616 0.202701
0.330968 0.389761 0.201831
0.344488 0.388708 0.200778
0.357855 0.387503 0.199557
0.37116 0.386084 0.198138
0.384512 0.384558 0.196597
0.397757 0.382712 0.194751
0.411017 0.380652 0.192676
0.424292 0.378347 0.190356
0.437659 0.375769 0.187778
0.451133 0.37293 0.184939
0.464744 0.36994 0.181933
0.478447 0.366567 0.178561
0.492271 0.362936 0.174914
0.506233 0.359045 0.171023
0.520317 0.35494 0.166918
0.5346 0.350759 0.162722
0.548928 0.346334 0.158282
0.563378 0.341772 0.153719
0.577844 0.337194 0.149142
0.592416 0.332616 0.144564
0.60708 0.328115 0.140047
0.621897 0.323751 0.135683
0.636713 0.319463 0.13138
0.651606 0.315373 0.127275
0.198306 0.402518 0.199542
0.213046 0.40293 0.199954
0.228031 0.403143 0.200153
0.242786 0.403235 0.200229
0.257298 0.403204 0.200198
0.27158 0.403052 0.200046
0.285786 0.402869 0.199847
0.299718 0.402441 0.199405
0.313512 0.401846 0.19881
0.327199 0.401083 0.198047
0.34081 0.400122 0.19707
0.35436 0.399084 0.196033
0.367773 0.397787 0.19472
0.38114 0.396262 0.193194
0.394476 0.394522 0.19144
0.407828 0.392538 0.189456
0.421195 0.390326 0.187228
0.43476 0.387945 0.184848
0.44831 0.385199 0.182086
0.461921 0.382193 0.179065
0.475685 0.378897 0.175769
0.489601 0.375326 0.172198
0.503639 0.371511 0.168383
0.517876 0.367575 0.164431
0.532113 0.363348 0.160189
0.546487 0.358953 0.155795
0.560983 0.354437 0.151263
0.575479 0.349905 0.146715
0.590082 0.345357 0.142184
0.604822 0.340917 0.137728
0.619562 0.336492 0.133288
0.634379 0.332204 0.128985
0.649271 0.328099 0.12488
0.1935 0.413046 0.194736
0.20827 0.413489 0.195178
0.223316 0.413764 0.195438
0.238148 0.413931 0.19559
0.252781 0.414038 0.195697
0.267201 0.414008 0.195651
0.281392 0.413809 0.195438
0.295415 0.413458 0.195087
0.3093 0.41297 0.194583
0.323079 0.412299 0.193912
0.336873 0.411521 0.193118
0.350454 0.410513 0.192111
0.363973 0.409308 0.19089
0.377432 0.407889 0.189456
0.39089 0.406241 0.187823
0.404334 0.404379 0.185931
0.417899 0.40235 0.183902
0.431464 0.399969 0.181521
0.445121 0.39733 0.178866
0.458839 0.394415 0.175952
0.472694 0.391211 0.172732
0.486686 0.387732 0.169238
0.500893 0.384085 0.165591
0.515114 0.380133 0.161624
0.529442 0.375967 0.157458
0.543862 0.371633 0.153109
0.558404 0.367163 0.148638
0.573037 0.362753 0.144228
0.587671 0.358236 0.139696
0.602365 0.35375 0.13521
0.617121 0.34934 0.13077
0.631937 0.345052 0.126482
0.646845 0.340948 0.122377
0.188296 0.423453 0.189532
0.203128 0.423972 0.190036
0.21825 0.424292 0.190356
0.233188 0.424567 0.190616
0.247898 0.42475 0.190799
0.262364 0.424765 0.190799
0.276631 0.424659 0.190677
0.290745 0.424399 0.190417
0.304723 0.423987 0.18999
0.3187 0.423514 0.189517
0.332525 0.422766 0.188754
0.346197 0.421851 0.187839
0.359808 0.420737 0.186709
0.373388 0.419425 0.185382
0.386999 0.41796 0.183917
0.40061 0.416236 0.182177
0.414191 0.414237 0.180179
0.427863 0.411963 0.17789
0.441611 0.409415 0.175326
0.455436 0.406607 0.172519
0.46949 0.403586 0.169497
0.483604 0.400229 0.166125
0.49781 0.396582 0.162463
0.512108 0.392691 0.158572
0.526513 0.388617 0.154482
0.541009 0.38436 0.150225
0.555718 0.380056 0.145907
0.570321 0.375601 0.141436
0.584985 0.37113 0.136965
0.599725 0.366674 0.132494
0.614511 0.36231 0.128115
0.629374 0.358038 0.123842
0.644373 0.35404 0.119829
0.182696 0.433799 0.183932
0.197589 0.434379 0.184497
0.212848 0.434852 0.184955
0.227817 0.435157 0.18526
0.242557 0.435355 0.185443
0.257099 0.435431 0.185519
0.271458 0.435416 0.185489
0.28571 0.435294 0.185351
0.29984 0.435035 0.185092
0.313817 0.434562 0.184619
0.327733 0.433921 0.183948
0.341527 0.433112 0.183139
0.355261 0.43212 0.182132
0.368994 0.430961 0.180972
0.382712 0.429587 0.179583
0.396384 0.427939 0.177935
0.410101 0.426062 0.176043
0.423896 0.423911 0.173892
0.437766 0.421485 0.17145
0.451774 0.41886 0.168811
0.465873 0.4159 0.165835
0.480095 0.412634 0.16257
0.494408 0.409094 0.159014
0.508812 0.40531 0.15523
0.523293 0.401328 0.151217
0.537987 0.397238 0.147143
0.552682 0.39292 0.142809
0.567361 0.38854 0.138415
0.582086 0.384131 0.133989
0.596857 0.379721 0.12958
0.611795 0.375479 0.125322
0.626719 0.371283 0.121126
0.641672 0.367254 0.117067
0.176654 0.444099 0.17789
0.191669 0.444785 0.178576
0.206912 0.445243 0.179019
0.221942 0.445609 0.17937
0.236759 0.445899 0.179644
0.251377 0.446052 0.179797
0.265843 0.446128 0.179873
0.280217 0.446128 0.179858
0.294392 0.445914 0.179629
0.308476 0.445548 0.179263
0.322499 0.445014 0.178698
0.336385 0.444312 0.177981
0.350332 0.443519 0.177188
0.364141 0.442435 0.176104
0.377951 0.441154 0.174792
0.391745 0.439628 0.173266
0.40557 0.437858 0.171481
0.419532 0.435874 0.169497
0.4336 0.433631 0.167239
0.447669 0.431067 0.164675
0.461875 0.428199 0.161791
0.476188 0.42504 0.158618
0.490623 0.421622 0.1552
0.505226 0.418021 0.151583
0.51986 0.414176 0.147723
0.534539 0.410101 0.143633
0.549325 0.405859 0.139391
0.564095 0.401587 0.135103
0.578927 0.397269 0.13077
0.593881 0.393027 0.126528
0.608804 0.388785 0.122255
0.623758 0.384619 0.11809
0.638773 0.380621 0.114076
0.170321 0.454429 0.171557
0.185306 0.455085 0.172213
0.20061 0.455589 0.172702
0.215702 0.456016 0.173114
0.230579 0.456367 0.173449
0.24538 0.456703 0.173785
0.259907 0.45684 0.173922
0.274296 0.456855 0.173922
0.288548 0.456733 0.173785
0.302739 0.456458 0.17351
0.316899 0.456046 0.173083
0.330983 0.455543 0.172564
0.344945 0.454765 0.171771
0.358862 0.453803 0.170794
0.372793 0.452628 0.169619
0.386725 0.45124 0.168215
0.400732 0.449653 0.166613
0.414832 0.447822 0.164767
0.428977 0.44564 0.162585
0.443183 0.443214 0.160143
0.457527 0.440482 0.157397
0.471977 0.437461 0.154376
0.486595 0.434226 0.15111
0.501289 0.430732 0.147616
0.51603 0.426978 0.143862
0.530846 0.423041 0.139895
0.545754 0.418921 0.135775
0.560632 0.41474 0.131579
0.575647 0.410605 0.127428
0.590616 0.406378 0.123201
0.605615 0.402197 0.119005
0.62063 0.398108 0.114885
0.635691 0.394156 0.110933
0.163439 0.464652 0.164691
0.178485 0.465354 0.165377
0.193835 0.465919 0.165927
0.208988 0.466407 0.1664
0.224033 0.466896 0.166888
0.238788 0.467216 0.167193
0.253407 0.46743 0.167407
0.267887 0.467536 0.167498
0.282231 0.467506 0.167452
0.296529 0.467353 0.167285
0.310857 0.467109 0.167025
0.324987 0.466636 0.166537
0.339071 0.465995 0.165881
0.353124 0.465141 0.165026
0.367163 0.464088 0.163958
0.381323 0.462928 0.162783
0.395438 0.461433 0.161288
0.409613 0.459678 0.159518
0.423896 0.457649 0.157473
0.438239 0.455344 0.155169
0.452766 0.452796 0.152605
0.46746 0.450019 0.149798
0.482185 0.446876 0.146654
0.496986 0.443488 0.143252
0.511849 0.439872 0.13962
0.526802 0.436057 0.13579
0.541878 0.43212 0.131838
0.556939 0.428107 0.127825
0.571954 0.423987 0.12369
0.587015 0.419837 0.119524
0.60209 0.415747 0.115419
0.617212 0.411734 0.111406
0.63241 0.407935 0.107576
0.156176 0.474891 0.157412
0.171237 0.475608 0.158129
0.186709 0.47631 0.158801
0.201938 0.47686 0.15935
0.216953 0.477333 0.159808
0.231785 0.477714 0.160174
0.246464 0.478004 0.160449
0.261036 0.478187 0.160632
0.275578 0.478355 0.160784
0.289967 0.478279 0.160708
0.304311 0.47805 0.160464
0.318532 0.477684 0.160067
0.332738 0.47715 0.159533
0.346914 0.476432 0.158801
0.361196 0.475624 0.157961
0.375387 0.474479 0.156817
0.389624 0.473121 0.155444
0.403967 0.471519 0.153841
0.418418 0.469657 0.151965
0.432944 0.467552 0.149844
0.447684 0.465202 0.147478
0.462455 0.462486 0.144747
0.477333 0.45951 0.141756
0.492302 0.456275 0.138521
0.507317 0.452811 0.135027
0.522438 0.449165 0.13138
0.537667 0.44538 0.127565
0.552804 0.441444 0.123629
0.567956 0.437446 0.119615
0.583124 0.433417 0.115572
0.598306 0.429419 0.111543
0.613611 0.425589 0.107713
0.628824 0.421805 0.103914
0.148547 0.485145 0.149783
0.163714 0.485985 0.150607
0.179171 0.486641 0.151263
0.194415 0.487236 0.151827
0.209491 0.487755 0.152346
0.224399 0.488212 0.152789
0.239155 0.488563 0.153124
0.25388 0.488914 0.15346
0.268421 0.489067 0.153597
0.282902 0.489097 0.153613
0.297353 0.488975 0.153475
0.311696 0.488716 0.153201
0.325994 0.488289 0.152758
0.340398 0.4878 0.152255
0.354726 0.487022 0.151476
0.369085 0.486046 0.150484
0.383474 0.48484 0.149264
0.397955 0.483375 0.147784
0.412665 0.481773 0.146166
0.427329 0.479805 0.144183
0.442161 0.477546 0.141909
0.457084 0.474983 0.139345
0.472114 0.47216 0.136492
0.487251 0.469093 0.13341
0.502525 0.465888 0.13019
0.517769 0.462364 0.12665
0.533089 0.45864 0.122927
0.548348 0.454841 0.119097
0.563622 0.450965 0.115221
0.578943 0.447089 0.11133
0.594324 0.443275 0.1075
0.609628 0.43946 0.103655
0.624933 0.435752 0.0999313
0.140734 0.495552 0.14197
0.155856 0.496345 0.142733
0.171313 0.497017 0.143404
0.186603 0.497642 0.143999
0.201709 0.498207 0.144564
0.216739 0.498772 0.145113
0.231601 0.499229 0.145556
0.246311 0.499565 0.145876
0.260914 0.499794 0.14609
0.275486 0.499901 0.146181
0.290044 0.499886 0.146151
0.304601 0.49984 0.14609
0.319051 0.49955 0.1458
0.333486 0.499092 0.145312
0.347921 0.498436 0.14464
0.362417 0.497597 0.143786
0.376959 0.496544 0.142718
0.391714 0.495338 0.141512
0.406455 0.493767 0.139925
0.421286 0.491951 0.138094
0.436255 0.48986 0.135973
0.451377 0.48748 0.133577
0.466575 0.48481 0.130907
0.481956 0.482002 0.128069
0.497292 0.478843 0.124895
0.512703 0.475486 0.121523
0.528176 0.471931 0.117952
0.543587 0.468269 0.114275
0.559014 0.464546 0.110536
0.574517 0.460853 0.106828
0.589944 0.457084 0.103044
0.605371 0.453376 0.099321
0.620783 0.449775 0.0957046
0.132616 0.505959 0.133852
0.147738 0.506752 0.13463
0.163226 0.507439 0.135302
0.178546 0.508095 0.135943
0.193759 0.508766 0.136599
0.208789 0.509346 0.137163
0.223682 0.509834 0.137636
0.238468 0.510246 0.138033
0.253178 0.510567 0.138338
0.267842 0.510765 0.138521
0.282582 0.510918 0.138659
0.297154 0.510903 0.138628
0.311711 0.510719 0.13843
0.326268 0.510384 0.138079
0.340856 0.509865 0.137545
0.355459 0.509133 0.136797
0.370245 0.508324 0.135973
0.385046 0.507164 0.134798
0.399954 0.50576 0.133379
0.414923 0.504097 0.131701
0.43006 0.502144 0.129732
0.445426 0.500023 0.127596
0.460807 0.497536 0.125093
0.476265 0.494789 0.122316
0.491768 0.491798 0.11931
0.507332 0.488594 0.116091
0.522957 0.485191 0.112673
0.538628 0.481804 0.10927
0.554208 0.478218 0.105653
0.569757 0.474571 0.101991
0.585306 0.470924 0.0983291
0.600855 0.467338 0.094728
0.616388 0.463859 0.0912337
0.124346 0.516487 0.125582
0.139467 0.517281 0.126345
0.154955 0.517968 0.127031
0.170397 0.518746 0.127794
0.185595 0.519402 0.128435
0.200656 0.520012 0.129015
0.215595 0.520546 0.129534
0.230442 0.521004 0.129992
0.245274 0.521447 0.130404
0.260075 0.521798 0.130739
0.27483 0.521965 0.130892
0.289479 0.522011 0.130922
0.304128 0.52192 0.130816
0.318791 0.521691 0.130571
0.333562 0.521355 0.13022
0.348348 0.520806 0.129656
0.363149 0.520012 0.128832
0.378073 0.51899 0.127794
0.393133 0.517723 0.126513
0.40827 0.516213 0.124987
0.423651 0.514519 0.123278
0.439094 0.512474 0.121202
0.454627 0.510124 0.118853
0.470253 0.507546 0.116258
0.485924 0.504738 0.11342
0.501656 0.501686 0.110353
0.517555 0.498558 0.10721
0.533272 0.495216 0.103838
0.549004 0.491768 0.100389
0.564721 0.488289 0.0968795
0.580407 0.484779 0.09337
0.596078 0.481315 0.0898909
0.611841 0.478065 0.0866102
0.115969 0.527184 0.117205
0.131121 0.528008 0.117998
0.1467 0.528786 0.118776
0.162066 0.529473 0.119448
0.177264 0.530144 0.120089
0.19237 0.530785 0.120714
0.207355 0.531365 0.121279
0.222293 0.531929 0.121828
0.237186 0.532433 0.122301
0.252003 0.532784 0.122637
0.266819 0.533028 0.122866
0.281575 0.533165 0.122988
0.296315 0.533181 0.122988
0.311131 0.533089 0.122881
0.325978 0.532845 0.122606
0.340841 0.532372 0.122118
0.355779 0.531701 0.121431
0.37084 0.5308 0.120516
0.386023 0.529671 0.119371
0.401419 0.52842 0.11809
0.416861 0.526787 0.116442
0.432456 0.52488 0.114519
0.448142 0.522698 0.112322
0.46392 0.520272 0.10988
0.47985 0.517708 0.107286
0.495781 0.514855 0.104433
0.511757 0.511788 0.101335
0.527642 0.508614 0.0981308
0.543511 0.505318 0.0948348
0.55938 0.501991 0.0914778
0.575326 0.498741 0.0882124
0.591165 0.49543 0.0848859
0.606943 0.492195 0.0816358
0.107805 0.53814 0.109041
0.122988 0.538979 0.10988
0.138491 0.539681 0.110552
0.153857 0.540383 0.111238
0.16907 0.541054 0.111894
0.184176 0.541695 0.11252
0.199298 0.542412 0.113207
0.214237 0.542977 0.113756
0.229114 0.543465 0.114229
0.243977 0.543862 0.114611
0.258854 0.544152 0.114885
0.273701 0.544396 0.115099
0.288609 0.544564 0.115251
0.303456 0.544518 0.115175
0.318364 0.544305 0.114946
0.333318 0.543923 0.114549
0.348363 0.543374 0.113985
0.363592 0.542657 0.113252
0.378973 0.541711 0.112276
0.394385 0.540475 0.111025
0.409979 0.538979 0.109514
0.425711 0.537224 0.107729
0.441581 0.53521 0.105699
0.457588 0.533028 0.103487
0.473625 0.530571 0.101015
0.489708 0.527855 0.0982834
0.505837 0.524956 0.0953689
0.521904 0.521935 0.0923323
0.537942 0.518822 0.089189
0.554055 0.515724 0.0860761
0.570077 0.512551 0.0828717
0.586053 0.509377 0.0796979
0.601984 0.506294 0.076585
0.0998856 0.549416 0.101122
0.114946 0.550149 0.101823
0.130404 0.550805 0.102464
0.145754 0.551476 0.10312
0.160983 0.552163 0.103777
0.176181 0.552911 0.104509
