modules/luts/cube_folder/Wash.CUBE
TITLE "Generated by Resolve"
LUT_3D_SIZE 9
0.237049 0.251408 0.238285
0.292393 0.248508 0.235401
0.345205 0.243809 0.230686
0.396506 0.236851 0.223728
0.447761 0.227283 0.21416
0.50106 0.21474 0.201602
0.557687 0.199481 0.186358
0.617441 0.183368 0.170245
0.679561 0.169146 0.156024
0.228717 0.301442 0.229953
0.285237 0.299702 0.228199
0.338689 0.295628 0.224125
0.390311 0.28896 0.217441
0.441505 0.279316 0.207797
0.494438 0.266377 0.194842
0.55024 0.250263 0.178714
0.608667 0.232807 0.161257
0.669261 0.217029 0.145464
0.217716 0.347997 0.218952
0.275349 0.347356 0.21828
0.329885 0.344366 0.215259
0.382361 0.338537 0.209415
0.434226 0.329534 0.200412
0.487419 0.316838 0.187686
0.543038 0.300511 0.171344
0.600793 0.282353 0.153155
0.660365 0.265522 0.136309
0.202747 0.391852 0.203983
0.261509 0.392325 0.204425
0.317372 0.390616 0.202701
0.37116 0.386084 0.198138
0.424292 0.378347 0.190356
0.478447 0.366567 0.178561
0.5346 0.350759 0.162722
0.592416 0.332616 0.144564
0.651606 0.315373 0.127275
0.182696 0.433799 0.183932
0.242557 0.435355 0.185443
0.29984 0.435035 0.185092
0.355261 0.43212 0.182132
0.410101 0.426062 0.176043
0.465873 0.4159 0.165835
0.523293 0.401328 0.151217
0.582086 0.384131 0.133989
0.641672 0.367254 0.117067
0.156176 0.474891 0.157412
0.216953 0.477333 0.159808
0.275578 0.478355 0.160784
0.332738 0.47715 0.159533
0.389624 0.473121 0.155444
0.447684 0.465202 0.147478
0.507317 0.452811 0.135027
0.567956 0.437446 0.119615
0.628824 0.421805 0.103914
0.124346 0.516487 0.125582
0.185595 0.519402 0.128435
0.245274 0.521447 0.130404
0.304128 0.52192 0.130816
0.363149 0.520012 0.128832
0.423651 0.514519 0.123278
0.485924 0.504738 0.11342
0.549004 0.491768 0.100389
0.611841 0.478065 0.0866102
0.0921187 0.560906 0.0933547
0.15314 0.563577 0.0959335
0.213138 0.565927 0.0982071
0.272984 0.567376 0.0995651
0.333486 0.566918 0.0990311
0.395956 0.563363 0.0953994
0.460777 0.5561 0.0880446
0.526528 0.545769 0.0776226
0.591791 0.534463 0.0662242
0.0655222 0.610574 0.0667582
0.125093 0.61178 0.0678569
0.18439 0.613413 0.069398
0.244129 0.61474 0.0706188
0.305165 0.614801 0.070573
0.368841 0.612421 0.0680858
0.435615 0.60708 0.0626535
0.503792 0.599161 0.0546273
0.571588 0.590341 0.0457008
0.23534 0.249699 0.29485
0.292042 0.248142 0.293309
0.345876 0.244465 0.289631
0.398016 0.238346 0.283513
0.449851 0.229374 0.274556
0.503548 0.217212 0.262394
0.560159 0.201938 0.24712
0.619303 0.185229 0.230426
0.680415 0.16997 0.215167
0.228229 0.300954 0.28777
0.286168 0.300633 0.287449
0.340856 0.29778 0.284581
0.393408 0.292058 0.278859
0.445335 0.283131 0.269932
0.498634 0.270573 0.257374
0.55436 0.254383 0.241184
0.612116 0.236255 0.223056
0.671458 0.219196 0.205997
0.218433 0.34873 0.277989
0.277623 0.349645 0.278889
0.333639 0.348104 0.277348
0.387243 0.343404 0.272648
0.439948 0.335256 0.264485
0.493568 0.322972 0.252186
0.549035 0.306493 0.235691
0.606043 0.287602 0.216785
0.664134 0.269276 0.198444
0.204639 0.393744 0.264225
0.26508 0.395895 0.266361
0.322606 0.39585 0.266285
0.377798 0.392721 0.263142
0.431952 0.385992 0.256397
0.486641 0.374762 0.245136
0.542611 0.358755 0.229114
0.599634 0.339834 0.210178
0.657145 0.320897 0.191211
0.185641 0.436759 0.245258
0.247288 0.440085 0.248569
0.306294 0.441505 0.249943
0.363394 0.440269 0.248676
0.419516 0.435492 0.24387
0.476036 0.426047 0.234409
0.53344 0.41146 0.219791
0.591318 0.393362 0.201648
0.649088 0.37464 0.18291
0.159915 0.478645 0.219577
0.222553 0.482948 0.223835
0.282963 0.485756 0.226596
0.342 0.486427 0.227222
0.400397 0.483894 0.224659
0.459434 0.476951 0.21767
0.519234 0.464729 0.205402
0.579034 0.448508 0.189136
0.637949 0.430915 0.171496
0.128374 0.520546 0.188067
0.191531 0.525353 0.192813
0.253086 0.52929 0.196689
0.313848 0.531655 0.199008
0.374502 0.53138 0.198657
0.436088 0.526955 0.194186
0.498817 0.517632 0.184787
0.561151 0.503914 0.171023
0.621988 0.488197 0.155245
0.0956741 0.564492 0.155398
0.158526 0.568978 0.159808
0.220401 0.573205 0.163958
0.282078 0.576486 0.167163
0.344244 0.577691 0.168292
0.40795 0.575372 0.165911
0.47332 0.568658 0.159106
0.53843 0.557687 0.148058
0.601694 0.544366 0.134661
0.0674907 0.612589 0.127245
0.12874 0.615457 0.130022
0.189822 0.618875 0.133364
0.251316 0.621942 0.136339
0.313939 0.623575 0.137865
0.378897 0.622492 0.13669
0.44625 0.617716 0.131823
0.513878 0.609232 0.123247
0.579705 0.598459 0.112383
0.231754 0.246113 0.34876
0.289448 0.245563 0.348226
0.344366 0.242969 0.345647
0.397452 0.237781 0.340475
0.450294 0.229786 0.332494
0.504677 0.218326 0.321035
0.561669 0.203418 0.306157
0.620737 0.186633 0.289387
0.681254 0.170779 0.273548
0.225452 0.298177 0.342504
0.284474 0.298939 0.343282
0.34049 0.297429 0.341756
0.394217 0.292851 0.337209
0.447242 0.285039 0.329397
0.50132 0.273243 0.317601
0.557427 0.257435 0.301793
0.615061 0.23917 0.283543
0.673655 0.221378 0.265766
0.216724 0.347036 0.333837
0.277256 0.349279 0.33608
0.334844 0.34931 0.33611
0.389868 0.346029 0.33283
0.443748 0.33904 0.325841
0.498177 0.327581 0.314382
0.553979 0.311437 0.298222
0.610834 0.292363 0.279164
0.66804 0.273152 0.259937
0.204166 0.393301 0.32134
0.266148 0.396979 0.325017
0.325383 0.398642 0.326665
0.382315 0.397238 0.325246
0.437827 0.391867 0.319875
0.493462 0.381567 0.30956
0.549828 0.365972 0.29395
0.606592 0.346777 0.274739
0.66305 0.326787 0.254734
0.18645 0.437583 0.303685
0.24979 0.442603 0.308675
0.310628 0.445853 0.31191
0.36965 0.446525 0.312551
0.42742 0.443381 0.309392
0.485069 0.43508 0.301076
0.543053 0.421057 0.287037
0.600641 0.40267 0.26862
0.657237 0.382788 0.248707
0.161898 0.480644 0.279179
0.226307 0.486717 0.285222
0.288685 0.491478 0.289967
0.349752 0.494179 0.292622
0.410056 0.493568 0.291966
0.470466 0.487984 0.286366
0.531121 0.476616 0.274952
0.590677 0.460166 0.258473
0.648264 0.441215 0.23949
0.131167 0.523354 0.248508
0.196078 0.529915 0.255024
0.259754 0.535958 0.261021
0.322621 0.540444 0.265461
0.38529 0.542168 0.26714
0.448554 0.539437 0.264347
0.512276 0.53109 0.25597
0.574563 0.517327 0.242145
0.634043 0.500237 0.22501
0.0986191 0.567468 0.216037
0.163195 0.573678 0.222171
0.227161 0.579995 0.228443
0.290913 0.585351 0.233722
0.355138 0.588602 0.236912
0.420645 0.588083 0.236332
0.487205 0.582559 0.230732
0.552468 0.571725 0.219837
0.614527 0.557183 0.205234
0.0696422 0.614771 0.187121
0.13257 0.619318 0.191592
0.19559 0.624674 0.196857
0.259068 0.629725 0.201846
0.323598 0.633265 0.20531
0.390478 0.634089 0.206043
0.459113 0.630594 0.202472
0.527001 0.62237 0.194156
0.591806 0.610544 0.182254
0.226505 0.240848 0.401724
0.28481 0.240925 0.401816
0.340658 0.239246 0.400153
0.394812 0.235126 0.396063
0.448737 0.228229 0.389197
0.504112 0.217746 0.378729
0.561791 0.203525 0.364523
0.621302 0.187167 0.348196
0.681682 0.171176 0.332235
0.220462 0.293202 0.395773
0.280232 0.294697 0.397284
0.337362 0.294286 0.396887
0.392447 0.291081 0.393698
0.446799 0.284596 0.387228
0.502037 0.273945 0.376593
0.558923 0.2589 0.361563
0.616999 0.241093 0.343771
0.675395 0.223087 0.32578
0.212528 0.342855 0.38793
0.273991 0.346029 0.391104
0.332784 0.34725 0.39234
0.389532 0.345693 0.390784
0.444953 0.340246 0.385336
0.500679 0.330068 0.375174
0.557366 0.314809 0.35993
0.614588 0.296101 0.341222
0.671489 0.276585 0.321706
0.201144 0.39028 0.376623
0.264317 0.395148 0.381491
0.325048 0.398306 0.384634
0.383917 0.39884 0.385168
0.441169 0.395209 0.381537
0.498161 0.386267 0.372595
0.555505 0.371633 0.357961
0.612573 0.352758 0.339071
0.66865 0.332357 0.318669
0.184817 0.43595 0.360372
0.249561 0.442374 0.366781
0.312169 0.447395 0.371786
0.373236 0.450111 0.374502
0.433036 0.448997 0.373373
0.492271 0.442283 0.366644
0.551369 0.429374 0.353719
0.609308 0.411322 0.335653
0.665339 0.39086 0.31519
0.161715 0.480476 0.337362
0.227649 0.488075 0.344945
0.291981 0.494789 0.351629
0.355215 0.499657 0.356466
0.417777 0.501274 0.358068
0.480186 0.497704 0.354482
0.542184 0.487678 0.344427
0.602152 0.471626 0.328344
0.659113 0.452049 0.308751
0.132265 0.524468 0.308003
0.19884 0.532692 0.316182
0.264515 0.540734 0.324193
0.329625 0.547463 0.330892
0.394598 0.551476 0.334859
0.460166 0.551049 0.334386
0.525536 0.54435 0.327657
0.588434 0.531197 0.314458
0.647364 0.513558 0.296788
0.100465 0.569329 0.27631
0.16672 0.577234 0.284138
0.2327 0.58555 0.292409
0.298695 0.593149 0.299947
0.365179 0.598642 0.305409
0.433127 0.60058 0.307286
0.501579 0.596933 0.303578
0.567636 0.586892 0.293492
0.629419 0.572076 0.278614
0.0712596 0.616419 0.247211
0.135927 0.622705 0.253422
0.200885 0.629999 0.260639
0.266545 0.637217 0.267796
0.33341 0.643091 0.273594
0.402609 0.646235 0.276677
0.473259 0.644755 0.27512
0.542153 0.637522 0.267826
0.606867 0.625605 0.255833
0.219516 0.23386 0.455634
0.278172 0.234272 0.456092
0.334661 0.233249 0.455085
0.389822 0.230121 0.452003
0.444892 0.224384 0.446281
0.501488 0.215106 0.437034
0.560235 0.201953 0.423926
0.620569 0.186419 0.408408
0.68127 0.170748 0.392782
0.213336 0.286076 0.449577
0.273503 0.287984 0.451514
0.331365 0.288289 0.45185
0.387732 0.286366 0.449943
0.443519 0.2813 0.444907
0.500206 0.272099 0.435737
0.558419 0.258396 0.422034
0.617411 0.241489 0.405158
0.676143 0.223819 0.387518
0.205814 0.336141 0.442176
0.267796 0.339834 0.445884
0.327504 0.34197 0.448035
0.385641 0.341802 0.447883
0.442802 0.338094 0.44419
0.500191 0.329564 0.435676
0.55845 0.315877 0.422019
0.616648 0.298146 0.404288
0.673884 0.27895 0.385107
0.195361 0.384512 0.43183
0.259251 0.390097 0.43743
0.321111 0.394369 0.441718
0.381567 0.39649 0.443839
0.440864 0.394903 0.442252
0.499763 0.387854 0.435218
0.558785 0.374899 0.422263
0.616861 0.357015 0.404395
0.673106 0.336797 0.384176
0.180392 0.43154 0.416968
0.245991 0.438834 0.424262
0.310109 0.44535 0.430777
0.373083 0.449958 0.435386
0.435203 0.451179 0.436591
0.496635 0.446647 0.432059
0.557427 0.435431 0.420844
0.616419 0.418418 0.40383
0.672618 0.398123 0.383536
0.158923 0.477699 0.395636
0.226017 0.486442 0.404364
0.292058 0.494865 0.412772
0.357412 0.501869 0.41976
0.422461 0.505974 0.42385
0.487449 0.504982 0.422843
0.551446 0.496941 0.414786
0.612543 0.482002 0.399847
0.669642 0.462562 0.380377
0.131136 0.523369 0.367971
0.199115 0.532982 0.377569
0.266606 0.54284 0.387396
0.333959 0.551812 0.396338
0.401495 0.558389 0.402884
0.469886 0.560769 0.405234
0.537636 0.556451 0.400885
0.601862 0.544625 0.389029
0.661051 0.527245 0.371618
0.100587 0.569497 0.33756
0.168368 0.578897 0.346929
0.23621 0.58909 0.357076
0.304463 0.598932 0.366873
0.373617 0.607111 0.375006
0.444434 0.611902 0.379751
0.515526 0.61088 0.378698
0.583322 0.602579 0.370352
0.645563 0.58822 0.355947
0.0719921 0.617182 0.309102
0.138109 0.624918 0.316777
0.204944 0.634073 0.325887
0.272755 0.643458 0.33521
0.342321 0.652018 0.343709
0.414374 0.658015 0.349645
0.48777 0.659281 0.350851
0.558694 0.654078 0.345586
0.624125 0.642878 0.334325
0.210758 0.225101 0.512749
0.269444 0.225544 0.513237
0.326268 0.224842 0.512581
0.382269 0.222568 0.510338
0.438437 0.217899 0.505714
0.49633 0.209934 0.497795
0.556497 0.198199 0.486091
0.618036 0.183856 0.471794
0.679545 0.169009 0.456992
0.204013 0.276753 0.506157
0.264225 0.278691 0.508141
0.32253 0.279454 0.508934
0.379843 0.278462 0.507973
0.436973 0.274754 0.504295
0.495262 0.267155 0.496727
0.555184 0.255146 0.484749
0.61561 0.239658 0.469306
0.675258 0.222919 0.452583
0.196475 0.326802 0.498772
0.258503 0.330541 0.502541
0.318761 0.333242 0.505257
0.377935 0.334096 0.506127
0.436683 0.33196 0.504036
0.496025 0.325399 0.49749
0.556298 0.313726 0.485832
0.616144 0.297627 0.469764
0.674342 0.279393 0.45156
0.186618 0.375769 0.489052
0.250614 0.38146 0.494759
0.313176 0.386435 0.499748
0.374746 0.38967 0.503014
0.435798 0.389822 0.503166
0.497093 0.385183 0.498543
0.558434 0.374533 0.487922
0.618341 0.358495 0.471901
0.675685 0.339361 0.452781
0.172808 0.423987 0.47541
0.238804 0.431647 0.48307
0.303761 0.439002 0.490425
0.368093 0.444984 0.496422
0.432135 0.448096 0.49955
0.496376 0.446372 0.497841
0.559777 0.437766 0.489235
0.620706 0.422705 0.474174
0.678019 0.40351 0.454994
0.153033 0.471824 0.455787
0.220737 0.481193 0.465141
0.287922 0.490745 0.474693
0.355016 0.499474 0.483421
0.422385 0.505898 0.48983
0.490486 0.508019 0.491951
0.557321 0.5028 0.486732
0.620325 0.489784 0.473716
0.678599 0.471519 0.455436
0.127123 0.519387 0.430045
0.196063 0.529961 0.440589
0.264958 0.541222 0.45185
0.334295 0.552163 0.462776
0.40444 0.561349 0.471931
0.476051 0.566934 0.477516
0.547066 0.565881 0.476432
0.613596 0.556344 0.46688
0.673961 0.540139 0.45066
0.0984665 0.567391 0.401556
0.1673 0.577844 0.411978
0.236698 0.589593 0.423682
0.307027 0.601511 0.435584
0.378927 0.612436 0.446464
0.453056 0.620523 0.454536
0.527642 0.622995 0.456977
0.598245 0.617517 0.451453
0.661936 0.604578 0.438499
0.0711376 0.616373 0.374411
0.138323 0.625162 0.383154
0.206775 0.635935 0.393881
0.276738 0.647456 0.405356
0.34905 0.658778 0.416632
0.42443 0.668086 0.425895
0.50132 0.672847 0.43061
0.575418 0.670817 0.428534
0.642695 0.661448 0.41912
0.200626 0.214984 0.574639
0.258976 0.215076 0.574777
0.315862 0.214435 0.574182
0.37232 0.212619 0.572412
0.429358 0.20882 0.568673
0.488457 0.202045 0.561959
0.55024 0.191928 0.551888
0.613336 0.179156 0.539162
0.676143 0.165576 0.525643
0.192859 0.265614 0.567056
0.252674 0.26714 0.568627
0.311025 0.267948 0.569482
0.368872 0.267491 0.569055
0.427054 0.26482 0.56643
0.48687 0.258732 0.560388
0.548699 0.248631 0.550332
0.610986 0.235019 0.536767
0.672099 0.21973 0.521508
0.184848 0.31519 0.559213
0.246357 0.31841 0.562463
0.306706 0.321172 0.56527
0.366445 0.322606 0.566735
0.426383 0.32166 0.56582
0.487572 0.316945 0.561151
0.550103 0.3075 0.551751
0.612146 0.293614 0.537896
0.672099 0.277134 0.521447
0.175113 0.364279 0.549661
0.238651 0.369497 0.55491
0.301259 0.374517 0.55996
0.363424 0.378347 0.563806
0.425742 0.379767 0.565255
0.489189 0.377264 0.562783
0.553201 0.369299 0.554849
0.615671 0.355795 0.541375
0.675044 0.338704 0.524315
0.162097 0.413275 0.536828
0.227756 0.420615 0.544167
0.292851 0.428092 0.551675
0.357855 0.434745 0.558358
0.42327 0.439246 0.56286
0.489891 0.439887 0.563531
0.556466 0.434455 0.558114
0.620279 0.422263 0.545937
0.679881 0.405356 0.529061
0.143801 0.462608 0.518715
0.211398 0.47187 0.527977
0.278935 0.481773 0.537896
0.346929 0.491386 0.547524
0.416022 0.49955 0.555688
0.486763 0.504295 0.560449
0.557183 0.502663 0.558831
0.623453 0.492897 0.549065
0.684016 0.476905 0.533089
0.120089 0.512367 0.495216
0.189059 0.522972 0.505821
0.258595 0.534874 0.517723
0.329122 0.54699 0.529824
0.401434 0.558358 0.541192
0.476081 0.566979 0.549813
0.551095 0.569909 0.552743
0.621149 0.563897 0.546731
0.683864 0.550027 0.532845
0.0936446 0.562615 0.469001
0.162722 0.573297 0.479667
0.233005 0.585916 0.492271
0.304845 0.599344 0.505684
0.379156 0.61268 0.51899
0.456596 0.624079 0.530373
0.535256 0.630625 0.536904
0.61004 0.629297 0.535561
0.676417 0.619058 0.525307
0.0682078 0.613474 0.443778
0.13576 0.622629 0.452918
0.205234 0.634409 0.464668
0.276921 0.647669 0.477882
0.351766 0.661509 0.491691
0.430564 0.674235 0.504387
0.511666 0.683207 0.513313
0.590143 0.685527 0.515618
0.660624 0.679362 0.509422
0.190631 0.20499 0.640375
0.248127 0.204227 0.639689
0.304707 0.203281 0.638804
0.361242 0.201526 0.63711
0.418799 0.198245 0.63389
0.478889 0.192462 0.628183
0.542123 0.18378 0.619562
0.606882 0.172671 0.608499
0.671214 0.160616 0.596506
0.181445 0.254185 0.631418
0.240253 0.254719 0.631998
0.298253 0.255161 0.632502
0.356115 0.254734 0.63212
0.414816 0.252567 0.630014
0.475883 0.247745 0.625238
0.539452 0.239384 0.616922
0.603738 0.227756 0.605371
0.666743 0.214359 0.59202
0.172488 0.302831 0.622675
0.232959 0.304997 0.624887
0.292744 0.30721 0.627146
0.352468 0.308629 0.628611
0.412955 0.308232 0.62826
0.475593 0.304952 0.625025
0.540169 0.297551 0.617685
0.604593 0.28603 0.60621
0.666789 0.271794 0.59202
0.162371 0.351553 0.612787
0.224765 0.355627 0.616892
0.286732 0.359991 0.621302
0.348837 0.36376 0.625101
0.411749 0.365774 0.627161
0.476722 0.364813 0.62623
0.54313 0.359213 0.620676
0.608347 0.348455 0.609964
0.670405 0.334051 0.595605
0.149645 0.400839 0.600259
0.214145 0.407004 0.60647
0.278569 0.413825 0.613321
0.343465 0.420356 0.619867
0.409506 0.425483 0.62504
0.477714 0.42771 0.627298
0.547036 0.42501 0.624628
0.614176 0.416144 0.615793
0.676844 0.402304 0.601999
0.132525 0.451347 0.583383
0.198978 0.459464 0.591516
0.265934 0.468788 0.600855
0.333883 0.478355 0.610452
0.403693 0.487221 0.619348
0.476081 0.493614 0.625757
0.549432 0.494911 0.627085
0.619654 0.489082 0.621271
0.683665 0.476555 0.608774
0.11075 0.503059 0.561868
0.178714 0.512642 0.571466
0.247837 0.524132 0.582956
0.318563 0.536461 0.5953
0.391852 0.548775 0.60763
0.468452 0.559365 0.618219
0.546578 0.565408 0.624277
0.621164 0.563912 0.622797
0.687663 0.553811 0.612711
0.086656 0.555657 0.538033
0.154879 0.565484 0.547875
0.224887 0.577829 0.560204
0.297353 0.591867 0.574243
0.373007 0.606546 0.588922
0.452873 0.620356 0.602731
0.535302 0.630671 0.613046
0.614954 0.634211 0.616571
0.685405 0.628061 0.610422
0.0635233 0.60882 0.515175
0.130373 0.617273 0.523613
0.199756 0.628977 0.535286
0.272343 0.643122 0.549416
0.348837 0.658595 0.564874
0.430411 0.674098 0.580362
0.515602 0.687144 0.593393
0.59913 0.69453 0.600748
0.67425 0.692988 0.599207
0.182574 0.196933 0.708629
0.238895 0.194995 0.706767
0.294713 0.193286 0.705119
0.350866 0.19115 0.703075
0.408469 0.1879 0.699886
0.469184 0.182757 0.69482
0.533532 0.175174 0.687312
0.599771 0.165545 0.67776
0.665766 0.155154 0.66743
0.171725 0.24448 0.698039
0.22916 0.243641 0.697261
0.286213 0.243122 0.696818
0.343618 0.242222 0.695979
0.40235 0.240101 0.693904
0.464073 0.235935 0.689815
0.528939 0.228855 0.682795
0.594949 0.218952 0.672969
0.659983 0.207568 0.661646
0.161456 0.291814 0.688014
0.220386 0.292439 0.688701
0.279042 0.293523 0.689845
0.33817 0.294316 0.6907
0.398642 0.293904 0.690349
0.461982 0.291341 0.687831
0.528054 0.285435 0.681987
0.594491 0.275929 0.672557
0.659083 0.264057 0.660746
0.150576 0.339757 0.677378
0.211215 0.342077 0.679759
0.271855 0.345129 0.682872
0.33312 0.348043 0.685817
0.396033 0.350057 0.687892
0.461738 0.349813 0.687694
0.529809 0.345892 0.683833
0.597482 0.337591 0.675578
0.662257 0.325872 0.66392
0.137743 0.388952 0.66482
0.200259 0.393133 0.669047
0.263218 0.398489 0.674434
0.327153 0.404059 0.680049
0.393072 0.409033 0.685084
0.461967 0.411963 0.688045
0.533089 0.411063 0.687205
0.603098 0.405051 0.681239
0.668956 0.394385 0.670619
0.121233 0.440085 0.648585
0.185611 0.446097 0.654643
0.251057 0.453925 0.662501
0.318059 0.462531 0.671138
0.387579 0.471107 0.679759
0.460548 0.47808 0.686763
0.535729 0.481209 0.689921
0.609216 0.478645 0.687404
0.676966 0.469841 0.678645
0.100984 0.493309 0.628626
0.166857 0.500816 0.636164
0.23444 0.51075 0.646113
0.304295 0.52221 0.657603
0.37734 0.534279 0.669688
0.454566 0.54548 0.680919
0.5346 0.553414 0.688884
0.61268 0.555413 0.690913
0.683528 0.549676 0.685191
0.079057 0.548074 0.607019
0.145251 0.555871 0.614832
0.21384 0.566812 0.625772
0.285588 0.580133 0.639109
0.361257 0.594812 0.653788
0.442008 0.609506 0.668513
0.526772 0.622141 0.681147
0.610178 0.62945 0.688457
0.685557 0.628199 0.687236
0.0583352 0.603677 0.586618
0.123247 0.610178 0.593133
0.191409 0.620645 0.603586
0.263493 0.634302 0.617227
0.340322 0.650111 0.633036
0.423163 0.666865 0.649805
0.511269 0.682826 0.665751
0.599161 0.69456 0.677485
0.679561 0.698314 0.681239
