modules/luts/cube_folder/Wash.CUBE
TITLE "Generated by Resolve"
LUT_3D_SIZE 5
0.237049 0.251408 0.238285
0.345205 0.243809 0.230686
0.447761 0.227283 0.21416
0.557687 0.199481 0.186358
0.679561 0.169146 0.156024
0.217716 0.347997 0.218952
0.329885 0.344366 0.215259
0.434226 0.329534 0.200412
0.543038 0.300511 0.171344
0.660365 0.265522 0.136309
0.182696 0.433799 0.183932
0.29984 0.435035 0.185092
0.410101 0.426062 0.176043
0.523293 0.401328 0.151217
0.641672 0.367254 0.117067
0.124346 0.516487 0.125582
0.245274 0.521447 0.130404
0.363149 0.520012 0.128832
0.485924 0.504738 0.11342
0.611841 0.478065 0.0866102
0.0655222 0.610574 0.0667582
0.18439 0.613413 0.069398
0.305165 0.614801 0.070573
0.435615 0.60708 0.0626535
0.571588 0.590341 0.0457008
0.231754 0.246113 0.34876
0.344366 0.242969 0.345647
0.450294 0.229786 0.332494
0.561669 0.203418 0.306157
0.681254 0.170779 0.273548
0.216724 0.347036 0.333837
0.334844 0.34931 0.33611
0.443748 0.33904 0.325841
0.553979 0.311437 0.298222
0.66804 0.273152 0.259937
0.18645 0.437583 0.303685
0.310628 0.445853 0.31191
0.42742 0.443381 0.309392
0.543053 0.421057 0.287037
0.657237 0.382788 0.248707
0.131167 0.523354 0.248508
0.259754 0.535958 0.261021
0.38529 0.542168 0.26714
0.512276 0.53109 0.25597
0.634043 0.500237 0.22501
0.0696422 0.614771 0.187121
0.19559 0.624674 0.196857
0.323598 0.633265 0.20531
0.459113 0.630594 0.202472
0.591806 0.610544 0.182254
0.219516 0.23386 0.455634
0.334661 0.233249 0.455085
0.444892 0.224384 0.446281
0.560235 0.201953 0.423926
0.68127 0.170748 0.392782
0.205814 0.336141 0.442176
0.327504 0.34197 0.448035
0.442802 0.338094 0.44419
0.55845 0.315877 0.422019
0.673884 0.27895 0.385107
0.180392 0.43154 0.416968
0.310109 0.44535 0.430777
0.435203 0.451179 0.436591
0.557427 0.435431 0.420844
0.672618 0.398123 0.383536
0.131136 0.523369 0.367971
0.266606 0.54284 0.387396
0.401495 0.558389 0.402884
0.537636 0.556451 0.400885
0.661051 0.527245 0.371618
0.0719921 0.617182 0.309102
0.204944 0.634073 0.325887
0.342321 0.652018 0.343709
0.48777 0.659281 0.350851
0.624125 0.642878 0.334325
0.200626 0.214984 0.574639
0.315862 0.214435 0.574182
0.429358 0.20882 0.568673
0.55024 0.191928 0.551888
0.676143 0.165576 0.525643
0.184848 0.31519 0.559213
0.306706 0.321172 0.56527
0.426383 0.32166 0.56582
0.550103 0.3075 0.551751
0.672099 0.277134 0.521447
0.162097 0.413275 0.536828
0.292851 0.428092 0.551675
0.42327 0.439246 0.56286
0.556466 0.434455 0.558114
0.679881 0.405356 0.529061
0.120089 0.512367 0.495216
0.258595 0.534874 0.517723
0.401434 0.558358 0.541192
0.551095 0.569909 0.552743
0.683864 0.550027 0.532845
0.0682078 0.613474 0.443778
0.205234 0.634409 0.464668
0.351766 0.661509 0.491691
0.511666 0.683207 0.513313
0.660624 0.679362 0.509422
0.182574 0.196933 0.708629
0.294713 0.193286 0.705119
0.408469 0.1879 0.699886
0.533532 0.175174 0.687312
0.665766 0.155154 0.66743
0.161456 0.291814 0.688014
0.279042 0.293523 0.689845
0.398642 0.293904 0.690349
0.528054 0.285435 0.681987
0.659083 0.264057 0.660746
0.137743 0.388952 0.66482
0.263218 0.398489 0.674434
0.393072 0.409033 0.685084
0.533089 0.411063 0.687205
0.668956 0.394385 0.670619
0.100984 0.493309 0.628626
0.23444 0.51075 0.646113
0.37734 0.534279 0.669688
0.5346 0.553414 0.688884
0.683528 0.549676 0.685191
0.0583352 0.603677 0.586618
0.191409 0.620645 0.603586
0.340322 0.650111 0.633036
0.511269 0.682826 0.665751
0.679561 0.698314 0.681239
