assets/cube/BW HIGH CONTRAST.cube
TITLE "Generated by Resolve"
LUT_3D_SIZE 5
0 0 0
0.0364691 0.0343786 0.0343786
0.0723583 0.0665446 0.0665446
0.108415 0.0979324 0.0979324
0.144762 0.131685 0.131685
0.110887 0.112963 0.110887
0.147814 0.147814 0.145739
0.191653 0.18793 0.185855
0.246265 0.237873 0.235798
0.309911 0.298909 0.296834
0.256855 0.262669 0.256855
0.32282 0.326558 0.320745
0.397162 0.397162 0.391348
0.477836 0.473167 0.467353
0.560021 0.552758 0.546944
0.49514 0.505623 0.49514
0.5776 0.585992 0.575509
0.66009 0.664759 0.654276
0.73959 0.73959 0.729107
0.811124 0.80853 0.798047
0.755444 0.768521 0.755444
0.824323 0.835309 0.822248
0.883299 0.890562 0.877485
0.928923 0.931517 0.918441
0.965774 0.965774 0.952697
0.01178 0.01178 0.0138705
0.0476997 0.0456092 0.0476997
0.0831922 0.0773938 0.079469
0.119631 0.109148 0.111238
0.156924 0.143847 0.145922
0.122347 0.124437 0.124437
0.160769 0.160769 0.160769
0.20737 0.203647 0.203647
0.266087 0.257694 0.257694
0.332296 0.321294 0.321294
0.277607 0.283406 0.279683
0.346258 0.349981 0.346258
0.422477 0.422477 0.418753
0.50486 0.500191 0.496452
0.587411 0.580133 0.57641
0.522286 0.532769 0.524376
0.604898 0.613291 0.604898
0.686229 0.690898 0.682506
0.76379 0.76379 0.755383
0.833082 0.830488 0.82208
0.778927 0.792004 0.781003
0.844694 0.855695 0.844694
0.898772 0.906035 0.895048
0.940902 0.943496 0.932509
0.976974 0.976974 0.965972
0.0236057 0.0236057 0.0294041
0.0585794 0.0564889 0.0623026
0.0938277 0.088014 0.0938277
0.130953 0.12047 0.126284
0.16968 0.156603 0.162402
0.133974 0.136049 0.139788
0.174426 0.174426 0.178149
0.224216 0.220493 0.224216
0.286961 0.278569 0.282292
0.35552 0.344518 0.348241
0.29926 0.305058 0.305058
0.370291 0.374014 0.374014
0.448554 0.448554 0.448554
0.531609 0.526925 0.526925
0.614588 0.607324 0.607324
0.549584 0.560067 0.555398
0.631388 0.63978 0.635111
0.711833 0.716503 0.711833
0.78703 0.78703 0.782345
0.853666 0.851072 0.846403
0.80148 0.814557 0.807279
0.863951 0.874952 0.867674
0.912428 0.919692 0.912428
0.952499 0.955093 0.947829
0.987823 0.987823 0.98056
0.0347143 0.0347143 0.0451972
0.0692912 0.0672007 0.0776837
0.104616 0.0988174 0.109285
0.142611 0.132143 0.142611
0.183169 0.170092 0.180575
0.146151 0.148241 0.156634
0.188739 0.188739 0.197131
0.242954 0.239231 0.247623
0.308156 0.299763 0.308156
0.379477 0.368475 0.376883
0.321736 0.32755 0.332219
0.394751 0.398474 0.403159
0.474937 0.474937 0.479606
0.558801 0.554116 0.558801
0.641428 0.63415 0.638819
0.576761 0.587243 0.587243
0.657908 0.666316 0.666316
0.736538 0.741222 0.741222
0.809598 0.809598 0.809598
0.872755 0.870161 0.870161
0.823056 0.836133 0.833539
0.880522 0.891508 0.888914
0.925048 0.932326 0.929732
0.963623 0.966217 0.963623
0.998993 0.998993 0.996399
0.0458991 0.0458991 0.0589761
0.0799573 0.0778821 0.090959
0.115816 0.110002 0.123079
0.154757 0.144274 0.157351
0.197681 0.184604 0.197681
0.159106 0.161181 0.172183
0.204578 0.204578 0.215564
0.262791 0.259068 0.270054
0.33077 0.322362 0.333364
0.404273 0.393286 0.404273
0.345205 0.351003 0.358267
0.420233 0.423957 0.43122
0.501762 0.501762 0.509041
0.58613 0.58146 0.588724
0.66775 0.660487 0.66775
0.603754 0.614237 0.616831
0.683986 0.692378 0.694972
0.760525 0.765194 0.767788
0.831479 0.831479 0.834073
0.889647 0.887053 0.889647
0.843351 0.856413 0.856413
0.895872 0.906874 0.906874
0.937118 0.944396 0.944396
0.974762 0.977356 0.977356
1 1 1
