assets/cube/BW HIGH CONTRAST.cube
TITLE "Generated by Resolve"
LUT_3D_SIZE 33
0 0 0
0.00434882 0.00407416 0.00407416
0.00901808 0.00849927 0.00849927
0.0138552 0.0130922 0.0130922
0.0185092 0.0174868 0.0174868
0.0230869 0.0218051 0.0218051
0.0275731 0.0260471 0.0260471
0.0320134 0.0302281 0.0302281
0.0364691 0.0343786 0.0343786
0.0410468 0.0386511 0.0386511
0.0454871 0.0427253 0.0427253
0.0499123 0.0467384 0.0467384
0.0543374 0.0507057 0.0507057
0.058793 0.0546578 0.0546578
0.0632944 0.0586252 0.0586252
0.0678874 0.0626535 0.0626535
0.0723583 0.0665446 0.0665446
0.0768292 0.0704204 0.0704204
0.0813153 0.0742962 0.0742962
0.0858015 0.078172 0.078172
0.0904707 0.0822156 0.0822156
0.0949722 0.0861219 0.0861219
0.0994583 0.0900435 0.0900435
0.103929 0.0939803 0.0939803
0.108415 0.0979324 0.0979324
0.112978 0.102007 0.102007
0.117556 0.106172 0.106172
0.122011 0.110262 0.110262
0.126421 0.114382 0.114382
0.130877 0.118563 0.118563
0.135393 0.122835 0.122835
0.140078 0.12726 0.12726
0.144762 0.131685 0.131685
0.0145724 0.0148318 0.0145724
0.0192111 0.0192111 0.0189364
0.0239261 0.0236667 0.0234073
0.0283818 0.0278782 0.0276036
0.0328069 0.0320439 0.0317693
0.0372015 0.0361944 0.035935
0.0415808 0.0403296 0.0400549
0.0460822 0.0445563 0.0442817
0.0503853 0.0485695 0.0483101
0.0547036 0.0525673 0.0522927
0.0590372 0.0565499 0.0562753
0.0634165 0.060502 0.0602274
0.0677958 0.0644236 0.0641642
0.0723583 0.0684825 0.0682231
0.0767681 0.0723735 0.0721141
0.0812238 0.0762646 0.0759899
0.0856947 0.0801556 0.079881
0.0901961 0.0840467 0.0837873
0.094728 0.0879835 0.0877089
0.099382 0.0920272 0.0917525
0.103914 0.0959487 0.0956741
0.108476 0.0999008 0.0996262
0.113054 0.103914 0.103639
0.117647 0.107958 0.107683
0.122286 0.112078 0.111803
0.12697 0.116274 0.116014
0.131579 0.120455 0.12018
0.136202 0.124727 0.124453
0.140841 0.129061 0.128786
0.145464 0.133425 0.13315
0.150225 0.137926 0.137652
0.155077 0.142535 0.14226
0.159976 0.147173 0.146914
0.0291447 0.0296788 0.0291447
0.0336156 0.033875 0.033341
0.0380102 0.0380102 0.0374914
0.0423743 0.0421302 0.0415961
0.0466773 0.0461891 0.045655
0.0509499 0.0502022 0.0496681
0.0553445 0.0543526 0.0538186
0.059617 0.0583505 0.0578317
0.0638895 0.0623331 0.061799
0.0681621 0.0662852 0.0657511
0.0724498 0.0702068 0.069688
0.0767681 0.0741283 0.0735943
0.0813001 0.0781872 0.0776684
0.0857099 0.0821088 0.0815747
0.0901656 0.0860151 0.0854963
0.0946365 0.0899367 0.0894179
0.0991379 0.0938582 0.0933242
0.103685 0.0978103 0.0972763
0.108415 0.101915 0.101396
0.113039 0.105928 0.105409
0.117693 0.109972 0.109438
0.122332 0.114031 0.113497
0.127016 0.11812 0.117601
0.131899 0.122469 0.121935
0.136675 0.126726 0.126207
0.141466 0.131029 0.13051
0.146227 0.135378 0.134844
0.151019 0.139803 0.139269
0.155917 0.144396 0.143877
0.160998 0.149203 0.148684
0.165972 0.153933 0.153414
0.170993 0.158694 0.158175
0.176135 0.163577 0.163058
0.0431373 0.0439155 0.0431373
0.0474403 0.0479591 0.0471809
0.0517128 0.0519722 0.051194
0.0559701 0.0559701 0.0551919
0.0602121 0.059968 0.0591897
0.0645914 0.0641031 0.0633249
0.0688029 0.0680552 0.067277
0.0730144 0.0720073 0.0712291
0.0772412 0.0759442 0.0751659
0.0815137 0.079881 0.079118
0.0859388 0.0839551 0.0831769
0.0903334 0.0879377 0.0871595
0.0947433 0.0918746 0.0910964
0.0991836 0.0958114 0.0950332
0.10367 0.0997787 0.0990005
0.108217 0.103777 0.102998
0.112993 0.107973 0.107195
0.117647 0.112016 0.111238
0.122316 0.116075 0.115297
0.127047 0.12018 0.119402
0.131853 0.124376 0.123598
0.136706 0.128649 0.127871
0.141741 0.133104 0.132326
0.146624 0.137438 0.13666
0.151568 0.141863 0.141085
0.156619 0.146426 0.145663
0.161715 0.151095 0.150317
0.166812 0.15584 0.155062
0.172045 0.160784 0.160006
0.177264 0.165728 0.16495
0.18265 0.170855 0.170077
0.188144 0.176104 0.175326
0.193683 0.181384 0.180606
0.0567178 0.0577401 0.0567178
0.0609598 0.0617227 0.0607004
0.0652018 0.0656901 0.0646677
0.0694896 0.0697337 0.0687114
0.0737469 0.0737469 0.0727245
0.0779583 0.0776989 0.0766766
0.0821698 0.0816663 0.0806439
0.0863966 0.0856336 0.0846113
0.0906691 0.089601 0.0885786
0.0950637 0.0936904 0.092668
0.099443 0.0977188 0.0966964
0.103868 0.101717 0.100694
0.10837 0.105745 0.104723
0.112917 0.109804 0.108782
0.11751 0.113863 0.11284
0.122301 0.118105 0.117082
0.127047 0.122271 0.121248
0.131884 0.126497 0.125475
0.136767 0.13077 0.129747
0.141665 0.135058 0.134035
0.146624 0.139406 0.138369
0.151858 0.144045 0.143008
0.157015 0.148623 0.147601
0.162219 0.153277 0.152255
0.167422 0.157977 0.156939
0.172702 0.162753 0.16173
0.178302 0.167941 0.166903
0.18381 0.173098 0.172076
0.189364 0.178347 0.177325
0.194949 0.183658 0.182635
0.200671 0.189136 0.188113
0.206683 0.194873 0.193851
0.213107 0.201068 0.200046
0.0701305 0.071397 0.0701305
0.074342 0.0753338 0.0740673
0.0786297 0.0793622 0.0780957
0.0829175 0.0834058 0.0821393
0.0871443 0.0873884 0.0861219
0.0913863 0.0913863 0.0901045
0.095613 0.0953689 0.0940871
0.0999008 0.0993668 0.0981003
0.104387 0.103578 0.102312
0.108782 0.107652 0.106386
0.113237 0.111757 0.110475
0.117739 0.115846 0.114565
0.122332 0.119966 0.1187
0.127138 0.124269 0.123003
0.131991 0.128603 0.127321
0.136843 0.132891 0.131609
0.141726 0.137194 0.135927
0.146715 0.141573 0.140307
0.151827 0.14609 0.144808
0.157198 0.150835 0.149569
0.162493 0.15552 0.154253
0.167788 0.16022 0.158953
0.173205 0.165057 0.16379
0.178759 0.170077 0.168795
0.184451 0.175235 0.173968
0.190356 0.180667 0.1794
0.196109 0.185992 0.18471
0.201999 0.191531 0.190265
0.208118 0.19736 0.196078
0.21442 0.203372 0.202106
0.220752 0.209461 0.208179
0.227451 0.2159 0.214618
0.234211 0.2224 0.221134
0.0835279 0.0850538 0.0835279
0.087892 0.0891585 0.0876173
0.092134 0.0931411 0.0916152
0.096376 0.0971237 0.0955978
0.100649 0.101152 0.0996262
0.104967 0.105226 0.1037
0.109392 0.109392 0.107866
0.113878 0.113603 0.112078
0.118288 0.117739 0.116213
0.122789 0.12192 0.120394
0.127413 0.126177 0.124651
0.132128 0.13048 0.128954
0.137011 0.13489 0.133364
0.141924 0.139315 0.137789
0.146899 0.143755 0.142229
0.15201 0.148318 0.146792
0.157244 0.152956 0.151431
0.162493 0.15761 0.156085
0.167971 0.162478 0.160952
0.173526 0.167422 0.165896
0.179217 0.172488 0.170962
0.184985 0.177676 0.17615
0.190784 0.182895 0.181369
0.196674 0.188251 0.186725
0.203021 0.194064 0.192538
0.209369 0.199939 0.198413
0.215824 0.205951 0.204425
0.222263 0.212039 0.210513
0.22884 0.218326 0.2168
0.235966 0.225177 0.223651
0.243183 0.232151 0.230625
0.250523 0.239231 0.237705
0.257923 0.246372 0.244846
0.0971237 0.098909 0.0971237
0.101427 0.102953 0.101152
0.10576 0.107027 0.105241
0.110124 0.111147 0.109346
0.114488 0.115267 0.113466
0.118944 0.119463 0.117678
0.123537 0.123812 0.122011
0.128115 0.128115 0.126329
0.132753 0.132464 0.130663
0.137423 0.136812 0.135012
0.142184 0.141222 0.139422
0.147295 0.145907 0.144106
0.152377 0.15053 0.14873
0.157549 0.1552 0.153399
0.162753 0.159884 0.158099
0.168109 0.164675 0.16289
0.173739 0.169726 0.167941
0.179568 0.17496 0.173159
0.185382 0.180148 0.178363
0.191241 0.185397 0.183597
0.197269 0.190814 0.189014
0.20354 0.196506 0.194705
0.210178 0.202564 0.200763
0.216815 0.208652 0.206867
0.223438 0.214755 0.212955
0.230274 0.221103 0.219318
0.237415 0.227832 0.226032
0.24477 0.234821 0.233021
0.252384 0.24213 0.240345
0.259876 0.249348 0.247562
0.26746 0.256687 0.254887
0.275257 0.264225 0.262425
0.283192 0.271916 0.270115
0.110887 0.112963 0.110887
0.115282 0.117098 0.115007
0.119722 0.121263 0.119188
0.124224 0.125536 0.123445
0.128969 0.130022 0.127947
0.133577 0.134386 0.132296
0.138216 0.138766 0.136675
0.142947 0.143236 0.141146
0.147814 0.147814 0.145739
0.15285 0.152529 0.150439
0.158053 0.157382 0.155306
0.16321 0.162127 0.160037
0.168551 0.166995 0.16492
0.174105 0.172045 0.169955
0.179797 0.177218 0.175128
0.185657 0.182498 0.180423
0.191653 0.18793 0.185855
0.197772 0.193454 0.191363
0.204166 0.199222 0.197147
0.210742 0.205188 0.203098
0.21735 0.2112 0.20911
0.224231 0.217472 0.215396
0.231388 0.224063 0.221973
0.238743 0.230854 0.228779
0.246265 0.237873 0.235798
0.253819 0.244938 0.242863
0.261433 0.252125 0.250034
0.269459 0.2598 0.25771
0.277348 0.267384 0.265309
0.285328 0.27509 0.273014
0.293324 0.282826 0.280751
0.301411 0.290669 0.288594
0.309911 0.298909 0.296834
0.125032 0.127428 0.125032
0.129641 0.131777 0.129366
0.134264 0.136126 0.13373
0.139086 0.140703 0.138308
0.143847 0.14522 0.142824
0.14873 0.149859 0.147463
0.153704 0.154574 0.152178
0.158709 0.159304 0.156909
0.163821 0.164141 0.161746
0.169284 0.169284 0.166873
0.174777 0.174411 0.172015
0.180407 0.179629 0.177234
0.18613 0.184894 0.182483
0.192004 0.190265 0.187869
0.198383 0.196109 0.193713
0.204807 0.201984 0.199588
0.211383 0.20798 0.205585
0.218021 0.214023 0.211627
0.224887 0.220264 0.217868
0.232151 0.226917 0.224521
0.239841 0.233997 0.231601
0.247456 0.241016 0.238621
0.2551 0.248096 0.245686
0.262867 0.255299 0.252903
0.270817 0.26273 0.260334
0.279042 0.270466 0.26807
0.287312 0.278309 0.275914
0.295399 0.286061 0.283665
0.303593 0.29395 0.291554
0.311955 0.302037 0.299641
0.320439 0.310262 0.307866
0.329152 0.31873 0.316335
0.337865 0.327184 0.324788
0.139757 0.142519 0.139757
0.144732 0.147219 0.144457
0.149691 0.151919 0.149157
0.154665 0.156649 0.153887
0.15967 0.161395 0.158648
0.164782 0.166278 0.163516
0.170092 0.171313 0.168566
0.175753 0.17673 0.173968
0.181308 0.181994 0.179232
0.186938 0.187304 0.184543
0.192798 0.192798 0.190036
0.198962 0.19855 0.195789
0.205386 0.204501 0.20174
0.212131 0.210758 0.207996
0.218784 0.216861 0.214115
0.225711 0.223239 0.220478
0.233005 0.229953 0.227192
0.240558 0.236912 0.23415
0.248249 0.243992 0.24123
0.256199 0.251316 0.248569
0.264088 0.258595 0.255833
0.27216 0.266087 0.263325
0.280369 0.273701 0.270954
0.288579 0.281376 0.278614
0.296956 0.289235 0.286473
0.305547 0.297353 0.294591
0.314092 0.305455 0.302693
0.322667 0.313695 0.310933
0.331243 0.321965 0.319203
0.339879 0.330327 0.327565
0.348989 0.339178 0.336431
0.357946 0.347875 0.345113
0.366979 0.356664 0.353902
0.15552 0.158694 0.15552
0.160616 0.163516 0.160342
0.165805 0.16846 0.165286
0.171176 0.173571 0.170397
0.176654 0.178805 0.175631
0.182193 0.1841 0.180926
0.188022 0.18967 0.186496
0.193912 0.1953 0.192126
0.200076 0.201175 0.197986
0.206409 0.207187 0.204013
0.212848 0.21326 0.210086
0.219471 0.219471 0.216297
0.226703 0.226246 0.223072
0.234043 0.233082 0.229908
0.241596 0.240101 0.236927
0.24921 0.247166 0.243992
0.256947 0.254322 0.251148
0.265187 0.261967 0.258778
0.27335 0.269505 0.266331
0.281605 0.27715 0.27396
0.289876 0.28481 0.281636
0.298253 0.292592 0.289418
0.306828 0.300587 0.297414
0.315801 0.30901 0.305837
0.324529 0.31722 0.314046
0.333272 0.325475 0.322301
0.342077 0.333867 0.330678
0.351003 0.342443 0.339254
0.360113 0.351247 0.348074
0.369421 0.360281 0.357107
0.3785 0.369116 0.365942
0.387701 0.378058 0.374884
0.397055 0.387167 0.383993
0.172213 0.17586 0.172213
0.177752 0.181125 0.177478
0.183307 0.186419 0.182773
0.189014 0.191867 0.188235
0.195117 0.197726 0.194095
0.201404 0.203769 0.200122
0.207706 0.209827 0.20618
0.214115 0.215961 0.212314
0.220737 0.222293 0.218662
0.227726 0.228962 0.22533
0.235264 0.236149 0.232517
0.242786 0.243259 0.239612
0.25037 0.25037 0.246723
0.258106 0.257618 0.253971
0.266087 0.265049 0.261418
0.274235 0.272648 0.269017
0.282765 0.280598 0.276967
0.291066 0.288304 0.284657
0.299535 0.296147 0.292515
0.308171 0.304173 0.300542
0.31693 0.312337 0.30869
0.325734 0.320531 0.316899
0.334905 0.329122 0.32549
0.343862 0.337545 0.333898
0.352987 0.346151 0.342504
0.362188 0.354864 0.351217
0.371374 0.363622 0.359976
0.380621 0.372534 0.368887
0.390204 0.381796 0.378164
0.399619 0.390951 0.387304
0.409125 0.400183 0.396551
0.418631 0.409445 0.405814
0.428214 0.418769 0.415137
0.190188 0.194324 0.190188
0.196262 0.200137 0.195987
0.202533 0.206134 0.201999
0.208988 0.212345 0.208209
0.215534 0.218647 0.214511
0.222248 0.225116 0.220981
0.229313 0.231922 0.227787
0.236622 0.238972 0.234836
0.244022 0.246067 0.241932
0.251713 0.253452 0.249317
0.259495 0.260884 0.256733
0.26746 0.268421 0.264271
0.275578 0.276066 0.271931
0.283757 0.283757 0.279606
0.292027 0.291508 0.287373
0.300816 0.299733 0.295598
0.309499 0.307836 0.303685
0.318273 0.316014 0.311864
0.327108 0.324224 0.320089
0.336019 0.332525 0.328389
0.345403 0.341299 0.337163
0.354665 0.349966 0.34583
0.363958 0.358679 0.354543
0.373251 0.367422 0.363287
0.38262 0.376272 0.372137
0.392111 0.38529 0.381155
0.402045 0.394797 0.390661
0.411627 0.404028 0.399893
0.421195 0.413291 0.409155
0.430823 0.42266 0.418509
0.440574 0.432135 0.428
0.450446 0.441764 0.437613
0.460655 0.451728 0.447578
0.210208 0.214878 0.210208
0.216739 0.221134 0.216464
0.22385 0.227985 0.223316
0.231006 0.234897 0.230228
0.238346 0.241993 0.237324
0.245716 0.249119 0.24445
0.253223 0.256367 0.251698
0.261067 0.263951 0.259281
0.269139 0.271717 0.267063
0.27715 0.279423 0.274754
0.285252 0.28716 0.28249
0.293507 0.294987 0.290318
0.301976 0.302998 0.298329
0.310826 0.31136 0.306691
0.319677 0.319677 0.315007
0.328481 0.327932 0.323262
0.337438 0.336294 0.331624
0.346563 0.344823 0.340169
0.355856 0.353506 0.348837
0.365469 0.362493 0.357824
0.374884 0.371313 0.366644
0.384375 0.380209 0.37554
0.394003 0.389258 0.384588
0.403708 0.398413 0.393744
0.413428 0.407614 0.402945
0.423514 0.417227 0.412558
0.43331 0.426596 0.421927
0.443183 0.436103 0.431434
0.453071 0.445701 0.441032
0.462974 0.455329 0.45066
0.472892 0.465003 0.460334
0.483268 0.47512 0.470451
0.493355 0.484947 0.480278
0.232471 0.237705 0.232471
0.240055 0.245014 0.239796
0.247471 0.252171 0.246952
0.255039 0.259495 0.254261
0.262806 0.267018 0.261784
0.270741 0.274693 0.269459
0.278828 0.282536 0.277302
0.287068 0.290501 0.285267
0.295277 0.298421 0.293202
0.3037 0.306523 0.301305
0.312276 0.314748 0.309529
0.320943 0.322988 0.317769
0.329885 0.331472 0.326253
0.338979 0.340063 0.334844
0.348119 0.348669 0.34345
0.357382 0.357382 0.352148
0.36669 0.36611 0.360891
0.376089 0.374914 0.36968
0.385992 0.384192 0.378973
0.395697 0.393286 0.388067
0.405463 0.402441 0.397223
0.415259 0.411643 0.406424
0.425101 0.420905 0.415686
0.435309 0.430564 0.425345
0.445426 0.440177 0.434958
0.455497 0.44976 0.444526
0.465522 0.459358 0.454124
0.475547 0.469032 0.463798
0.485603 0.478798 0.473564
0.496071 0.488975 0.483757
0.506233 0.498894 0.493675
0.516381 0.508782 0.503563
0.526543 0.5187 0.513481
0.256855 0.262669 0.256855
0.264714 0.270253 0.264439
0.272679 0.277958 0.272145
0.280659 0.285679 0.279881
0.288731 0.293523 0.287709
0.297292 0.301839 0.296025
0.30573 0.310002 0.304204
0.31426 0.318273 0.312459
0.32282 0.326558 0.320745
0.331518 0.334936 0.329122
0.34052 0.343572 0.337758
0.349859 0.352483 0.346685
0.35906 0.361227 0.355413
0.368322 0.369985 0.364187
0.377707 0.378851 0.373037
0.387274 0.387869 0.382055
0.397162 0.397162 0.391348
0.407126 0.406516 0.400717
0.416938 0.415732 0.409918
0.426856 0.425025 0.419226
0.436896 0.434455 0.428641
0.447013 0.443976 0.438163
0.457389 0.453773 0.447974
0.467643 0.463493 0.457694
0.477836 0.473167 0.467353
0.488075 0.482918 0.477119
0.498329 0.492744 0.486946
0.508553 0.502617 0.496803
0.519051 0.51281 0.507012
0.529305 0.522805 0.516991
0.539528 0.532769 0.52697
0.549783 0.542763 0.53695
0.560021 0.552758 0.546944
0.282582 0.288991 0.282582
0.29073 0.296864 0.290471
0.299062 0.304936 0.298543
0.30753 0.313161 0.306752
0.316365 0.321752 0.315343
0.324941 0.330068 0.323659
0.333639 0.338521 0.332113
0.342535 0.347143 0.340734
0.351568 0.355886 0.349493
0.360723 0.364736 0.358328
0.370184 0.373831 0.367422
0.379538 0.382773 0.376364
0.38909 0.391852 0.385443
0.398764 0.401038 0.394629
0.408484 0.410224 0.403815
0.418433 0.419608 0.413214
0.428595 0.429191 0.422782
0.438651 0.438651 0.432242
0.448798 0.448188 0.441779
0.458976 0.457755 0.451347
0.469184 0.467338 0.460929
0.479835 0.477394 0.471
0.490181 0.487175 0.480766
0.500526 0.496971 0.490578
0.510887 0.506813 0.500404
0.521233 0.51667 0.510262
0.531762 0.526787 0.520378
0.542245 0.536919 0.53051
0.552529 0.546899 0.54049
0.562799 0.556893 0.550484
0.573037 0.566873 0.560464
0.583261 0.576837 0.570428
0.593759 0.587091 0.580682
0.309621 0.31664 0.309621
0.318166 0.32491 0.317906
0.326787 0.333272 0.326253
0.335866 0.342107 0.335088
0.344808 0.350805 0.343786
0.353826 0.359579 0.35256
0.36289 0.368383 0.361364
0.37203 0.377264 0.370245
0.381704 0.386633 0.379614
0.39118 0.395789 0.388769
0.400763 0.40502 0.398001
0.410407 0.414252 0.407233
0.420172 0.423545 0.416526
0.430121 0.433005 0.425986
0.440497 0.442847 0.435828
0.450614 0.452399 0.44538
0.460761 0.461982 0.454963
0.470985 0.471611 0.464591
0.481315 0.481315 0.474296
0.491814 0.491203 0.484184
0.502495 0.501274 0.494255
0.512917 0.511086 0.504067
0.523339 0.520943 0.513924
0.533776 0.530831 0.523827
0.544228 0.540764 0.533745
0.554849 0.550896 0.543877
0.565423 0.561059 0.55404
0.575738 0.571008 0.563989
0.585992 0.580972 0.573953
0.596216 0.590921 0.583902
0.606439 0.600885 0.593866
0.616861 0.611063 0.604044
0.627131 0.621073 0.614054
0.337774 0.345418 0.337774
0.347051 0.354421 0.346792
0.356146 0.363256 0.355627
0.365225 0.372076 0.364446
0.374411 0.381018 0.373388
0.383749 0.390112 0.382467
0.39321 0.399313 0.391684
0.403082 0.408911 0.401282
0.41265 0.418204 0.410574
0.422339 0.427573 0.419944
0.432181 0.437064 0.429435
0.442176 0.446632 0.439002
0.452232 0.456214 0.448585
0.462699 0.466194 0.458549
0.472892 0.475853 0.468223
0.483207 0.485603 0.477974
0.493584 0.495415 0.48777
0.50399 0.505211 0.497581
0.514504 0.515114 0.507485
0.525277 0.525277 0.517647
0.535775 0.535164 0.527535
0.546304 0.545098 0.537453
0.556802 0.555016 0.547387
0.567269 0.564935 0.557305
0.578088 0.57525 0.56762
0.588495 0.585168 0.577539
0.59884 0.595087 0.587442
0.609125 0.60502 0.597375
0.619333 0.614923 0.607294
0.629587 0.624903 0.617273
0.639887 0.634943 0.627314
0.649897 0.644709 0.637079
0.659922 0.654475 0.646845
0.367483 0.375723 0.367483
0.376806 0.384787 0.376547
0.386206 0.393927 0.385687
0.395697 0.403159 0.394919
0.405203 0.412421 0.404181
0.414771 0.421744 0.413504
0.424811 0.431525 0.423285
0.434638 0.441077 0.432837
0.444526 0.45069 0.442451
0.454459 0.460304 0.452064
0.464485 0.469963 0.461723
0.474983 0.480049 0.471809
0.485267 0.48986 0.481621
0.495583 0.499687 0.491447
0.505943 0.509529 0.501274
0.51635 0.519371 0.511116
0.526802 0.529244 0.521004
0.537697 0.539528 0.531289
0.548226 0.549447 0.541207
0.558755 0.559365 0.551125
0.569268 0.569268 0.561028
0.579767 0.579171 0.570932
0.59028 0.589105 0.580865
0.601068 0.599344 0.591104
0.61146 0.609232 0.600992
0.62179 0.619074 0.610834
0.632013 0.62887 0.62063
0.64213 0.638636 0.630396
0.652308 0.648508 0.640269
0.662562 0.658503 0.650263
0.67248 0.668147 0.659907
0.682261 0.677684 0.669444
0.691997 0.68716 0.67892
0.398169 0.407019 0.398169
0.407706 0.416281 0.407446
0.417319 0.425635 0.4168
0.427054 0.435111 0.426276
0.437125 0.444953 0.436103
0.44712 0.454688 0.445853
0.457023 0.464332 0.455497
0.467002 0.474037 0.465202
0.477073 0.483833 0.474983
0.487236 0.493675 0.484825
0.49778 0.503853 0.495018
0.50811 0.513771 0.504936
0.518441 0.523644 0.514809
0.528862 0.533562 0.524712
0.539315 0.543496 0.534646
0.549798 0.553414 0.544579
0.560693 0.563714 0.554879
0.571191 0.573617 0.564782
0.581689 0.58352 0.57467
0.592187 0.593408 0.584558
0.602686 0.603281 0.59443
0.613138 0.613138 0.604303
0.623896 0.623316 0.614481
0.63418 0.633066 0.624216
0.644419 0.642786 0.633951
0.654627 0.652506 0.643671
0.664729 0.662181 0.65333
0.675029 0.672129 0.663294
0.68484 0.681636 0.672786
0.69456 0.691096 0.682246
0.704265 0.700526 0.691691
0.713863 0.70988 0.701045
0.7234 0.719173 0.710323
0.429664 0.439078 0.429664
0.439536 0.448676 0.439261
0.449424 0.458305 0.44889
0.459556 0.468193 0.458778
0.469688 0.47808 0.468666
0.479759 0.487907 0.478492
0.489891 0.49778 0.488365
0.500038 0.507652 0.498238
0.510216 0.517555 0.508141
0.520836 0.527855 0.518441
0.531151 0.537804 0.528389
0.541527 0.547768 0.538354
0.551934 0.557717 0.548302
0.562371 0.567651 0.558236
0.573114 0.577859 0.568444
0.583658 0.587854 0.578439
0.594125 0.597742 0.588327
0.604593 0.607614 0.598199
0.615045 0.617441 0.608026
0.625437 0.627222 0.617807
0.636118 0.637293 0.627878
0.646433 0.647013 0.637598
0.656703 0.656703 0.647288
0.66685 0.6663 0.656886
0.67689 0.675822 0.666407
0.686809 0.685267 0.675853
0.697017 0.695048 0.685634
0.706767 0.704433 0.695018
0.716365 0.713741 0.704326
0.725795 0.722896 0.713481
0.735119 0.73196 0.722545
0.744442 0.741039 0.731624
0.753979 0.750317 0.740902
0.462028 0.471977 0.462028
0.472175 0.481865 0.471901
0.482536 0.491966 0.482002
0.492653 0.501839 0.491875
0.5028 0.511742 0.501778
0.512963 0.521645 0.511696
0.523171 0.531594 0.52163
0.533608 0.541772 0.531807
0.544076 0.551949 0.541985
0.55436 0.561929 0.551965
0.564691 0.571893 0.561929
0.575036 0.581827 0.571862
0.585412 0.591745 0.581781
0.596078 0.601907 0.591943
0.606622 0.611917 0.601953
0.616999 0.621729 0.611765
0.627329 0.631495 0.62153
0.637644 0.641199 0.631235
0.647944 0.650889 0.640925
0.658534 0.660868 0.650904
0.668757 0.670481 0.660517
0.678813 0.679942 0.669978
0.688792 0.689342 0.679377
0.698726 0.698726 0.688762
0.708583 0.708064 0.6981
0.718624 0.717617 0.707668
0.72813 0.726711 0.716747
0.737514 0.735729 0.725765
0.746822 0.744747 0.734783
0.756024 0.753674 0.743709
0.765393 0.762783 0.752834
0.774273 0.771405 0.761456
0.783078 0.779965 0.770001
0.49514 0.505623 0.49514
0.505592 0.515801 0.505333
0.515785 0.525734 0.515251
0.525994 0.535698 0.525216
0.536233 0.545693 0.53521
0.546487 0.555688 0.545205
0.556878 0.565835 0.555352
0.567346 0.576028 0.56556
0.5776 0.585992 0.575509
0.587854 0.595941 0.585458
0.598154 0.605875 0.595392
0.608454 0.615763 0.60528
0.61912 0.625956 0.615473
0.629374 0.635706 0.625238
0.639628 0.645426 0.634958
0.649866 0.655131 0.644648
0.66009 0.664759 0.654276
0.67042 0.674495 0.664012
0.680613 0.684077 0.673594
0.690623 0.693462 0.682979
0.700587 0.702815 0.692332
0.710445 0.712093 0.70161
0.720165 0.721233 0.71075
0.729992 0.73051 0.720043
0.73959 0.73959 0.729107
0.74902 0.748531 0.738064
0.758282 0.757382 0.746899
0.76733 0.766079 0.755596
0.776211 0.774655 0.764172
0.785336 0.783505 0.773022
0.794095 0.79202 0.781537
0.802701 0.800366 0.789883
0.811124 0.80853 0.798047
0.528832 0.539803 0.528832
0.539086 0.549783 0.538827
0.54934 0.559777 0.548821
0.559579 0.569757 0.558801
0.569848 0.579797 0.568826
0.580392 0.590082 0.579126
0.5906 0.600046 0.589075
0.600824 0.609995 0.599023
0.611002 0.619883 0.608927
0.621149 0.629709 0.618753
0.631403 0.639597 0.628641
0.64181 0.649607 0.638636
0.651972 0.659297 0.648341
0.662089 0.66891 0.657954
0.672129 0.678416 0.66746
0.682094 0.687831 0.676875
0.692241 0.697398 0.686427
0.702358 0.706905 0.695949
0.712184 0.716136 0.705165
0.721889 0.725216 0.714244
0.731472 0.734188 0.723232
0.741039 0.74316 0.732189
0.750744 0.752285 0.741329
0.760159 0.761151 0.750195
0.769268 0.769757 0.758801
0.778271 0.778271 0.767315
0.787198 0.78677 0.775799
0.795972 0.795193 0.784237
0.804868 0.8038 0.792828
0.813245 0.811902 0.800931
0.82153 0.819928 0.808957
0.82977 0.827909 0.816953
0.837858 0.835752 0.824781
0.562463 0.573846 0.562463
0.572686 0.58381 0.572412
0.58291 0.593774 0.582376
0.593133 0.603738 0.592355
0.603677 0.614038 0.602655
0.613809 0.623926 0.612543
0.62388 0.633753 0.622354
0.633936 0.643534 0.632136
0.643977 0.653284 0.641901
0.654093 0.663081 0.651698
0.664347 0.672969 0.661585
0.67425 0.68246 0.671077
0.684138 0.69189 0.680491
0.694026 0.701274 0.689891
0.703883 0.710597 0.699214
0.71397 0.720134 0.708736
0.723583 0.729168 0.717784
0.73315 0.73814 0.726757
0.742718 0.747082 0.735698
0.752178 0.755932 0.744549
0.761608 0.764752 0.753353
0.770947 0.773495 0.762097
0.779995 0.781979 0.770581
0.788998 0.790417 0.779034
0.797848 0.798764 0.787381
0.806516 0.806943 0.795544
0.815137 0.815137 0.803754
0.823621 0.82327 0.811872
0.831861 0.831205 0.819821
