assets/cube/BW HIGH CONTRAST.cube
TITLE "Generated by Resolve"
LUT_3D_SIZE 9
0 0 0
0.0185092 0.0174868 0.0174868
0.0364691 0.0343786 0.0343786
0.0543374 0.0507057 0.0507057
0.0723583 0.0665446 0.0665446
0.0904707 0.0822156 0.0822156
0.108415 0.0979324 0.0979324
0.126421 0.114382 0.114382
0.144762 0.131685 0.131685
0.0567178 0.0577401 0.0567178
0.0737469 0.0737469 0.0727245
0.0906691 0.089601 0.0885786
0.10837 0.105745 0.104723
0.127047 0.122271 0.121248
0.146624 0.139406 0.138369
0.167422 0.157977 0.156939
0.189364 0.178347 0.177325
0.213107 0.201068 0.200046
0.110887 0.112963 0.110887
0.128969 0.130022 0.127947
0.147814 0.147814 0.145739
0.168551 0.166995 0.16492
0.191653 0.18793 0.185855
0.21735 0.2112 0.20911
0.246265 0.237873 0.235798
0.277348 0.267384 0.265309
0.309911 0.298909 0.296834
0.172213 0.17586 0.172213
0.195117 0.197726 0.194095
0.220737 0.222293 0.218662
0.25037 0.25037 0.246723
0.282765 0.280598 0.276967
0.31693 0.312337 0.30869
0.352987 0.346151 0.342504
0.390204 0.381796 0.378164
0.428214 0.418769 0.415137
0.256855 0.262669 0.256855
0.288731 0.293523 0.287709
0.32282 0.326558 0.320745
0.35906 0.361227 0.355413
0.397162 0.397162 0.391348
0.436896 0.434455 0.428641
0.477836 0.473167 0.467353
0.519051 0.51281 0.507012
0.560021 0.552758 0.546944
0.367483 0.375723 0.367483
0.405203 0.412421 0.404181
0.444526 0.45069 0.442451
0.485267 0.48986 0.481621
0.526802 0.529244 0.521004
0.569268 0.569268 0.561028
0.61146 0.609232 0.600992
0.652308 0.648508 0.640269
0.691997 0.68716 0.67892
0.49514 0.505623 0.49514
0.536233 0.545693 0.53521
0.5776 0.585992 0.575509
0.61912 0.625956 0.615473
0.66009 0.664759 0.654276
0.700587 0.702815 0.692332
0.73959 0.73959 0.729107
0.776211 0.774655 0.764172
0.811124 0.80853 0.798047
0.629282 0.641321 0.629282
0.669398 0.680415 0.668376
0.708415 0.718379 0.70634
0.746059 0.754467 0.742412
0.782849 0.78909 0.777035
0.818128 0.821912 0.809873
0.851102 0.852659 0.84062
0.880125 0.880125 0.868086
0.904418 0.90338 0.89134
0.755444 0.768521 0.755444
0.790799 0.802853 0.789776
0.824323 0.835309 0.822248
0.855436 0.864866 0.851789
0.883299 0.890562 0.877485
0.907546 0.912367 0.89929
0.928923 0.931517 0.918441
0.947967 0.948989 0.935912
0.965774 0.965774 0.952697
0.00572213 0.00572213 0.00674449
0.0244144 0.0233921 0.0244144
0.0421149 0.0400397 0.041062
0.0598306 0.0561837 0.0572213
0.0777752 0.0719615 0.0729839
0.0957961 0.0875563 0.0885786
0.114 0.103517 0.10454
0.132189 0.12015 0.121172
0.150729 0.137652 0.138674
0.0621805 0.0632029 0.0632029
0.0791028 0.0791028 0.0791028
0.0961318 0.095079 0.095079
0.114015 0.111391 0.111391
0.132967 0.128176 0.128176
0.152865 0.145647 0.145647
0.174105 0.164645 0.164645
0.196689 0.185672 0.185672
0.221225 0.209171 0.209171
0.116564 0.118639 0.117586
0.134783 0.135836 0.134783
0.154269 0.154269 0.153201
0.175586 0.174029 0.172976
0.199405 0.195666 0.194614
0.225971 0.219806 0.218738
0.256046 0.247654 0.246601
0.287922 0.277974 0.276905
0.320943 0.309941 0.308888
0.179446 0.183093 0.180468
0.203159 0.205783 0.203159
0.229999 0.231556 0.228931
0.260426 0.260426 0.257816
0.293172 0.291005 0.28838
0.328298 0.32369 0.32108
0.365011 0.358175 0.355566
0.402792 0.394385 0.391775
0.441199 0.431769 0.429145
0.267308 0.273121 0.26833
0.299763 0.30454 0.299763
0.334386 0.338109 0.333318
0.371176 0.373342 0.368566
0.409689 0.409689 0.404898
0.450065 0.447623 0.442847
0.49131 0.486641 0.481849
0.532586 0.52636 0.521569
0.573724 0.566461 0.561685
0.379767 0.388022 0.380804
0.418006 0.425238 0.418006
0.457755 0.46392 0.456703
0.498772 0.50338 0.496162
0.540505 0.542931 0.535714
0.582956 0.582956 0.575738
0.625025 0.622782 0.615564
0.665537 0.661738 0.654521
0.704952 0.700114 0.692897
0.508644 0.519127 0.509667
0.54995 0.559396 0.54995
0.591257 0.599649 0.590204
0.632319 0.639155 0.629709
0.673228 0.677897 0.668452
0.713375 0.715602 0.706142
0.751812 0.751812 0.742351
0.78793 0.786374 0.776913
0.822156 0.819562 0.810101
0.64268 0.654719 0.643702
0.682383 0.693416 0.682383
0.720928 0.730892 0.719875
0.758099 0.766491 0.755474
0.794385 0.80061 0.789593
0.829038 0.832837 0.82182
0.860792 0.862364 0.851347
0.888273 0.888273 0.877256
0.911498 0.91046 0.899443
0.767224 0.780301 0.768246
0.801999 0.814038 0.801999
0.834836 0.845823 0.833768
0.865003 0.874434 0.862379
0.891218 0.898482 0.886427
0.914305 0.919127 0.907073
0.93489 0.937484 0.925429
0.95375 0.954772 0.942733
0.971389 0.971389 0.959335
0.01178 0.01178 0.0138705
0.0301518 0.0291295 0.0312047
0.0476997 0.0456092 0.0476997
0.0652934 0.0616617 0.0637369
0.0831922 0.0773938 0.079469
0.101244 0.0930037 0.095079
0.119631 0.109148 0.111238
0.138094 0.126055 0.12813
0.156924 0.143847 0.145922
0.0676127 0.0686351 0.0697032
0.0845045 0.0845045 0.0855573
0.10164 0.100587 0.10164
0.119677 0.117067 0.11812
0.138888 0.134096 0.135149
0.159304 0.152087 0.15314
0.181125 0.171664 0.172717
0.204395 0.193378 0.19443
0.229786 0.217731 0.218784
0.122347 0.124437 0.124437
0.140841 0.141894 0.141894
0.160769 0.160769 0.160769
0.182803 0.181247 0.181247
0.20737 0.203647 0.203647
0.235172 0.229007 0.229007
0.266087 0.257694 0.257694
0.298451 0.288487 0.288487
0.332296 0.321294 0.321294
0.186694 0.190326 0.188769
0.211521 0.21413 0.212573
0.239673 0.24123 0.239673
0.270863 0.270863 0.269291
0.304158 0.301991 0.300435
0.339834 0.335225 0.333669
0.377127 0.370291 0.368734
0.415122 0.406729 0.405158
0.454368 0.444923 0.443366
0.277607 0.283406 0.279683
0.31104 0.315831 0.312108
0.346258 0.349981 0.346258
0.383536 0.385702 0.381979
0.422477 0.422477 0.418753
0.463294 0.460853 0.45713
0.50486 0.500191 0.496452
0.546059 0.539818 0.536095
0.587411 0.580133 0.57641
0.392203 0.400443 0.394278
0.431037 0.43827 0.432105
0.471092 0.477256 0.471092
0.512016 0.516625 0.51046
0.554208 0.556649 0.550484
0.596613 0.596613 0.590448
0.638468 0.63624 0.630076
0.678691 0.674891 0.668727
0.717754 0.712917 0.706767
0.522286 0.532769 0.524376
0.563638 0.573098 0.564706
0.604898 0.613291 0.604898
0.645594 0.65243 0.644038
0.686229 0.690898 0.682506
0.725902 0.72813 0.719738
0.76379 0.76379 0.755383
0.799481 0.797925 0.789517
0.833082 0.830488 0.82208
0.656001 0.66804 0.658076
0.695338 0.706355 0.696391
0.733257 0.743221 0.733257
0.769879 0.778286 0.768322
0.8056 0.811826 0.801862
0.839582 0.843381 0.833417
0.870359 0.871931 0.861967
0.896208 0.896208 0.886244
0.918257 0.917235 0.907271
0.778927 0.792004 0.781003
0.813001 0.825055 0.814054
0.844694 0.855695 0.844694
0.873732 0.883162 0.872175
0.898772 0.906035 0.895048
0.920867 0.925704 0.914717
0.940902 0.943496 0.932509
0.959411 0.960449 0.949447
0.976974 0.976974 0.965972
0.0177768 0.0177768 0.0214237
0.0356756 0.0346532 0.0383001
0.0531624 0.0510872 0.0547341
0.0706951 0.0670634 0.0706951
0.0885939 0.0827802 0.0864271
0.106706 0.0984665 0.102098
0.125261 0.114778 0.118425
0.14403 0.131991 0.135637
0.163256 0.150179 0.153826
0.0729992 0.0740215 0.0766308
0.0898909 0.0898909 0.0925002
0.107195 0.106142 0.108766
0.125414 0.122805 0.125414
0.144793 0.140017 0.142626
0.165774 0.158556 0.161181
0.188296 0.178836 0.18146
0.212451 0.201434 0.204059
0.238911 0.226856 0.22948
0.128191 0.130266 0.131838
0.147082 0.14815 0.149706
0.167468 0.167468 0.169024
0.190112 0.188556 0.190112
0.215656 0.211933 0.213489
0.2448 0.238636 0.240208
0.276463 0.268055 0.269612
0.309316 0.299351 0.300908
0.343771 0.332769 0.33434
0.1944 0.198032 0.198032
0.220157 0.222766 0.222766
0.249439 0.250996 0.250996
0.28127 0.28127 0.28127
0.315404 0.313237 0.313237
0.351644 0.347051 0.347051
0.389425 0.382589 0.382589
0.427863 0.419471 0.419471
0.467536 0.458106 0.458106
0.288289 0.294102 0.291936
0.322377 0.327169 0.325002
0.358267 0.36199 0.359823
0.395758 0.397925 0.395758
0.435462 0.435462 0.433295
0.476585 0.474144 0.471977
0.518135 0.513466 0.511299
0.559731 0.553506 0.551339
0.601038 0.593759 0.591592
0.404868 0.413108 0.408515
0.44419 0.451408 0.446799
0.48455 0.490715 0.486107
0.525628 0.530221 0.525628
0.56788 0.570306 0.565713
0.610224 0.610224 0.605615
0.651469 0.649226 0.644617
0.691661 0.687861 0.683253
0.730266 0.725429 0.720836
0.535958 0.546441 0.53959
0.577279 0.58674 0.579889
0.618402 0.626795 0.619959
0.658869 0.665721 0.658869
0.699138 0.703807 0.696971
0.738277 0.740505 0.733669
0.775387 0.775387 0.768551
0.810681 0.809125 0.802289
0.843626 0.841031 0.83418
0.669078 0.681117 0.672724
0.708034 0.719051 0.710658
0.745251 0.755215 0.746807
0.781552 0.789944 0.781552
0.816571 0.822797 0.814404
0.849622 0.853422 0.845014
0.879118 0.880674 0.872282
0.903761 0.903761 0.895354
0.924895 0.923858 0.91545
0.790387 0.803464 0.794034
0.823835 0.835889 0.826459
0.854505 0.865507 0.856062
0.881788 0.891218 0.881788
0.905745 0.913024 0.903578
0.927169 0.932006 0.92256
0.946807 0.949401 0.939971
0.965026 0.966049 0.956619
0.982437 0.982437 0.973007
0.0236057 0.0236057 0.0294041
0.0412604 0.040238 0.0460517
0.0585794 0.0564889 0.0623026
0.0760357 0.0723888 0.0782025
0.0938277 0.088014 0.0938277
0.112215 0.103975 0.109773
0.130953 0.12047 0.126284
0.149828 0.137789 0.143603
0.16968 0.156603 0.162402
0.0781872 0.0792096 0.0839857
0.0952773 0.0952773 0.100053
0.112764 0.111711 0.116487
0.131258 0.128649 0.133425
0.150973 0.146197 0.150973
0.172396 0.165179 0.169955
0.195544 0.186084 0.190875
0.220539 0.209522 0.214298
0.248478 0.236423 0.241215
0.133974 0.136049 0.139788
0.15346 0.154513 0.158236
0.174426 0.174426 0.178149
0.197772 0.196201 0.199924
0.224216 0.220493 0.224216
0.25452 0.248356 0.252079
0.286961 0.278569 0.282292
0.320424 0.310475 0.314199
0.35552 0.344518 0.348241
0.202487 0.206134 0.208301
0.229358 0.231983 0.23415
0.259449 0.261006 0.263172
0.291737 0.291737 0.293904
0.326696 0.324529 0.326696
0.363607 0.358999 0.361166
0.401801 0.394965 0.397131
0.440787 0.43238 0.434546
0.480781 0.471336 0.473503
0.29926 0.305058 0.305058
0.333867 0.338659 0.338659
0.370291 0.374014 0.374014
0.408362 0.410529 0.410529
0.448554 0.448554 0.448554
0.489982 0.487541 0.487541
0.531609 0.526925 0.526925
0.573358 0.567117 0.567117
0.614588 0.607324 0.607324
0.417609 0.425849 0.423407
0.457328 0.464561 0.462119
0.497795 0.503944 0.501518
0.539239 0.543832 0.541405
0.581476 0.583902 0.581476
0.623697 0.623697 0.621256
0.664714 0.662486 0.660044
0.70454 0.70074 0.698299
0.742596 0.737758 0.735317
0.549584 0.560067 0.555398
0.59086 0.60032 0.595636
0.631388 0.63978 0.635111
0.671916 0.678767 0.674083
0.711833 0.716503 0.711833
0.750225 0.752468 0.747784
0.78703 0.78703 0.782345
0.821622 0.820066 0.815381
0.853666 0.851072 0.846403
0.681987 0.694026 0.6878
0.72047 0.731487 0.725246
0.757198 0.767163 0.760922
0.792981 0.801389 0.795148
0.82739 0.833616 0.82739
0.859205 0.863005 0.856779
0.887144 0.888716 0.882475
0.910735 0.910735 0.904494
0.931197 0.930175 0.923934
0.80148 0.814557 0.807279
0.834226 0.846281 0.839017
0.863951 0.874952 0.867674
0.889616 0.899046 0.891783
0.912428 0.919692 0.912428
0.933135 0.937957 0.930694
0.952499 0.955093 0.947829
0.97055 0.971588 0.964324
0.987823 0.987823 0.98056
0.0291447 0.0291447 0.0373846
0.0467384 0.045716 0.0539559
0.0639353 0.0618601 0.0700999
0.0813001 0.0776684 0.0859083
0.0991989 0.0933852 0.101625
0.117754 0.109514 0.117754
0.136767 0.126284 0.134524
0.155962 0.143923 0.152178
0.176257 0.16318 0.17142
0.0835279 0.0845502 0.0917678
0.100694 0.100694 0.107912
0.118334 0.117281 0.124498
0.136995 0.134371 0.141588
0.157321 0.152529 0.159762
0.179324 0.172107 0.179324
0.203174 0.193713 0.200946
0.229038 0.218021 0.225238
0.258167 0.246113 0.25333
0.139956 0.142031 0.148196
0.159869 0.160937 0.167102
0.181552 0.181552 0.187716
0.205676 0.20412 0.210269
0.233356 0.229633 0.235798
0.264469 0.258305 0.264469
0.297261 0.288853 0.295018
0.331685 0.321736 0.327886
0.367453 0.356451 0.362615
0.210758 0.214389 0.218997
0.238956 0.241581 0.246174
0.269795 0.271351 0.275959
0.302647 0.302647 0.307256
0.33814 0.335973 0.340581
0.375616 0.371023 0.375616
0.414176 0.40734 0.411948
0.453864 0.445457 0.450065
0.494148 0.484718 0.489311
0.310445 0.316258 0.3187
0.345663 0.350439 0.35288
0.382467 0.386191 0.388632
0.421073 0.423239 0.425666
0.461677 0.461677 0.464118
0.503426 0.500984 0.503426
0.545174 0.54049 0.542931
0.586938 0.580697 0.583139
0.628061 0.620783 0.623224
0.430549 0.438788 0.438788
0.470588 0.477806 0.477806
0.511116 0.517281 0.517281
0.55285 0.557443 0.557443
0.595041 0.597467 0.597467
0.636851 0.636851 0.636851
0.67776 0.675532 0.675532
0.71722 0.71342 0.71342
0.754772 0.749935 0.749935
0.56318 0.573663 0.57142
0.604318 0.613779 0.611536
0.644678 0.653086 0.650843
0.684825 0.691661 0.689418
0.724254 0.728923 0.72668
0.762112 0.76434 0.762112
0.798459 0.798459 0.796231
0.832441 0.830869 0.828641
0.86331 0.860716 0.858473
0.69482 0.706859 0.703059
0.732509 0.743526 0.739727
0.768887 0.778836 0.775036
0.804074 0.812482 0.808682
0.837812 0.844038 0.840238
0.868681 0.87248 0.868681
0.894972 0.896544 0.892744
0.917388 0.917388 0.913588
0.937041 0.936019 0.932219
0.812375 0.825452 0.82063
0.843931 0.85597 0.851148
0.872526 0.883528 0.878691
0.897032 0.906477 0.90164
0.918791 0.926055 0.921233
0.93904 0.943877 0.93904
0.958068 0.960662 0.955825
0.976028 0.977066 0.972229
0.993378 0.993378 0.98854
0.0347143 0.0347143 0.0451972
0.0521553 0.051133 0.0616159
0.0692912 0.0672007 0.0776837
0.0866255 0.0829786 0.0934615
0.104616 0.0988174 0.109285
0.123339 0.115099 0.125566
0.142611 0.132143 0.142611
0.162325 0.150286 0.160754
0.183169 0.170092 0.180575
0.0888991 0.0899214 0.099382
0.106203 0.106203 0.115648
0.124041 0.122988 0.132433
0.142947 0.140337 0.149783
0.163745 0.158968 0.168414
0.18645 0.179232 0.188693
0.211093 0.201633 0.211093
0.238148 0.227131 0.236591
0.268101 0.256062 0.265507
0.146151 0.148241 0.156634
0.166537 0.16759 0.175982
0.188739 0.188739 0.197131
0.213947 0.212375 0.220783
0.242954 0.239231 0.247623
0.2748 0.26865 0.277043
0.308156 0.299763 0.308156
0.34313 0.333165 0.341573
0.379477 0.368475 0.376883
0.219379 0.223011 0.229847
0.248676 0.251301 0.258137
0.280003 0.281559 0.288396
0.313848 0.313848 0.320699
0.34992 0.347753 0.354589
0.387884 0.383276 0.390112
0.426886 0.42005 0.426886
0.466987 0.458595 0.465431
0.507607 0.498177 0.505013
0.321736 0.32755 0.332219
0.357626 0.362402 0.367086
0.394751 0.398474 0.403159
0.434012 0.436179 0.440848
0.474937 0.474937 0.479606
0.516533 0.514107 0.518776
0.558801 0.554116 0.558801
0.600504 0.594278 0.598947
0.641428 0.63415 0.638819
0.443641 0.451896 0.454124
0.484001 0.491218 0.493446
0.524681 0.530846 0.533074
0.566461 0.571054 0.573297
0.608591 0.611017 0.61326
0.649973 0.649973 0.652216
0.690684 0.688441 0.690684
0.729671 0.725872 0.728115
0.766674 0.761837 0.76408
0.576761 0.587243 0.587243
0.617685 0.627131 0.627131
0.657908 0.666316 0.666316
0.697673 0.704509 0.704509
0.736538 0.741222 0.741222
0.773816 0.776043 0.776043
0.809598 0.809598 0.809598
0.842908 0.841337 0.841337
0.872755 0.870161 0.870161
0.707469 0.719509 0.717952
0.744625 0.755642 0.754086
0.780499 0.790448 0.788891
0.815 0.823392 0.821836
0.847639 0.853864 0.852308
0.877348 0.881132 0.879576
0.902464 0.904021 0.902464
0.923919 0.923919 0.922347
0.942977 0.941939 0.940383
0.823056 0.836133 0.833539
0.853742 0.865797 0.863203
0.880522 0.891508 0.888914
0.903944 0.913375 0.91078
0.925048 0.932326 0.929732
0.944884 0.949722 0.947127
0.963623 0.966217 0.963623
0.981369 0.982406 0.979812
0.998993 0.998993 0.996399
0.0403296 0.0403296 0.0523842
0.0576028 0.0565805 0.0686198
0.0746624 0.0725872 0.0846265
0.0919814 0.0883497 0.100389
0.11017 0.104356 0.116396
0.129076 0.120836 0.132876
0.148501 0.138018 0.150057
0.168795 0.156741 0.168795
0.190356 0.177279 0.189319
0.0943313 0.0953689 0.106386
0.111803 0.111803 0.12282
0.1299 0.128847 0.139864
0.149187 0.146563 0.15758
0.170428 0.165637 0.176654
0.193759 0.186542 0.197559
0.219348 0.209888 0.220905
0.247776 0.236759 0.247776
0.278477 0.266423 0.27744
0.152575 0.154665 0.164614
0.173556 0.174624 0.184573
0.196429 0.196429 0.206394
0.222568 0.221012 0.230976
0.25272 0.248981 0.258946
0.285252 0.279103 0.289052
0.319402 0.310994 0.320958
0.35494 0.344976 0.35494
0.39176 0.380774 0.390723
0.228656 0.232303 0.240696
0.258747 0.261372 0.269764
0.290684 0.292241 0.300633
0.325185 0.325185 0.333593
0.361929 0.359762 0.36817
0.400137 0.395529 0.403937
0.439857 0.433021 0.441413
0.480278 0.471885 0.480278
0.520958 0.511513 0.519921
0.333303 0.339101 0.345342
0.369528 0.374304 0.380545
0.407416 0.411139 0.41738
0.447166 0.449317 0.455558
0.48838 0.48838 0.494621
0.530144 0.527703 0.533944
0.572457 0.567788 0.574014
0.614115 0.607874 0.614115
0.654414 0.64715 0.653376
0.45684 0.465095 0.468879
0.497139 0.504356 0.508156
0.538354 0.544503 0.548302
0.580102 0.584695 0.588495
0.622095 0.624537 0.628336
0.663264 0.663264 0.667063
0.703593 0.70135 0.70515
0.742031 0.738231 0.742031
0.778225 0.773404 0.777203
0.590387 0.60087 0.602426
0.630869 0.64033 0.641886
0.671 0.679393 0.680964
0.710399 0.717235 0.718791
0.748486 0.753155 0.754726
0.785473 0.787717 0.789273
0.820569 0.820569 0.822126
0.852979 0.851408 0.852979
0.881529 0.878935 0.880491
0.719921 0.73196 0.73196
0.756588 0.76762 0.76762
0.791959 0.801923 0.801923
0.825849 0.834241 0.834241
0.857404 0.863645 0.863645
0.885405 0.889189 0.889189
0.909453 0.911009 0.911009
0.93022 0.93022 0.93022
0.948882 0.947845 0.947845
0.833417 0.846494 0.845457
0.863188 0.875242 0.874205
0.88838 0.899382 0.898344
0.910613 0.920058 0.91902
0.931105 0.938384 0.937346
0.950622 0.955444 0.954406
0.969192 0.971801 0.970764
0.986893 0.987915 0.986893
1 1 1
0.0458991 0.0458991 0.0589761
0.0630808 0.0620584 0.0751202
0.0799573 0.0778821 0.090959
0.0974594 0.0938125 0.106889
0.115816 0.110002 0.123079
0.134997 0.126757 0.139834
0.154757 0.144274 0.157351
0.175479 0.163439 0.176516
0.197681 0.184604 0.197681
0.099855 0.100877 0.112932
0.117479 0.117479 0.129534
0.135744 0.134676 0.146731
0.155642 0.153017 0.165072
0.177462 0.172686 0.184741
0.201511 0.194293 0.206348
0.22797 0.218509 0.230564
0.257572 0.24654 0.258595
0.289052 0.276997 0.289052
0.159106 0.161181 0.172183
0.180789 0.181842 0.192844
0.204578 0.204578 0.215564
0.231846 0.230289 0.241291
0.262791 0.259068 0.270054
0.295766 0.289601 0.300603
0.33077 0.322362 0.333364
0.366979 0.357015 0.368017
0.404273 0.393286 0.404273
0.238361 0.242008 0.251438
0.269139 0.271748 0.281178
0.301717 0.303273 0.312718
0.336751 0.336751 0.346197
0.37406 0.371893 0.381323
0.412802 0.408194 0.417624
0.45304 0.446204 0.455634
0.493751 0.485359 0.494789
0.534493 0.525063 0.534493
0.345205 0.351003 0.358267
0.381826 0.386603 0.393881
0.420233 0.423957 0.43122
0.460395 0.462547 0.469825
0.501762 0.501762 0.509041
0.543847 0.541405 0.548669
0.58613 0.58146 0.588724
0.627665 0.621424 0.628702
0.66775 0.660487 0.66775
0.470207 0.478447 0.483284
0.510719 0.517937 0.522774
0.552056 0.558221 0.563043
0.593759 0.598367 0.603189
0.635157 0.637598 0.642435
0.676402 0.676402 0.681224
0.716365 0.714137 0.718959
0.754131 0.750332 0.755169
0.789944 0.785107 0.789944
0.603754 0.614237 0.616831
0.644266 0.653727 0.656321
0.683986 0.692378 0.694972
0.722911 0.729747 0.732341
0.760525 0.765194 0.767788
0.797009 0.799237 0.801831
0.831479 0.831479 0.834073
0.862623 0.861067 0.863661
0.889647 0.887053 0.889647
0.731975 0.744015 0.745052
0.768368 0.779385 0.780423
0.803128 0.813092 0.81413
0.836347 0.844739 0.845777
0.866941 0.873182 0.87422
0.893309 0.897108 0.898146
0.916197 0.917769 0.918791
0.936233 0.936233 0.93727
0.954665 0.953628 0.954665
0.843351 0.856413 0.856413
0.871824 0.883879 0.883879
0.895872 0.906874 0.906874
0.917098 0.926528 0.926528
0.937118 0.944396 0.944396
0.956283 0.961105 0.961105
0.974762 0.977356 0.977356
0.992538 0.993576 0.993576
1 1 1
