assets/cube/ORANGE TEAL FADED.cube
TITLE "Generated by Resolve"
LUT_3D_SIZE 5
0.131395 0.131395 0.131395
0.287968 0.127398 0.127398
0.479545 0.116808 0.116808
0.70132 0.100816 0.100816
0.949905 0.0798505 0.0798505
0.129503 0.286534 0.124117
0.290394 0.290394 0.125566
0.506447 0.28307 0.105653
0.718425 0.276295 0.114931
0.971847 0.261723 0.100999
0.121904 0.475715 0.107912
0.289128 0.484688 0.123384
0.488975 0.488975 0.11664
0.763241 0.479545 0.0467536
1 0.468482 0.0763256
0.108766 0.694499 0.0856031
0.284932 0.708247 0.10573
0.483085 0.71809 0.120745
0.721218 0.721218 0.104799
1 0.713298 0
0.0915236 0.940139 0.0579538
0.272984 0.95877 0.0827955
0.482002 0.971603 0.104326
0.71284 0.981048 0.115251
0.984039 0.984039 0.090959
0.103883 0.138979 0.274647
0.284962 0.127092 0.289464
0.479133 0.116808 0.278065
0.701381 0.101366 0.261814
0.950866 0.0813153 0.24181
0.119234 0.293263 0.259083
0.291707 0.291707 0.291707
0.490532 0.28838 0.28838
0.71928 0.279332 0.279332
0.974533 0.26508 0.26508
0.120119 0.480171 0.268971
0.2916 0.488777 0.283803
0.492699 0.492699 0.285191
0.750912 0.48452 0.258015
0.990921 0.479484 0.275669
0.108934 0.700893 0.248585
0.286 0.715114 0.269032
0.492485 0.722896 0.284871
0.727291 0.727291 0.2757
1 0.717845 0.192264
0.0933394 0.948211 0.222599
0.275441 0.967453 0.248081
0.491249 0.979141 0.267887
0.721935 0.988876 0.28307
0.992218 0.992218 0.263966
0.0515145 0.151781 0.443732
0.19559 0.149554 0.480385
0.46978 0.115068 0.483726
0.697536 0.0991989 0.468147
0.948806 0.0797131 0.443275
0.0466316 0.319478 0.388876
0.217472 0.316289 0.449241
0.485985 0.288319 0.493797
0.718608 0.279194 0.482506
0.974762 0.265904 0.467887
0.0978561 0.492943 0.411017
0.277287 0.497475 0.45182
0.493538 0.493538 0.493538
0.728389 0.490608 0.490608
0.989853 0.482551 0.482551
0.105043 0.705028 0.448615
0.282521 0.719493 0.470558
0.494713 0.726635 0.485542
0.730465 0.730465 0.486397
1 0.721721 0.453376
0.0911116 0.953857 0.425391
0.27361 0.97348 0.451255
0.490745 0.985565 0.471168
0.731319 0.992767 0.48777
0.997314 0.997314 0.47657
0 0.172244 0.629938
0.0897688 0.178592 0.66154
0.391684 0.130129 0.731533
0.683803 0.0966506 0.707027
0.939971 0.0759289 0.689189
0 0.346685 0.566232
0.128145 0.343175 0.632502
0.363195 0.321645 0.720958
0.708354 0.278187 0.725368
0.970413 0.263859 0.711757
0.0128328 0.525658 0.542901
0.192523 0.529107 0.60444
0.406729 0.522957 0.679332
0.723339 0.490837 0.732525
0.989181 0.482521 0.721828
0.0704967 0.724559 0.588952
0.255695 0.734859 0.635508
0.477684 0.736675 0.682979
0.730907 0.730907 0.730907
0.998062 0.728527 0.728527
0.0846265 0.959014 0.649775
0.268528 0.977951 0.68513
0.486122 0.990188 0.707683
0.733425 0.996323 0.723018
0.999985 0.999985 0.723323
0 0.201297 0.828382
0 0.208881 0.862455
0.197177 0.183291 0.944701
0.635172 0.101122 0.98291
0.923522 0.0728313 0.957168
0 0.375647 0.769863
0.0254063 0.372183 0.838773
0.241474 0.357595 0.922469
0.629511 0.293873 1
0.955978 0.262287 0.983429
0 0.556344 0.742245
0.0905928 0.560784 0.807263
0.306401 0.55436 0.887984
0.586099 0.528756 0.992889
0.978119 0.482094 0.997742
0 0.763256 0.721218
0.159991 0.7729 0.782467
0.381964 0.7729 0.855131
0.632883 0.764614 0.941878
0.992309 0.728771 1
0.0374762 0.985107 0.788617
0.228275 1 0.840787
0.455482 1 0.893462
0.713817 1 0.946517
1 1 1
