assets/cube/ORANGE TEAL FADED.cube
TITLE "Generated by Resolve"
LUT_3D_SIZE 9
0.131395 0.131395 0.131395
0.204852 0.130327 0.130327
0.287968 0.127398 0.127398
0.379705 0.12285 0.12285
0.479545 0.116808 0.116808
0.586954 0.109422 0.109422
0.70132 0.100816 0.100816
0.822431 0.0906996 0.0906996
0.949905 0.0798505 0.0798505
0.131029 0.204303 0.129274
0.205509 0.205509 0.129
0.299428 0.20267 0.118853
0.38526 0.201205 0.125978
0.485725 0.197192 0.122576
0.594553 0.191257 0.11667
0.710597 0.184344 0.109773
0.833463 0.175998 0.101442
0.962432 0.166659 0.0921035
0.129503 0.286534 0.124117
0.205692 0.289113 0.129259
0.290394 0.290394 0.125566
0.40235 0.287282 0.0953994
0.506447 0.28307 0.105653
0.6056 0.280644 0.116014
0.718425 0.276295 0.114931
0.841566 0.269657 0.108873
0.971847 0.261723 0.100999
0.126528 0.377066 0.116609
0.20557 0.380896 0.123445
0.288609 0.384039 0.128481
0.38529 0.38529 0.12163
0.508614 0.382712 0.0772106
0.634897 0.375708 0.073991
0.746731 0.371817 0.0915694
0.859052 0.368688 0.103441
0.983398 0.363684 0.104067
0.121904 0.475715 0.107912
0.202533 0.480751 0.115846
0.289128 0.484688 0.123384
0.382467 0.487816 0.126848
0.488975 0.488975 0.11664
0.622049 0.487251 0.0612955
0.763241 0.479545 0.0467536
0.896788 0.472389 0.0551766
1 0.468482 0.0763256
0.115679 0.58146 0.0972457
0.197971 0.588174 0.106859
0.288182 0.592935 0.115358
0.381476 0.597498 0.12253
0.485664 0.599908 0.124697
0.601129 0.601129 0.110948
0.74258 0.600214 0.0473487
0.896223 0.592401 0.0215915
1 0.583398 0.0202792
0.108766 0.694499 0.0856031
0.192233 0.702388 0.096376
0.284932 0.708247 0.10573
0.381537 0.713497 0.115099
0.483085 0.71809 0.120745
0.59736 0.719738 0.122164
0.721218 0.721218 0.104799
0.870832 0.720897 0.0346838
1 0.713298 0
0.100328 0.814038 0.0720989
0.185077 0.823209 0.0841688
0.279423 0.830304 0.0946059
0.379538 0.83624 0.104952
0.482795 0.841917 0.113848
0.593469 0.846036 0.117952
0.71693 0.847501 0.119341
0.848905 0.848905 0.0978103
1 0.849241 0.023209
0.0915236 0.940139 0.0579538
0.177356 0.950393 0.071107
0.272984 0.95877 0.0827955
0.375952 0.965545 0.0937362
0.482002 0.971603 0.104326
0.592584 0.977462 0.112108
0.71284 0.981048 0.115251
0.844617 0.982269 0.116442
0.984039 0.984039 0.090959
0.120348 0.134661 0.199008
0.203754 0.130175 0.20528
0.287663 0.127291 0.202274
0.379614 0.122972 0.197436
0.479622 0.117113 0.191608
0.587198 0.109895 0.18439
0.701747 0.101472 0.175967
0.82327 0.0917983 0.166308
0.950652 0.0808576 0.155367
0.127733 0.206577 0.195392
0.205798 0.205798 0.205798
0.290822 0.204776 0.204776
0.384527 0.202197 0.202197
0.48629 0.198093 0.198093
0.595453 0.192447 0.192447
0.711543 0.18558 0.18558
0.834714 0.177539 0.177539
0.963699 0.1682 0.1682
0.128389 0.287938 0.198215
0.206317 0.290272 0.203052
0.291569 0.291569 0.20325
0.397299 0.288365 0.191028
0.491844 0.287343 0.200305
0.60087 0.283528 0.197375
0.718624 0.27834 0.192233
0.843076 0.271595 0.185519
0.973571 0.263798 0.177707
0.125673 0.37911 0.191333
0.205173 0.383032 0.198138
0.291814 0.38526 0.203754
0.386908 0.386908 0.199741
0.510094 0.383551 0.165606
0.624689 0.378866 0.175753
0.731258 0.377203 0.189334
0.851164 0.373159 0.189609
0.981308 0.367178 0.184558
0.121569 0.478279 0.183169
0.20235 0.483467 0.191241
0.292317 0.486686 0.19794
0.385061 0.490074 0.203326
0.491249 0.491249 0.195407
0.625162 0.488807 0.146456
0.761913 0.481621 0.141878
0.883528 0.477226 0.159869
1 0.474693 0.175296
0.11606 0.584741 0.17322
0.198291 0.591379 0.182742
0.290105 0.595926 0.190631
0.38613 0.599802 0.198489
0.488563 0.602808 0.20177
0.603998 0.603998 0.190311
0.746624 0.602548 0.130404
0.898177 0.594644 0.11342
1 0.587015 0.12047
0.109407 0.698039 0.161822
0.193027 0.70605 0.172732
0.286198 0.711971 0.181994
0.385992 0.716472 0.190692
0.487739 0.720867 0.197726
0.600839 0.723217 0.199817
0.724666 0.724666 0.184756
0.875517 0.723964 0.116426
1 0.715999 0.0874647
0.101457 0.818067 0.148806
0.186313 0.827329 0.160967
0.280797 0.834562 0.171527
0.383291 0.840055 0.180972
0.488319 0.845106 0.190433
0.598184 0.849714 0.195956
0.720974 0.85153 0.197559
0.852903 0.852903 0.178302
1 0.852995 0.104372
0.0929885 0.944518 0.135027
0.179019 0.954955 0.148333
0.274769 0.963439 0.160159
0.378851 0.969909 0.170382
0.487511 0.975601 0.180941
0.598718 0.981292 0.189868
0.717464 0.985443 0.193866
0.848936 0.986572 0.194949
0.988556 0.988556 0.171984
0.103883 0.138979 0.274647
0.177584 0.136995 0.289021
0.284962 0.127092 0.289464
0.378256 0.122484 0.286015
0.479133 0.116808 0.278065
0.586679 0.109636 0.270039
0.701381 0.101366 0.261814
0.823087 0.0918593 0.252323
0.950866 0.0813153 0.24181
0.105318 0.214832 0.258152
0.179355 0.214832 0.275975
0.289265 0.205051 0.292409
0.384207 0.202106 0.288731
0.486168 0.19823 0.284184
0.595621 0.192874 0.278874
0.711742 0.186023 0.272023
0.835065 0.178149 0.264164
0.964218 0.168978 0.254994
0.119234 0.293263 0.259083
0.200092 0.293767 0.274434
0.291707 0.291707 0.291707
0.386999 0.2907 0.2907
0.490532 0.28838 0.28838
0.601328 0.284367 0.284367
0.71928 0.279332 0.279332
0.843885 0.27274 0.27274
0.974533 0.26508 0.26508
0.123705 0.380636 0.275746
0.203372 0.384573 0.283604
0.292485 0.386419 0.288777
0.387732 0.387732 0.288884
0.504555 0.384405 0.275105
0.607065 0.38352 0.285969
0.724453 0.380346 0.283925
0.850462 0.375235 0.278859
0.982544 0.369009 0.272648
0.120119 0.480171 0.268971
0.201068 0.485512 0.277195
0.2916 0.488777 0.283803
0.388403 0.491188 0.289967
0.492699 0.492699 0.285191
0.626551 0.489326 0.247654
0.750912 0.48452 0.258015
0.86453 0.482902 0.273823
0.990921 0.479484 0.275669
0.115099 0.587137 0.25951
0.197482 0.593912 0.269184
0.289448 0.598596 0.277211
0.389425 0.601587 0.284108
0.490929 0.604852 0.289494
0.606043 0.606043 0.28069
0.749706 0.603784 0.22768
0.896498 0.596185 0.221714
1 0.591623 0.240192
0.108934 0.700893 0.248585
0.192691 0.709056 0.259648
0.286 0.715114 0.269032
0.387869 0.71931 0.276967
0.492485 0.722896 0.284871
0.60354 0.725933 0.288136
0.727291 0.727291 0.2757
0.879484 0.725978 0.211337
1 0.717845 0.192264
0.10135 0.821302 0.23595
0.186419 0.830777 0.248325
0.281056 0.838132 0.259022
0.384207 0.843641 0.268254
0.492821 0.84773 0.276997
0.60293 0.852399 0.284337
0.724224 0.85478 0.286427
0.856077 0.856077 0.26981
1 0.855756 0.197574
0.0933394 0.948211 0.222599
0.179568 0.958831 0.236118
0.275441 0.967453 0.248081
0.379599 0.973953 0.258305
0.491249 0.979141 0.267887
0.604242 0.984085 0.277485
0.721935 0.988876 0.28307
0.852705 0.990356 0.284352
0.992218 0.992218 0.263966
0.0811933 0.144656 0.356619
0.146166 0.145586 0.368963
0.263371 0.130983 0.389136
0.373617 0.121935 0.382513
0.475731 0.115801 0.378256
0.58529 0.108736 0.368765
0.700343 0.100496 0.35816
0.822217 0.091249 0.34789
0.950164 0.0809033 0.337545
0.0750591 0.224125 0.333272
0.146075 0.225193 0.352041
0.241779 0.218112 0.385809
0.380438 0.202152 0.387488
0.484474 0.197574 0.383337
0.594934 0.192401 0.375662
0.711269 0.185824 0.367987
0.83473 0.178088 0.360281
0.964019 0.16907 0.351278
0.0859083 0.306798 0.311757
0.16585 0.306706 0.335698
0.256626 0.3037 0.367025
0.385122 0.290974 0.388846
0.490211 0.288319 0.38529
0.601404 0.284733 0.380941
0.71928 0.279637 0.375875
0.844038 0.273198 0.369436
0.975036 0.265873 0.362127
0.109331 0.389105 0.33109
0.192294 0.39089 0.349706
0.285649 0.390539 0.368795
0.387839 0.387839 0.387839
0.492805 0.386938 0.386938
0.605371 0.384695 0.384695
0.724819 0.38117 0.38117
0.851041 0.376181 0.376181
0.983261 0.370092 0.370092
0.117082 0.482292 0.358144
0.198734 0.487129 0.371313
0.289494 0.490425 0.379339
0.388983 0.492241 0.384909
0.493446 0.493446 0.384771
0.620615 0.489998 0.369543
0.730617 0.489433 0.38204
0.855848 0.486336 0.380331
0.989364 0.481636 0.375677
0.113161 0.588937 0.355245
0.195682 0.595865 0.365057
0.287785 0.600687 0.373205
0.388449 0.603693 0.37995
0.49427 0.605768 0.38616
0.607401 0.607401 0.380896
0.75108 0.604059 0.340276
0.884733 0.598764 0.350515
1 0.597589 0.368658
0.107454 0.703182 0.344778
0.191348 0.711467 0.355962
0.28481 0.717662 0.365484
0.386603 0.721782 0.373342
0.495933 0.724529 0.380407
0.605783 0.727871 0.385946
0.729213 0.729213 0.376471
0.882322 0.726726 0.319234
1 0.719203 0.312566
0.100328 0.824018 0.33257
0.185534 0.833631 0.345083
0.280293 0.841123 0.355901
0.383581 0.846754 0.36527
0.494591 0.850416 0.373037
0.607767 0.854231 0.381506
0.726528 0.857099 0.384558
0.858534 0.858534 0.371115
1 0.857282 0.302663
0.0926223 0.951232 0.319539
0.17911 0.962127 0.333318
0.27512 0.970871 0.345388
0.3794 0.977478 0.355749
0.491905 0.98262 0.364996
0.608972 0.986587 0.374014
0.726513 0.991257 0.381399
0.855802 0.993439 0.383261
0.994995 0.994995 0.365576
0.0515145 0.151781 0.443732
0.111971 0.154421 0.4551
0.19559 0.149554 0.480385
0.358465 0.1234 0.490593
0.46978 0.115068 0.483726
0.580163 0.107561 0.478462
0.697536 0.0991989 0.468147
0.820401 0.0897688 0.45568
0.948806 0.0797131 0.443275
0.0376135 0.235111 0.414145
0.10634 0.236988 0.433616
0.191928 0.233387 0.465309
0.352483 0.208026 0.498756
0.479133 0.197345 0.490288
0.591272 0.191516 0.48603
0.709789 0.184985 0.476967
0.833722 0.177279 0.466606
0.963455 0.16878 0.456794
0.0466316 0.319478 0.388876
0.126421 0.319722 0.415793
0.217472 0.316289 0.449241
0.331991 0.305943 0.492103
0.485985 0.288319 0.493797
0.599649 0.284199 0.490211
0.718608 0.279194 0.482506
0.843565 0.273014 0.474998
0.974762 0.265904 0.467887
0.0720684 0.404608 0.381796
0.154849 0.406058 0.406577
0.248157 0.404868 0.436118
0.349355 0.401114 0.470741
0.490639 0.387121 0.494728
0.605081 0.38471 0.491356
0.724666 0.381338 0.487114
0.851011 0.376486 0.482292
0.983383 0.37055 0.476356
0.0978561 0.492943 0.411017
0.182483 0.496391 0.431296
0.277287 0.497475 0.45182
0.381262 0.496574 0.472663
0.493538 0.493538 0.493538
0.607538 0.492729 0.492729
0.728389 0.490608 0.490608
0.856123 0.487144 0.487144
0.989853 0.482551 0.482551
0.108217 0.592294 0.44509
0.192187 0.598245 0.462318
0.285145 0.602411 0.476432
0.386007 0.605371 0.484871
0.494835 0.606821 0.49041
0.608072 0.608072 0.490242
0.744762 0.604532 0.473625
0.862058 0.603983 0.487419
0.994369 0.601297 0.48632
0.105043 0.705028 0.448615
0.18909 0.713344 0.461082
0.282521 0.719493 0.470558
0.384573 0.723873 0.478676
0.494713 0.726635 0.485542
0.609186 0.728679 0.492058
0.730465 0.730465 0.486397
0.883635 0.726787 0.442542
1 0.721721 0.453376
0.0983749 0.8262 0.43801
0.183719 0.83595 0.450645
0.278614 0.843565 0.461585
0.381781 0.849058 0.470817
0.493187 0.853101 0.47895
0.611353 0.855726 0.486275
0.728649 0.858946 0.491814
0.860334 0.860334 0.481575
1 0.858076 0.420874
0.0911116 0.953857 0.425391
0.177722 0.964858 0.439292
0.27361 0.97348 0.451255
0.378271 0.980468 0.461967
0.490745 0.985565 0.471168
0.610727 0.989151 0.479225
0.731319 0.992767 0.48777
0.858244 0.99588 0.491051
0.997314 0.997314 0.47657
0.0143282 0.160983 0.535164
0.0704204 0.165423 0.545739
0.141421 0.164813 0.567849
0.277852 0.143862 0.606302
0.458518 0.115084 0.598154
0.573465 0.106554 0.591943
0.691051 0.0979019 0.586191
0.815991 0.0881514 0.575128
0.945891 0.0778058 0.561639
0 0.247959 0.500145
0.0609903 0.25034 0.520668
0.147417 0.246296 0.553079
0.265309 0.232868 0.596414
0.463447 0.199481 0.607797
0.585077 0.191043 0.600656
0.704387 0.184024 0.596124
0.830503 0.175875 0.586007
0.961608 0.167376 0.574289
0.00227359 0.332967 0.473808
0.0827649 0.332998 0.50312
0.174517 0.329442 0.537896
0.277867 0.322896 0.578195
0.456962 0.294514 0.614542
0.594034 0.284123 0.606302
0.714717 0.278447 0.60238
0.841794 0.272007 0.593301
0.97377 0.265126 0.583551
0.0303349 0.418433 0.463157
0.1131 0.41973 0.491569
0.205356 0.418906 0.52285
0.307073 0.414923 0.560052
0.433341 0.403281 0.607095
0.600641 0.384878 0.609171
0.722774 0.380804 0.605722
0.85034 0.376089 0.598093
0.982925 0.370398 0.590906
0.0579232 0.510063 0.461509
0.142275 0.51339 0.485801
0.236988 0.51426 0.513344
0.340703 0.51223 0.545571
0.451881 0.507988 0.58349
0.605219 0.492973 0.609659
0.728038 0.490578 0.606256
0.85597 0.487327 0.602014
0.989822 0.482872 0.597589
0.0848859 0.605005 0.497169
0.171084 0.610025 0.51902
0.267369 0.612589 0.541009
0.372686 0.613031 0.563195
0.486458 0.61149 0.58558
0.608133 0.608133 0.608133
0.73022 0.607248 0.607248
0.859419 0.605219 0.605219
0.994598 0.602075 0.602075
0.0974289 0.710063 0.536873
0.183444 0.717189 0.557092
0.27863 0.722179 0.575433
0.381643 0.725704 0.590387
0.491997 0.728389 0.599237
0.609766 0.729717 0.60502
0.730983 0.730983 0.604746
0.876905 0.727184 0.586847
1 0.727199 0.602243
0.0953231 0.828443 0.54667
0.181018 0.837934 0.562692
0.276051 0.845487 0.575433
0.37937 0.851118 0.584833
0.490913 0.855268 0.593088
0.609796 0.857725 0.599985
0.732158 0.859663 0.606714
0.861509 0.861509 0.600595
1 0.857939 0.554086
0.0887312 0.955947 0.539452
0.175463 0.967086 0.553475
0.271489 0.975814 0.565545
0.376272 0.98294 0.576394
0.488777 0.988067 0.585626
0.609003 0.991852 0.593866
0.735027 0.994156 0.60119
0.86009 0.997467 0.606928
0.999008 0.999008 0.596109
0 0.172244 0.629938
0.0214847 0.178012 0.639811
0.0897688 0.178592 0.66154
0.191974 0.1682 0.699397
0.391684 0.130129 0.731533
0.564416 0.105623 0.712444
0.683803 0.0966506 0.707027
0.808576 0.0868391 0.700725
0.939971 0.0759289 0.689189
0 0.261997 0.590555
0.0109407 0.264317 0.612818
0.100374 0.259586 0.647059
0.203906 0.250874 0.686702
0.37731 0.221469 0.733761
0.574105 0.191257 0.723201
0.697581 0.183307 0.717922
0.823789 0.174838 0.712642
0.956847 0.165835 0.702419
0 0.346685 0.566232
0.0358129 0.34667 0.596902
0.128145 0.343175 0.632502
0.231449 0.336767 0.67277
0.363195 0.321645 0.720958
0.578058 0.286259 0.731929
0.708354 0.278187 0.725368
0.83624 0.271321 0.721187
0.970413 0.263859 0.711757
0 0.432563 0.554376
0.0668345 0.434302 0.583841
0.158846 0.433402 0.616617
0.261311 0.429267 0.655268
0.374807 0.421912 0.699443
0.570779 0.391485 0.738674
0.71693 0.380926 0.73022
0.846281 0.375463 0.72668
0.981109 0.369451 0.717952
0.0128328 0.525658 0.542901
0.0977493 0.528496 0.572534
0.192523 0.529107 0.60444
0.295048 0.527428 0.638621
0.406729 0.522957 0.679332
0.544244 0.510307 0.730495
0.723339 0.490837 0.732525
0.854002 0.486854 0.729244
0.989181 0.482521 0.721828
0.0425879 0.623529 0.548058
0.128527 0.62855 0.572641
0.224475 0.630976 0.599039
0.329442 0.630961 0.628611
0.443122 0.628367 0.663584
0.563592 0.623697 0.704585
0.727794 0.607553 0.732555
0.859068 0.605234 0.729168
0.99443 0.602304 0.725155
0.0704967 0.724559 0.588952
0.158083 0.730968 0.612192
0.255695 0.734859 0.635508
0.362478 0.736767 0.659159
0.477684 0.736675 0.682979
0.600793 0.734737 0.706966
0.730907 0.730907 0.730907
0.861509 0.730297 0.730297
0.998062 0.728527 0.728527
0.0846418 0.835248 0.633265
0.172457 0.84361 0.655818
0.269718 0.849714 0.677226
0.375067 0.854017 0.696651
0.487739 0.857221 0.712627
0.606714 0.859434 0.72163
0.732723 0.860716 0.727672
0.86186 0.86186 0.727184
1 0.858198 0.708171
0.0846265 0.959014 0.649775
0.172045 0.969573 0.668803
0.268528 0.977951 0.68513
0.373404 0.984863 0.698161
0.486122 0.990188 0.707683
0.606226 0.993851 0.715785
0.733425 0.996323 0.723018
0.863615 0.998077 0.72987
0.999985 0.999985 0.723323
0 0.185519 0.727916
0 0.192447 0.737591
0.0332952 0.193347 0.759854
0.125658 0.186435 0.794751
0.284077 0.159152 0.844053
0.5131 0.115373 0.855589
0.675608 0.0950942 0.834272
0.800763 0.0853132 0.829053
0.931563 0.0743725 0.822156
0 0.277241 0.686015
0 0.27863 0.711162
0.0499428 0.273396 0.747051
0.15201 0.265217 0.786038
0.283909 0.24828 0.834058
0.506905 0.206439 0.866438
0.68867 0.182589 0.846601
0.816648 0.174075 0.842069
0.949065 0.16466 0.836439
0 0.361013 0.665309
0 0.3608 0.696864
0.0783856 0.357549 0.733166
0.181552 0.351156 0.773297
0.296422 0.341848 0.817578
0.488533 0.309255 0.868025
0.697337 0.278599 0.856153
0.829328 0.270878 0.851408
0.963409 0.263035 0.847013
0 0.447379 0.652155
0.0166781 0.449363 0.682765
0.10901 0.448295 0.716915
0.212024 0.444114 0.75642
0.325567 0.437034 0.800641
0.470344 0.420569 0.853498
0.700572 0.383276 0.864286
0.839673 0.375372 0.85803
0.975204 0.368856 0.854414
0 0.540658 0.639658
0.0491798 0.543786 0.670008
0.143252 0.544717 0.702861
0.245609 0.543099 0.738811
0.358083 0.53843 0.781094
0.481285 0.530556 0.829114
0.692103 0.497841 0.870756
0.847898 0.487114 0.862165
0.984878 0.481971 0.859129
0 0.640879 0.629114
0.0805219 0.645487 0.65861
0.177081 0.647303 0.691173
0.28217 0.646937 0.725811
0.394537 0.644709 0.762966
0.515358 0.639597 0.806775
0.662928 0.626093 0.861677
0.854109 0.60557 0.863935
0.992355 0.601862 0.861006
0.0257725 0.744411 0.640894
0.112993 0.750713 0.665965
0.210437 0.754742 0.692439
0.316823 0.756466 0.720821
0.431632 0.755871 0.752605
0.554604 0.752789 0.790188
0.683406 0.747539 0.833829
0.85893 0.730632 0.863996
0.997436 0.728283 0.860548
0.0543679 0.851347 0.686107
0.143481 0.859281 0.710872
0.24242 0.8645 0.735515
0.350591 0.867796 0.760555
0.467201 0.869093 0.785763
0.591424 0.868284 0.81088
0.723156 0.866056 0.836439
0.861906 0.861906 0.861906
0.999725 0.861418 0.861418
0.0706493 0.96759 0.735012
0.159869 0.976944 0.759289
0.259007 0.984253 0.783169
0.366308 0.989425 0.805692
0.481407 0.993317 0.826474
0.602762 0.995895 0.843122
0.730205 0.998199 0.852857
0.864179 0.9991 0.858854
1 1 0.858457
0 0.201297 0.828382
0 0.208576 0.838666
0 0.208881 0.862455
0.0689403 0.201068 0.898192
0.197177 0.183291 0.944701
0.402991 0.143175 0.991089
0.635172 0.101122 0.98291
0.792859 0.08336 0.962402
0.923522 0.0728313 0.957168
0 0.2934 0.786709
0 0.292683 0.815854
0 0.28751 0.852049
0.0987564 0.279789 0.891386
0.214008 0.268132 0.934844
0.393149 0.237461 0.988815
0.638102 0.192081 0.997436
0.808713 0.172793 0.97641
0.941253 0.163424 0.972015
0 0.375647 0.769863
0 0.375341 0.802106
0.0254063 0.372183 0.838773
0.128649 0.365988 0.878981
0.241474 0.357595 0.922469
0.3879 0.338537 0.975402
0.629511 0.293873 1
0.820676 0.27042 0.987213
0.955978 0.262287 0.983429
0 0.462669 0.755718
0 0.464698 0.78732
0.0562905 0.463554 0.822629
0.159716 0.459419 0.862684
0.273335 0.452567 0.906996
0.398688 0.442466 0.955444
0.608148 0.407218 1
0.828763 0.375982 0.995941
0.968109 0.368566 0.991821
0 0.556344 0.742245
0 0.55996 0.773541
0.0905928 0.560784 0.807263
0.193347 0.559091 0.844785
0.306401 0.55436 0.887984
0.429541 0.546685 0.935988
0.586099 0.528756 0.992889
0.831434 0.489662 1
0.978119 0.482094 0.997742
0 0.656977 0.729046
0.0302892 0.661555 0.760647
0.126238 0.663645 0.79411
0.230503 0.663615 0.82974
0.342504 0.661326 0.86862
0.464179 0.656031 0.914168
0.596353 0.64773 0.965774
0.822187 0.612894 1
0.986068 0.602289 1
0 0.763256 0.721218
0.0622568 0.769345 0.750546
0.159991 0.7729 0.782467
0.267002 0.773922 0.8177
0.381964 0.7729 0.855131
0.503304 0.769924 0.894835
0.632883 0.764614 0.941878
0.790997 0.750179 1
0.992309 0.728771 1
0.00767529 0.872374 0.739055
0.0964675 0.880247 0.765148
0.19527 0.885649 0.792065
0.30309 0.888914 0.820279
0.418967 0.889769 0.850248
0.542992 0.888655 0.884077
0.674434 0.885084 0.923934
0.811902 0.879515 0.970489
0.996887 0.861646 1
0.0374762 0.985107 0.788617
0.127733 0.994186 0.814527
0.228275 1 0.840787
0.337545 1 0.866926
0.455482 1 0.893462
0.581033 1 0.919905
0.713817 1 0.946517
0.854124 1 0.973541
1 1 1
