assets/cube/ORANGE TEAL FADED.cube
TITLE "Generated by Resolve"
LUT_3D_SIZE 33
0.131395 0.131395 0.131395
0.148684 0.131182 0.131182
0.166781 0.131121 0.131121
0.185428 0.130648 0.130648
0.204852 0.130327 0.130327
0.224659 0.129625 0.129625
0.245197 0.129091 0.129091
0.26627 0.128145 0.128145
0.287968 0.127398 0.127398
0.310155 0.126467 0.126467
0.332769 0.125322 0.125322
0.355993 0.124163 0.124163
0.379705 0.12285 0.12285
0.403906 0.121416 0.121416
0.428611 0.120012 0.120012
0.453666 0.118349 0.118349
0.479545 0.116808 0.116808
0.505547 0.115068 0.115068
0.532311 0.113283 0.113283
0.559167 0.111299 0.111299
0.586954 0.109422 0.109422
0.61474 0.107256 0.107256
0.643244 0.105272 0.105272
0.671931 0.102953 0.102953
0.70132 0.100816 0.100816
0.730892 0.0983291 0.0983291
0.761151 0.096025 0.096025
0.791577 0.0934005 0.0934005
0.822431 0.0906996 0.0906996
0.853956 0.0881819 0.0881819
0.885649 0.0853437 0.0853437
0.9178 0.0827192 0.0827192
0.949905 0.0798505 0.0798505
0.131365 0.148638 0.13109
0.148882 0.148882 0.130922
0.1691 0.148272 0.128222
0.186404 0.148425 0.130617
0.205219 0.148074 0.130556
0.225376 0.147753 0.130251
0.245777 0.147097 0.129595
0.267216 0.146517 0.129015
0.288777 0.145632 0.12813
0.311147 0.144884 0.127382
0.333806 0.143786 0.126299
0.357259 0.14284 0.125353
0.380987 0.141543 0.124041
0.405478 0.140398 0.122911
0.430106 0.138949 0.121447
0.455528 0.137636 0.120134
0.48127 0.135973 0.118471
0.507546 0.134508 0.117006
0.534249 0.132662 0.11516
0.56141 0.130968 0.113466
0.58912 0.129015 0.111513
0.617197 0.127138 0.109636
0.645624 0.125078 0.107591
0.674418 0.122866 0.105379
0.703914 0.120836 0.103334
0.733593 0.118471 0.100969
0.763943 0.116274 0.0987716
0.794491 0.113756 0.0962539
0.825696 0.111406 0.0939193
0.857069 0.108736 0.091249
0.888853 0.105989 0.0885023
0.921111 0.103487 0.0859998
0.953323 0.10071 0.0832227
0.131533 0.16669 0.130892
0.149081 0.166751 0.131258
0.167117 0.167117 0.13051
0.18938 0.166522 0.123888
0.210132 0.165942 0.125414
0.22797 0.165789 0.12845
0.247349 0.165759 0.12961
0.26804 0.165179 0.129397
0.289784 0.164706 0.129
0.312001 0.163821 0.12813
0.335027 0.163088 0.127413
0.358343 0.162005 0.126329
0.382376 0.161028 0.125353
0.406775 0.159792 0.124117
0.431525 0.15845 0.122789
0.457038 0.157244 0.121584
0.482902 0.155688 0.120012
0.509285 0.154345 0.118669
0.536095 0.152605 0.11693
0.563424 0.15108 0.115404
0.591165 0.149172 0.113497
0.61944 0.147478 0.111818
0.647883 0.145449 0.109789
0.676799 0.143343 0.107683
0.706386 0.141405 0.105745
0.736171 0.139147 0.103487
0.766644 0.137057 0.101396
0.797284 0.134646 0.0989853
0.828565 0.132372 0.0967117
0.860075 0.129839 0.0941787
0.891966 0.127199 0.0915389
0.924315 0.124788 0.089128
0.956619 0.122118 0.0864576
0.131304 0.185245 0.130159
0.149096 0.185397 0.130678
0.166796 0.185809 0.131304
0.18584 0.18584 0.129595
0.209079 0.185718 0.120928
0.232364 0.184558 0.119478
0.253422 0.184054 0.122072
0.272404 0.183764 0.12549
0.292424 0.183719 0.127428
0.313573 0.183185 0.127779
0.336065 0.182712 0.127687
0.359197 0.181796 0.126909
0.383322 0.180987 0.126146
0.407782 0.179828 0.124987
0.432868 0.178836 0.12401
0.458244 0.177493 0.122667
0.484413 0.176242 0.121431
0.510704 0.174807 0.119982
0.537621 0.173175 0.118364
0.565057 0.171756 0.116945
0.592905 0.169955 0.115145
0.621271 0.168368 0.113558
0.649836 0.166445 0.111635
0.679042 0.164645 0.10985
0.708537 0.162615 0.10782
0.738415 0.160464 0.105653
0.768994 0.158465 0.10367
0.799725 0.156161 0.10135
0.831144 0.154025 0.0992142
0.86273 0.151553 0.0967575
0.894713 0.14902 0.0942092
0.927169 0.146715 0.0919051
0.959579 0.144137 0.0893263
0.131029 0.204303 0.129274
0.149172 0.204761 0.130129
0.167208 0.204959 0.130785
0.185779 0.205417 0.131258
0.205509 0.205509 0.129
0.229404 0.205554 0.118853
0.254093 0.204379 0.115282
0.278141 0.203403 0.115801
0.299428 0.20267 0.118853
0.319371 0.202426 0.122591
0.340108 0.202258 0.124956
0.362081 0.201785 0.125826
0.38526 0.201205 0.125978
0.409186 0.20029 0.125414
0.434058 0.199481 0.124788
0.459419 0.198276 0.123644
0.485725 0.197192 0.122576
0.512062 0.195804 0.121202
0.539239 0.194446 0.119844
0.566613 0.192966 0.118379
0.594553 0.191257 0.11667
0.623026 0.189776 0.115206
0.651682 0.187961 0.11339
0.680903 0.186175 0.111604
0.710597 0.184344 0.109773
0.740581 0.182284 0.107713
0.771252 0.180392 0.105837
0.80209 0.17818 0.103624
0.833463 0.175998 0.101442
0.865278 0.173785 0.0992142
0.897368 0.171344 0.096788
0.929931 0.169131 0.0945754
0.962432 0.166659 0.0921035
0.130922 0.224231 0.128435
0.148943 0.224521 0.129168
0.167651 0.224826 0.129946
0.185763 0.225376 0.130861
0.205097 0.225498 0.130938
0.225864 0.225864 0.128313
0.249928 0.225818 0.117098
0.276295 0.224903 0.111559
0.301625 0.223545 0.110353
0.325841 0.222644 0.112032
0.347723 0.221927 0.115572
0.36878 0.221729 0.119585
0.390295 0.221378 0.122194
0.413001 0.220783 0.123354
0.436912 0.22031 0.123903
0.46154 0.219379 0.123613
0.487358 0.218524 0.123079
0.513436 0.217319 0.122057
0.540505 0.216037 0.120867
0.568002 0.214725 0.119585
0.596048 0.213138 0.117998
0.624598 0.211749 0.116625
0.653361 0.21004 0.114931
0.68275 0.208423 0.113313
0.712459 0.206622 0.111513
0.74255 0.204654 0.10956
0.773312 0.202869 0.107774
0.804242 0.200763 0.105669
0.83566 0.198627 0.103532
0.867628 0.196551 0.101472
0.899825 0.194217 0.0991379
0.932372 0.192004 0.0969253
0.965072 0.189715 0.0946517
0.130587 0.244419 0.12723
0.14873 0.244816 0.128099
0.167712 0.245365 0.129168
0.186236 0.245747 0.130175
0.205158 0.246433 0.130907
0.225483 0.246448 0.130907
0.246738 0.246738 0.12755
0.271733 0.246876 0.11577
0.298604 0.245853 0.108156
0.325475 0.244709 0.105928
0.35137 0.243305 0.105928
0.375952 0.24242 0.108461
0.398459 0.241718 0.112428
0.420371 0.241352 0.116442
0.442802 0.241077 0.119387
0.46627 0.240452 0.120851
0.491096 0.239902 0.121645
0.516426 0.238972 0.121569
0.542977 0.238056 0.121187
0.569924 0.236866 0.120302
0.597711 0.235447 0.119066
0.6262 0.234211 0.117922
0.655009 0.232609 0.11635
0.684291 0.230915 0.114672
0.714275 0.229389 0.113161
0.744457 0.227527 0.111315
0.775311 0.225834 0.109636
0.806348 0.223819 0.107622
0.837797 0.221729 0.105531
0.869917 0.219806 0.103624
0.902205 0.217563 0.101381
0.934691 0.215305 0.0991226
0.967636 0.21326 0.0970932
0.129992 0.265232 0.125673
0.148272 0.265751 0.126665
0.167376 0.266392 0.127871
0.186419 0.266743 0.128954
0.20528 0.267552 0.130175
0.22501 0.267887 0.130434
0.246174 0.268086 0.130632
0.26833 0.26833 0.126543
0.293507 0.268482 0.114488
0.321431 0.267796 0.105211
0.349203 0.266377 0.10135
0.376806 0.265095 0.100465
0.403159 0.263691 0.101457
0.427924 0.262592 0.104417
0.451286 0.26215 0.108904
0.47396 0.261662 0.112947
0.497505 0.261372 0.116152
0.521706 0.260746 0.117906
0.547066 0.259907 0.118685
0.573434 0.25919 0.119066
0.600565 0.25803 0.118639
0.628504 0.257023 0.118105
0.656916 0.255634 0.117006
0.685954 0.254108 0.115663
0.715846 0.252735 0.114382
0.746059 0.25098 0.112673
0.776745 0.249149 0.110857
0.808103 0.247486 0.109209
0.839658 0.245487 0.107225
0.871717 0.243519 0.105272
0.904234 0.241505 0.103273
0.936812 0.239338 0.101106
0.96965 0.237201 0.09897
0.129503 0.286534 0.124117
0.147982 0.287236 0.125338
0.167117 0.287892 0.126589
0.186557 0.288273 0.127733
0.205692 0.289113 0.129259
0.22501 0.289677 0.129961
0.24593 0.290166 0.130388
0.267796 0.290135 0.130266
0.290394 0.290394 0.125566
0.31632 0.290806 0.113466
0.344793 0.290028 0.102464
0.373831 0.288869 0.0974746
0.40235 0.287282 0.0953994
0.430335 0.285756 0.0953536
0.45713 0.284596 0.0974136
0.482261 0.283558 0.100969
0.506447 0.28307 0.105653
0.529931 0.282551 0.109773
0.554131 0.281956 0.112856
0.5794 0.281529 0.115053
0.6056 0.280644 0.116014
0.632547 0.279683 0.11635
0.660502 0.278752 0.11632
0.68896 0.27747 0.115679
0.718425 0.276295 0.114931
0.748272 0.274739 0.113649
0.778729 0.273075 0.112154
0.809995 0.27155 0.110719
0.841566 0.269657 0.108873
0.873594 0.267689 0.10692
0.90631 0.265888 0.105135
0.938979 0.263813 0.103075
0.971847 0.261723 0.100999
0.128923 0.30837 0.122393
0.147677 0.309331 0.123919
0.166751 0.309926 0.125139
0.186435 0.310384 0.126345
0.205966 0.311238 0.128054
0.225345 0.311879 0.129152
0.24564 0.312673 0.129915
0.267445 0.312779 0.129992
0.289876 0.312901 0.129854
0.313329 0.313329 0.124788
0.339559 0.313527 0.112261
0.368948 0.313115 0.100191
0.398688 0.311757 0.0935683
0.428244 0.310124 0.090547
0.457588 0.308721 0.0897993
0.485893 0.307149 0.0906233
0.513207 0.305959 0.0933394
0.538735 0.305074 0.0975052
0.563424 0.304326 0.102083
0.588006 0.303975 0.106508
0.613123 0.303349 0.109712
0.638926 0.302632 0.111849
0.666072 0.301976 0.113207
0.693767 0.300954 0.11368
0.722286 0.299763 0.113573
0.751812 0.298695 0.113268
0.781765 0.297246 0.112383
0.812406 0.295674 0.111177
0.843885 0.294224 0.109987
0.8757 0.292409 0.108339
0.908064 0.290486 0.106523
0.941009 0.288777 0.104845
0.973968 0.286778 0.102861
0.128237 0.330755 0.120562
0.147097 0.331807 0.122225
0.166262 0.332509 0.123568
0.18613 0.333043 0.124865
0.206043 0.333913 0.12665
0.225666 0.334585 0.128038
0.245823 0.335531 0.129198
0.267002 0.335943 0.129519
0.289403 0.336049 0.12961
0.312642 0.336339 0.129397
0.336645 0.336645 0.123705
0.363684 0.337118 0.111208
0.393439 0.336568 0.0978256
0.424033 0.335256 0.0898604
0.454688 0.333898 0.0861524
0.484901 0.332158 0.0843366
0.514702 0.330419 0.0842298
0.543542 0.329152 0.0861372
0.571069 0.327825 0.0893263
0.59704 0.326879 0.0937819
0.622721 0.32636 0.0987259
0.647944 0.325734 0.102953
0.673747 0.325078 0.106233
0.700648 0.324544 0.108751
0.728344 0.323613 0.110002
0.756848 0.322576 0.110643
0.786374 0.321569 0.110887
0.816419 0.320211 0.110445
0.847105 0.318746 0.109667
0.878782 0.317372 0.108782
0.910796 0.315648 0.107393
0.943191 0.313863 0.105837
0.976181 0.312261 0.104402
0.127459 0.353643 0.118624
0.146395 0.354818 0.120424
0.165637 0.355612 0.12192
0.185626 0.356237 0.123293
0.205905 0.357137 0.125109
0.225864 0.357839 0.126665
0.246021 0.35874 0.128069
0.266941 0.359472 0.128862
0.288914 0.359838 0.129122
0.312245 0.360174 0.129458
0.335851 0.36022 0.128695
0.36054 0.36054 0.12256
0.388144 0.361044 0.109926
0.418479 0.360586 0.0956588
0.449928 0.359564 0.0865949
0.481376 0.358022 0.0816205
0.512673 0.356207 0.079057
0.543587 0.354574 0.0783093
0.573953 0.352926 0.0791333
0.60293 0.351431 0.0815137
0.631083 0.350393 0.0855268
0.657618 0.349462 0.0902571
0.683619 0.348714 0.095079
0.709834 0.34818 0.0994583
0.736614 0.34757 0.102907
0.764096 0.346746 0.105287
0.792767 0.345922 0.106813
0.82211 0.3449 0.107637
0.852171 0.343648 0.10779
0.882979 0.34226 0.107454
0.914733 0.340993 0.106981
0.946654 0.339406 0.10602
0.979034 0.337758 0.104784
0.126528 0.377066 0.116609
0.14551 0.378317 0.118532
0.164858 0.379248 0.120165
0.18497 0.379965 0.12163
0.20557 0.380896 0.123445
0.225879 0.381628 0.125124
0.246189 0.382483 0.12668
0.26717 0.383413 0.127916
0.288609 0.384039 0.128481
0.311589 0.384421 0.128801
0.335454 0.384634 0.129015
0.359686 0.38471 0.127886
0.38529 0.38529 0.12163
0.413199 0.385565 0.108583
0.443931 0.385229 0.0937057
0.476249 0.384344 0.0833753
0.508614 0.382712 0.0772106
0.540612 0.380941 0.0739452
0.5729 0.379278 0.0725414
0.604227 0.377447 0.0725109
0.634897 0.375708 0.073991
0.664515 0.374456 0.0771649
0.692622 0.373297 0.0814984
0.719768 0.372366 0.0864576
0.746731 0.371817 0.0915694
0.773693 0.37113 0.0958724
0.80119 0.370352 0.0992599
0.829496 0.369482 0.101717
0.859052 0.368688 0.103441
0.889082 0.367544 0.10428
0.919905 0.366247 0.10454
0.951537 0.365133 0.104601
0.983398 0.363684 0.104067
0.12546 0.401007 0.114565
0.144488 0.402289 0.116533
0.163989 0.403372 0.118318
0.184207 0.404196 0.119875
0.205051 0.405188 0.121691
0.225696 0.405951 0.12343
0.24625 0.406775 0.125109
0.26743 0.407813 0.126696
0.288685 0.408591 0.127611
0.310979 0.409155 0.128054
0.33492 0.409613 0.128481
0.359258 0.409674 0.128542
0.384115 0.409781 0.127031
0.410376 0.410376 0.120394
0.438712 0.410697 0.107317
0.469993 0.410422 0.0917983
0.503136 0.409583 0.0802014
0.53608 0.408042 0.0730297
0.569223 0.406195 0.068864
0.602213 0.404547 0.0668956
0.634882 0.402579 0.0660716
0.666682 0.400732 0.0667887
0.69778 0.399313 0.069276
0.727535 0.397879 0.0728008
0.756069 0.396719 0.0774853
0.784024 0.395972 0.0827955
0.811597 0.395239 0.0878004
0.839338 0.394461 0.0921035
0.867689 0.393637 0.0955215
0.897047 0.392966 0.0982986
0.927138 0.391882 0.099855
0.957763 0.390738 0.100847
0.989044 0.389593 0.101366
0.124407 0.425406 0.112505
0.143359 0.426612 0.114397
0.163134 0.42797 0.116442
0.183444 0.42887 0.118105
0.204288 0.429755 0.119768
0.225437 0.430747 0.121721
0.246296 0.431601 0.123522
0.267475 0.432456 0.125124
0.289006 0.433555 0.126589
0.310994 0.434287 0.127337
0.334325 0.434943 0.127855
0.358816 0.435187 0.128099
0.383764 0.435233 0.128145
0.409232 0.43537 0.126207
0.436011 0.436011 0.119249
0.464958 0.436332 0.105989
0.49688 0.436133 0.0899367
0.530404 0.435401 0.0773785
0.564416 0.433845 0.0690013
0.598169 0.432059 0.0640574
0.632273 0.430304 0.0614176
0.665721 0.428321 0.0599832
0.698695 0.426368 0.0600137
0.73109 0.42472 0.0616617
0.762387 0.423148 0.0645304
0.792447 0.421744 0.0686503
0.821469 0.420615 0.07364
0.850126 0.419928 0.0791485
0.878386 0.419089 0.084123
0.90695 0.41828 0.088426
0.936141 0.417426 0.0918898
0.966094 0.416724 0.0947127
0.996612 0.415702 0.0964065
0.123232 0.450294 0.110292
0.14229 0.451606 0.112291
0.162127 0.45304 0.114412
0.182559 0.454063 0.116182
0.203479 0.454963 0.117861
0.224872 0.45597 0.119783
0.246143 0.456947 0.121752
0.267567 0.457816 0.123507
0.289281 0.458991 0.125261
0.311177 0.459846 0.126345
0.333928 0.460548 0.12697
0.358068 0.461036 0.127352
0.383261 0.461326 0.127642
0.40882 0.461372 0.127672
0.434852 0.461662 0.125414
0.462211 0.462211 0.118013
0.491814 0.462531 0.104524
0.523964 0.462409 0.0881971
0.558434 0.461738 0.074403
0.59292 0.460288 0.0651713
0.627726 0.458427 0.059266
0.662394 0.456657 0.0559548
0.696834 0.454688 0.0540169
0.730861 0.452644 0.0533608
0.764309 0.450675 0.0541085
0.797131 0.449119 0.0565042
0.828748 0.447486 0.0598459
0.859159 0.446143 0.0644541
0.888701 0.445029 0.0697185
0.918044 0.444312 0.0752728
0.947021 0.443458 0.0803082
0.976211 0.442649 0.0846265
1 0.441901 0.0882277
0.121904 0.475715 0.107912
0.141039 0.477119 0.109987
0.160754 0.478401 0.111986
0.181506 0.479759 0.114076
0.202533 0.480751 0.115846
0.224018 0.481651 0.117617
0.245731 0.482841 0.119799
0.267445 0.483726 0.12166
0.289128 0.484688 0.123384
0.31136 0.485878 0.125002
0.333944 0.486732 0.125948
0.357473 0.487373 0.126467
0.382467 0.487816 0.126848
0.408225 0.48806 0.127092
0.434241 0.488136 0.127092
0.460883 0.488396 0.124361
0.488975 0.488975 0.11664
0.518898 0.489372 0.103197
0.551766 0.48925 0.086305
0.586496 0.488624 0.0716716
0.622049 0.487251 0.0612955
0.65742 0.485466 0.0545663
0.692744 0.483497 0.0503548
0.728206 0.481666 0.0480507
0.763241 0.479545 0.0467536
0.797787 0.47747 0.0468452
0.831785 0.475639 0.0484169
0.86482 0.47396 0.0513008
0.896788 0.472389 0.0551766
0.927611 0.471061 0.0601663
0.957702 0.469947 0.0656138
0.987533 0.469276 0.0712749
1 0.468482 0.0763256
0.120455 0.50132 0.105394
0.13991 0.503029 0.107774
0.159701 0.504402 0.109865
0.180301 0.505608 0.111803
0.201663 0.50695 0.113909
0.223346 0.507912 0.115709
0.245075 0.508888 0.117662
0.267338 0.510063 0.11986
0.289265 0.511055 0.121752
0.311421 0.512047 0.123369
0.334157 0.513161 0.124773
0.357504 0.514061 0.125673
0.381826 0.514641 0.126101
0.407507 0.514946 0.126375
0.433814 0.515297 0.126726
0.460441 0.515358 0.126589
0.487724 0.515572 0.123339
0.516274 0.516274 0.115465
0.54696 0.516625 0.101671
0.580102 0.516594 0.0846571
0.615473 0.515816 0.0688792
0.651652 0.514717 0.0577859
0.687785 0.512963 0.0501564
0.723918 0.510979 0.0451972
0.759991 0.508919 0.0421607
0.796109 0.50695 0.0405432
0.831693 0.504784 0.0400092
0.866697 0.502693 0.0407721
0.900999 0.500847 0.0429847
0.934493 0.499229 0.0463722
0.966674 0.497704 0.0508888
0.997757 0.496468 0.0561837
1 0.49546 0.0618143
0.118929 0.527642 0.102754
0.138262 0.529229 0.105028
0.158404 0.530953 0.107454
0.179095 0.532235 0.109483
0.20029 0.533425 0.111437
0.22237 0.534722 0.113542
0.244343 0.535729 0.115496
0.266636 0.536706 0.11751
0.289097 0.537987 0.119768
0.311452 0.53901 0.121584
0.334127 0.540032 0.123095
0.357351 0.541009 0.124254
0.381537 0.542 0.125154
0.406668 0.542504 0.125521
0.432853 0.542748 0.125765
0.459831 0.54313 0.126146
0.487114 0.543175 0.125826
0.514763 0.543465 0.122286
0.543862 0.543862 0.113741
0.575113 0.544518 0.100252
0.608972 0.544503 0.0827649
0.644633 0.543847 0.0664073
0.681224 0.54255 0.0540169
0.718364 0.541085 0.0456703
0.755276 0.539101 0.0399786
0.792111 0.536965 0.0362554
0.82887 0.534752 0.0339208
0.86566 0.532769 0.0330358
0.901732 0.530571 0.0332189
0.937133 0.528496 0.0346532
0.971679 0.526558 0.0373693
1 0.525124 0.0413977
1 0.523751 0.0463264
0.11754 0.554391 0.100252
0.13695 0.556069 0.102617
0.156939 0.557641 0.104891
0.177966 0.559258 0.107256
0.199268 0.56054 0.109285
0.22118 0.561669 0.111223
0.243656 0.562997 0.113436
0.266209 0.564004 0.115496
0.28867 0.565057 0.117586
0.311315 0.566171 0.1196
0.334371 0.567452 0.121553
0.35758 0.568475 0.122942
0.381415 0.56939 0.123919
0.406378 0.570367 0.124773
0.432212 0.570825 0.125124
0.459022 0.571038 0.125338
0.486412 0.57113 0.125444
0.51429 0.571496 0.125231
0.542733 0.571771 0.121187
0.572229 0.572229 0.11249
0.603983 0.572595 0.0984054
0.638331 0.5729 0.0811627
0.674556 0.57232 0.0640574
0.711788 0.571084 0.050721
0.749386 0.56939 0.0411994
0.787289 0.567651 0.0349737
0.824918 0.565515 0.0306554
0.862455 0.563256 0.0278477
0.899886 0.560967 0.0261997
0.937041 0.558801 0.0258946
0.973678 0.556741 0.0268559
1 0.554726 0.0289769
1 0.552941 0.0322423
0.115679 0.58146 0.0972457
0.135393 0.583444 0.0999161
0.155474 0.585092 0.102281
0.176349 0.586557 0.104494
0.197971 0.588174 0.106859
0.219989 0.589395 0.108873
0.242405 0.590539 0.110872
0.265461 0.591836 0.113191
0.288182 0.592935 0.115358
0.31104 0.594049 0.117464
0.334081 0.595148 0.119387
0.357656 0.596475 0.121248
0.381476 0.597498 0.12253
0.405951 0.598398 0.1234
0.431312 0.599084 0.123949
0.458198 0.599725 0.124514
0.485664 0.599908 0.124697
0.513405 0.600046 0.124834
0.541787 0.600107 0.124102
0.570855 0.600702 0.120043
0.601129 0.601129 0.110948
0.633204 0.601541 0.0968948
0.667765 0.601633 0.0791638
0.704723 0.601373 0.0617075
0.74258 0.600214 0.0473487
0.780865 0.59855 0.0369573
0.819272 0.596582 0.0296483
0.857664 0.594415 0.0246586
0.896223 0.592401 0.0215915
0.934462 0.590066 0.0194553
0.972473 0.587716 0.0184482
1 0.585473 0.0187686
1 0.583398 0.0202792
0.114092 0.609094 0.0945144
0.133684 0.610941 0.0970474
0.154101 0.61294 0.0997482
0.175051 0.614496 0.102052
0.196521 0.615946 0.104265
0.218845 0.617456 0.106569
0.241443 0.618723 0.108659
0.264469 0.619821 0.11075
0.287449 0.620966 0.112963
0.310811 0.622354 0.115404
0.334096 0.623499 0.117479
0.35761 0.624628 0.119326
0.38146 0.625711 0.120836
0.406119 0.626978 0.12224
0.431174 0.627863 0.123033
0.457313 0.628489 0.123507
0.484749 0.628794 0.123781
0.512825 0.629267 0.124254
0.541314 0.629343 0.124331
0.570031 0.62948 0.123369
0.599619 0.629786 0.118608
0.630411 0.630411 0.109483
0.663127 0.630945 0.0953841
0.698161 0.631067 0.0773785
0.735348 0.63061 0.0591897
0.773831 0.629511 0.0438849
0.813031 0.628153 0.0329137
0.85214 0.6262 0.0248264
0.891279 0.624018 0.0191806
0.930343 0.621729 0.0153353
0.96936 0.619348 0.0127413
1 0.617258 0.0115511
1 0.615 0.0113527
0.112474 0.637201 0.091722
0.132158 0.639155 0.0943465
0.152407 0.64097 0.0968795
0.173617 0.642786 0.0994125
0.19527 0.644404 0.101808
0.217441 0.645792 0.104005
0.240101 0.647089 0.106126
0.263615 0.648508 0.108461
0.286824 0.649699 0.110719
0.310201 0.650874 0.112978
0.333715 0.652049 0.115175
0.357671 0.653468 0.117449
0.381659 0.654627 0.119188
0.406073 0.655711 0.120592
0.430991 0.656733 0.12166
0.45687 0.657649 0.122454
0.484016 0.658351 0.123003
0.511879 0.658671 0.123323
0.540459 0.658824 0.123476
0.569299 0.658946 0.123598
0.599008 0.659312 0.122515
0.628962 0.659678 0.117479
0.660166 0.660166 0.107958
0.693294 0.660609 0.0935988
0.728908 0.660853 0.0754711
0.766735 0.660609 0.0569619
0.805783 0.659571 0.0408484
0.84538 0.657984 0.0287175
0.885191 0.656062 0.0198215
0.925109 0.653956 0.0135805
0.965118 0.65182 0.00933852
1 0.649485 0.00637827
1 0.647166 0.00453193
0.110521 0.665507 0.0885786
0.130404 0.667628 0.0913863
0.150881 0.669703 0.0941634
0.172015 0.671427 0.0966354
0.193668 0.673045 0.0990158
0.216159 0.674754 0.101518
0.238941 0.676173 0.103746
0.262379 0.677394 0.105867
0.285817 0.67863 0.108141
0.309682 0.680095 0.110704
0.33344 0.681315 0.112993
0.357366 0.682521 0.11516
0.381537 0.683711 0.117098
0.40621 0.685054 0.118929
0.431159 0.686244 0.120333
0.456748 0.687221 0.121279
0.483314 0.687984 0.121874
0.510857 0.688502 0.122286
0.539757 0.688991 0.122789
0.568673 0.689189 0.122988
0.598245 0.68925 0.123033
0.628046 0.689433 0.121431
0.658549 0.68983 0.11606
0.690578 0.690578 0.106523
0.724208 0.69102 0.0920119
0.760204 0.691203 0.0736095
0.798352 0.690837 0.0544747
0.837949 0.68986 0.0376135
0.878431 0.688594 0.0248722
0.918929 0.686687 0.0151522
0.959487 0.68452 0.00814832
0.999786 0.682246 0.00321965
1 0.679942 0
0.108766 0.694499 0.0856031
0.128618 0.69662 0.0883955
0.14905 0.698619 0.0910964
0.170367 0.700542 0.0937667
0.192233 0.702388 0.096376
0.214603 0.70396 0.0987411
0.23743 0.705425 0.10103
0.261128 0.706813 0.103288
0.284932 0.708247 0.10573
0.308766 0.709514 0.108095
0.332769 0.710765 0.11046
0.356924 0.712001 0.112734
0.381537 0.713497 0.115099
0.40618 0.714717 0.11696
0.431098 0.715908 0.118532
0.456596 0.717006 0.119738
0.483085 0.71809 0.120745
0.510246 0.718929 0.121401
0.53872 0.719326 0.121736
0.567712 0.7196 0.122026
0.59736 0.719738 0.122164
0.627451 0.720027 0.122408
0.657847 0.720317 0.120516
0.688899 0.720714 0.114839
0.721218 0.721218 0.104799
0.755367 0.721675 0.0901503
0.791897 0.721935 0.0716259
0.830701 0.721828 0.0522621
0.870832 0.720897 0.0346838
0.911665 0.719417 0.0208286
0.952834 0.71754 0.0103151
0.993835 0.71545 0.00268559
1 0.713298 0
0.106691 0.723674 0.0822766
0.126864 0.726116 0.0854047
0.147387 0.728206 0.0881971
0.168688 0.730114 0.0908522
0.190494 0.731899 0.0934005
0.21294 0.733547 0.0958419
0.236103 0.735348 0.0984665
0.2598 0.736721 0.100694
0.283665 0.738064 0.102983
0.307729 0.739361 0.105379
0.332158 0.740856 0.108003
0.356603 0.742199 0.11043
0.38117 0.743465 0.112688
0.405982 0.744732 0.114733
0.431006 0.745983 0.116518
0.456748 0.747417 0.118227
0.482933 0.74847 0.119326
0.509728 0.749401 0.120119
0.537713 0.750042 0.120607
0.566674 0.750439 0.120974
0.596643 0.750896 0.121431
0.626627 0.75108 0.121614
0.657053 0.751186 0.121599
0.687907 0.751431 0.119295
0.719493 0.751842 0.113329
0.752407 0.752407 0.10309
0.787274 0.753079 0.0885023
0.824201 0.753292 0.0697337
0.863279 0.753033 0.0498054
0.903914 0.752163 0.0315709
0.945342 0.750744 0.0168765
0.987121 0.749172 0.00585946
1 0.747189 0
0.104784 0.753521 0.079118
0.124804 0.75581 0.0820935
0.145403 0.757977 0.0849622
0.166812 0.759991 0.0877241
0.188937 0.762081 0.0905776
0.21146 0.763821 0.0931106
0.234455 0.765454 0.095552
0.258228 0.766903 0.0978561
0.282521 0.768536 0.10042
0.306813 0.769909 0.102846
0.331258 0.771252 0.105318
0.355871 0.772564 0.107774
0.380667 0.773877 0.11014
0.405936 0.775433 0.112596
0.431083 0.776745 0.114595
0.456657 0.777996 0.116274
0.482795 0.779141 0.117617
0.509407 0.780209 0.118654
0.537255 0.781247 0.119539
0.56582 0.781933 0.120073
0.595575 0.782238 0.120378
0.62565 0.782498 0.120638
0.656153 0.782666 0.120806
0.687083 0.782773 0.120668
0.718685 0.783276 0.118273
0.750835 0.783719 0.112032
0.784237 0.784237 0.101503
0.819409 0.78471 0.0865339
0.856794 0.784955 0.0676127
0.896315 0.784726 0.0473487
0.937545 0.783993 0.0285649
0.979492 0.782849 0.0132601
1 0.78117 0.00144961
0.102556 0.783536 0.0756237
