assets/cube/STARK.cube
TITLE "Generated by Resolve"
LUT_3D_SIZE 33
0 0 0
0 0 0
0.00334173 0 0
0.0345006 0 0
0.0655222 0 0
0.0991073 0 0
0.135714 0 0
0.173312 0 0
0.211292 0 0
0.24979 0 0
0.288273 0 0
0.326863 0 0
0.365713 0 0
0.404623 0 0
0.443519 0 0
0.482521 0 0
0.521263 0 0
0.559838 0 0
0.59823 0 0
0.636454 0 0
0.674998 0 0
0.713146 0 0
0.750835 0 0
0.788113 0 0
0.825025 0 0
0.861753 0 0
0.898222 0 0
0.933715 0 0
0.965988 0 0
0.98996 0 0
1 0 0
1 0 0
1 0 0
0 0 0
0 0 0
0.00299077 0 0
0.033875 0 0
0.0648814 0 0
0.0984512 0 0
0.134981 0 0
0.172641 0 0
0.210361 0 0
0.248371 0 0
0.286656 0 0
0.32517 0 0
0.363989 0 0
0.403143 0 0
0.441993 0 0
0.480873 0 0
0.519844 0 0
0.558938 0 0
0.598062 0 0
0.637171 0 0
0.675914 0 0
0.714488 0 0
0.752789 0 0
0.790799 0 0
0.828458 0 0
0.86566 0 0
0.902098 0 0
0.937697 0 0
0.970077 0 0
0.994141 0 0
1 0 0
1 0 0
1 0 0
0 0.002533 0
0 0.00238041 0
0.00205997 0.00205997 0
0.0328374 0.00189212 0
0.0636606 0.00161746 0
0.0969711 0.000564584 0
0.133471 0 0
0.170764 0 0
0.208423 0 0
0.246418 0 0
0.284703 0 0
0.323201 0 0
0.362356 0 0
0.401602 0 0
0.441032 0 0
0.480613 0 0
0.520165 0 0
0.559701 0 0
0.599512 0 0
0.639063 0 0
0.678553 0 0
0.717693 0 0
0.756268 0 0
0.794705 0 0
0.832364 0 0
0.869474 0 0
0.905989 0 0
0.941634 0 0
0.974166 0 0
0.998535 0 0
1 0 0
1 0 0
1 0 0
0 0.0332189 0
0 0.0328069 0
0.00129702 0.0322423 0
0.0318914 0.0318914 0
0.0626078 0.0315099 0
0.0961318 0.0306554 0
0.132403 0.028748 0
0.16968 0.0265507 0
0.207355 0.0242466 0
0.245518 0.0219883 0
0.284413 0.0200961 0
0.323613 0.0182193 0
0.363195 0.0163119 0
0.402914 0.0144503 0
0.442741 0.0127871 0
0.482856 0.0114443 0
0.52343 0.0106813 0
0.563638 0.00975052 0
0.603647 0.00891127 0
0.643412 0.00816358 0
0.683009 0.00750744 0
0.72224 0.00700389 0
0.761227 0.00695811 0
0.79942 0.00674449 0
0.837125 0.00669871 0
0.874311 0.0068513 0
0.910933 0.00717174 0
0.9467 0.00779736 0
0.979461 0.00952163 0
1 0.0132601 0
1 0.0182956 0
1 0.0238499 0
1 0.0295262 0
0 0.0630808 0
0 0.0626688 0
9.15541e-05 0.0621347 0
0.0308537 0.0619516 0
0.0616922 0.0616922 0
0.0950332 0.0606699 0
0.131579 0.0590066 0
0.16936 0.0573281 0
0.207736 0.0557107 0
0.246693 0.0542611 0
0.285893 0.0526741 0
0.325475 0.0511635 0
0.365637 0.0498512 0
0.406088 0.0487068 0
0.446525 0.0476539 0
0.487251 0.0469368 0
0.527718 0.046067 0
0.568017 0.0452277 0
0.608133 0.0444953 0
0.64799 0.0438239 0
0.687633 0.0432288 0
0.72723 0.0430915 0
0.765988 0.0428168 0
0.804273 0.0426947 0
0.842054 0.0427253 0
0.879286 0.0429084 0
0.916259 0.0436103 0
0.952056 0.0442664 0
0.984634 0.0457923 0
1 0.0495918 0
1 0.0546578 0
1 0.0602884 0
1 0.0663157 0
0 0.0937057 0
0 0.0934005 0
0 0.0931716 0
0.027924 0.0933852 0
0.0592966 0.0936599 0
0.0933547 0.0933547 0
0.130449 0.092256 0
0.168658 0.0909895 0
0.207782 0.090135 0
0.247211 0.0891585 0
0.287068 0.0882124 0
0.327153 0.0872053 0
0.367559 0.0861524 0
0.408301 0.0852979 0
0.44892 0.0844282 0
0.489464 0.0835279 0
0.529961 0.0826886 0
0.570336 0.0819104 0
0.610513 0.081239 0
0.65069 0.0809033 0
0.690486 0.0804608 0
0.729839 0.0800641 0
0.768643 0.0798505 0
0.806989 0.0797894 0
0.844846 0.079881 0
0.88246 0.0804608 0
0.919173 0.0808881 0
0.955016 0.08159 0
0.98764 0.0831769 0
1 0.0870222 0
1 0.0921645 0
1 0.0981155 0
1 0.103883 0
0 0.125978 0
0 0.126665 0
0 0.127108 0
0.024094 0.127764 0
0.0559548 0.128511 0
0.0906081 0.128801 0
0.128542 0.128542 0
0.16762 0.128145 0
0.206897 0.127443 0
0.246509 0.12665 0
0.286442 0.12578 0
0.326604 0.12488 0
0.367269 0.124056 0
0.407996 0.123186 0
0.448554 0.122255 0
0.489143 0.121401 0
0.529732 0.120653 0
0.570169 0.119951 0
0.610636 0.119554 0
0.65069 0.119112 0
0.690501 0.118669 0
0.729931 0.118349 0
0.768795 0.118196 0
0.807187 0.118181 0
0.845396 0.118639 0
0.88275 0.118959 0
0.919539 0.119448 0
0.955413 0.120195 0
0.988083 0.121813 0
1 0.125978 0
1 0.131197 0
1 0.136889 0
1 0.142687 0
0 0.160555 0
0 0.161608 0
0 0.162799 0
0.0211795 0.164309 0
0.053727 0.165774 0
0.0888991 0.166552 0
0.127138 0.166598 0
0.166125 0.166125 0
0.205493 0.165515 0
0.245182 0.164797 0
0.285161 0.163973 0
0.325689 0.163424 0
0.366247 0.162509 0
0.406928 0.161578 0
0.447532 0.160693 0
0.488167 0.159884 0
0.528923 0.159319 0
0.569619 0.158862 0
0.609918 0.158312 0
0.649958 0.157839 0
0.689799 0.157443 0
0.729274 0.157168 0
0.768414 0.157275 0
0.806973 0.157427 0
0.844907 0.15761 0
0.882307 0.157961 0
0.919127 0.158495 0
0.955047 0.159289 0
0.988022 0.161212 0
1 0.165194 0
1 0.170397 0
1 0.17612 0
1 0.181949 0
0 0.196887 0
0 0.198596 0
0 0.200183 0
0.0188144 0.201923 0
0.0518807 0.203891 0
0.0871748 0.204807 0
0.125368 0.204807 0
0.164462 0.20444 0
0.203922 0.203922 0
0.243763 0.203342 0
0.284062 0.202853 0
0.324346 0.202045 0
0.364935 0.201175 0
0.405661 0.200305 0
0.446342 0.199496 0
0.48716 0.198856 0
0.528023 0.198383 0
0.568566 0.197803 0
0.608942 0.197299 0
0.649042 0.196887 0
0.68893 0.196536 0
0.728618 0.19649 0
0.767727 0.196567 0
0.80621 0.196643 0
0.844205 0.196887 0
0.881636 0.197269 0
0.918471 0.197833 0
0.954742 0.198962 0
0.987488 0.200656 0
1 0.204608 0
1 0.209842 0
1 0.215579 0
1 0.221653 0
0 0.234012 0
0 0.23595 0
0 0.237766 0
0.016495 0.240024 0
0.0494545 0.241886 0
0.084947 0.243015 0
0.123369 0.243229 0
0.162661 0.243046 0
0.202243 0.242664 0
0.242359 0.242359 0
0.282506 0.241703 0
0.32285 0.240986 0
0.363516 0.240162 0
0.404288 0.239338 0
0.445319 0.23888 0
0.486076 0.238193 0
0.526802 0.237583 0
0.567407 0.237049 0
0.607797 0.236576 0
0.64802 0.236301 0
0.688197 0.236225 0
0.727749 0.236042 0
0.766751 0.236011 0
0.805264 0.236118 0
0.843275 0.236378 0
0.880888 0.236942 0
0.917937 0.237705 0
0.953918 0.238544 0
0.986664 0.240253 0
1 0.244221 0
1 0.24947 0
1 0.255421 0
1 0.261402 0
0 0.27129 0
0 0.273686 0
0 0.275776 0
0.0136263 0.277943 0
0.0467842 0.280003 0
0.0824903 0.281331 0
0.121111 0.281773 0
0.160937 0.282109 0
0.200687 0.281895 0
0.240635 0.281422 0
0.280827 0.280827 0
0.321233 0.280156 0
0.361975 0.279408 0
0.403128 0.278965 0
0.443885 0.278248 0
0.484688 0.277592 0
0.52546 0.277028 0
0.56611 0.276539 0
0.606607 0.276173 0
0.647028 0.276097 0
0.686992 0.275807 0
0.726574 0.275654 0
0.765606 0.275654 0
0.80415 0.275792 0
0.842298 0.276188 0
0.879988 0.276829 0
0.916869 0.27744 0
0.952865 0.278294 0
0.985641 0.280018 0
1 0.283986 0
1 0.289555 0
1 0.295308 0
1 0.301183 0
0 0.309026 0
0 0.311391 0
0 0.313588 0
0.0105592 0.315953 0
0.0439155 0.318227 0
0.0798352 0.319768 0
0.118959 0.320699 0
0.158694 0.320958 0
0.198642 0.320943 0
0.238788 0.320653 0
0.279072 0.320165 0
0.319539 0.319539 0
0.360647 0.319173 0
0.401541 0.318471 0
0.442374 0.317815 0
0.483223 0.317205 0
0.524025 0.316686 0
0.565026 0.316533 0
0.605493 0.316152 0
0.645685 0.315831 0
0.685679 0.315587 0
0.725277 0.315435 0
0.764355 0.315496 0
0.803204 0.315923 0
0.84126 0.316228 0
0.878752 0.316686 0
0.915648 0.317281 0
0.951644 0.318151 0
0.984497 0.319951 0
1 0.324163 0
1 0.329412 0
1 0.335164 0
1 0.341024 0
0 0.346883 0
0 0.349294 0
0 0.351629 0
0.00726329 0.354131 0
0.0409857 0.356756 0
0.0771954 0.358602 0
0.116274 0.359472 0
0.156176 0.35993 0
0.196323 0.360098 0
0.236652 0.360006 0
0.277394 0.359945 0
0.317998 0.359472 0
0.358846 0.358846 0
0.399786 0.35819 0
0.440665 0.35758 0
0.481575 0.357031 0
0.522744 0.356878 0
0.563439 0.35642 0
0.603922 0.356054 0
0.644129 0.355764 0
0.684138 0.35552 0
0.723766 0.355398 0
0.763134 0.355749 0
0.801694 0.355901 0
0.83975 0.356207 0
0.877241 0.356649 0
0.914137 0.357259 0
0.950195 0.358175 0
0.983215 0.360159 0
1 0.364126 0
1 0.36936 0
1 0.375097 0
1 0.380941 0
0 0.385 0
0 0.387457 0
0 0.389868 0
0.00418097 0.39266 0
0.0379492 0.395331 0
0.0742046 0.397208 0
0.113451 0.39826 0
0.153582 0.398917 0
0.193927 0.399283 0
0.234684 0.399619 0
0.275395 0.399558 0
0.316121 0.399191 0
0.357031 0.398642 0
0.398047 0.398047 0
0.438972 0.397482 0
0.480232 0.397299 0
0.521111 0.396826 0
0.561822 0.396399 0
0.602319 0.396048 0
0.642542 0.395758 0
0.682841 0.395819 0
0.722484 0.395727 0
0.761547 0.395758 0
0.800107 0.395911 0
0.838163 0.396216 0
0.875639 0.396658 0
0.912856 0.397574 0
0.948837 0.398413 0
0.981582 0.400122 0
1 0.404074 0
1 0.409293 0
1 0.41503 0
1 0.421149 0
0 0.423529 0
0 0.425925 0
0 0.428656 0
0.00134279 0.431296 0
0.03505 0.433921 0
0.0714122 0.435904 0
0.110796 0.437079 0
0.151217 0.438041 0
0.191913 0.438758 0
0.232609 0.439048 0
0.273426 0.439078 0
0.314321 0.43888 0
0.355383 0.438468 0
0.396643 0.438132 0
0.437736 0.437736 0
0.478706 0.437263 0
0.519585 0.436805 0
0.560296 0.436377 0
0.600809 0.436027 0
0.641291 0.435996 0
0.681361 0.435828 0
0.720974 0.435691 0
0.760021 0.435721 0
0.798581 0.435859 0
0.836622 0.436149 0
0.874403 0.436896 0
0.911284 0.437476 0
0.947234 0.4383 0
0.979965 0.439979 0
1 0.443915 0
1 0.449104 0
1 0.455116 0
1 0.460899 0
0 0.462394 0
0 0.465095 0
0 0.467506 0
0 0.47013 0
0.0324254 0.47274 0
0.0688182 0.474769 0
0.108415 0.476158 0
0.148989 0.477272 0
0.189654 0.477958 0
0.230503 0.478386 0
0.271489 0.478584 0
0.312535 0.478553 0
0.353933 0.478462 0
0.395239 0.478187 0
0.43624 0.477699 0
0.477226 0.477226 0
0.518105 0.476768 0
0.558816 0.476341 0
0.599634 0.476295 0
0.639841 0.476005 0
0.67985 0.475761 0
0.719448 0.475624 0
0.75848 0.475639 0
0.797253 0.47599 0
0.835355 0.476341 0
0.872801 0.476738 0
0.909651 0.477302 0
0.945586 0.478096 0
0.978286 0.479759 0
1 0.483925 0
1 0.489113 0
1 0.494759 0
1 0.500511 0
0 0.501518 0
0 0.504021 0
0 0.506477 0
0 0.509148 0
0.0301366 0.511788 0
0.066865 0.514153 0
0.106371 0.51545 0
0.146822 0.516442 0
0.187579 0.51722 0
0.228534 0.517754 0
0.269734 0.518166 0
0.311147 0.518486 0
0.352483 0.518349 0
0.393774 0.518044 0
0.434836 0.517617 0
0.475807 0.517143 0
0.516823 0.516823 0
0.557687 0.516548 0
0.598184 0.516182 0
0.638376 0.515877 0
0.678355 0.515618 0
0.717937 0.51545 0
0.757153 0.515633 0
0.795789 0.515846 0
0.833768 0.516091 0
0.871183 0.516457 0
0.907988 0.516976 0
0.943893 0.517739 0
0.976822 0.519631 0
1 0.523522 0
1 0.528634 0
1 0.534234 0
1 0.539925 0
0 0.540429 0
0 0.542962 0
0 0.545449 0
0 0.548165 0
0.0283513 0.551141 0
0.0648051 0.553231 0
0.104356 0.554574 0
0.144869 0.555611 0
0.185672 0.556451 0
0.22678 0.557137 0
0.268238 0.557794 0
0.309514 0.557992 0
0.350942 0.557946 0
0.392325 0.557733 0
0.433478 0.557397 0
0.474601 0.557076 0
0.515648 0.556786 0
0.556344 0.556344 0
0.596796 0.555932 0
0.636973 0.555611 0
0.676936 0.555322 0
0.716808 0.555444 0
0.755779 0.555398 0
0.794247 0.555459 0
0.832197 0.555657 0
0.869581 0.556008 0
0.906523 0.556649 0
0.942504 0.557504 0
0.975113 0.55906 0
0.99939 0.562875 0
1 0.567941 0
1 0.57348 0
1 0.579339 0
0 0.579324 0
0 0.581888 0
0 0.58439 0
0 0.587411 0
0.0264744 0.590112 0
0.0629435 0.592218 0
0.102525 0.593606 0
0.143069 0.59469 0
0.184253 0.595895 0
0.225345 0.596567 0
0.266621 0.59704 0
0.307973 0.597314 0
0.349493 0.59736 0
0.390982 0.597253 0
0.432486 0.597284 0
0.473564 0.596902 0
0.514443 0.596429 0
0.555093 0.595956 0
0.595529 0.595529 0
0.635752 0.595254 0
0.675898 0.595148 0
0.715419 0.594919 0
0.75436 0.594842 0
0.792798 0.594858 0
0.830686 0.59501 0
0.868162 0.595438 0
0.905058 0.596048 0
0.940856 0.596704 0
0.973404 0.598215 0
0.997604 0.601953 0
1 0.606958 0
1 0.61265 0
1 0.618341 0
0 0.618143 0
0 0.620981 0
0 0.623545 0
0 0.626276 0
0.0248264 0.628992 0
0.0613107 0.631098 0
0.100908 0.632502 0
0.141802 0.633921 0
0.182712 0.634852 0
0.22385 0.635569 0
0.265171 0.636103 0
0.306569 0.636423 0
0.348165 0.636545 0
0.390005 0.63679 0
0.431296 0.636591 0
0.472419 0.636271 0
0.513329 0.635843 0
0.553979 0.635355 0
0.594446 0.634958 0
0.634806 0.634806 0
0.674662 0.634424 0
0.714137 0.63415 0
0.753033 0.634012 0
0.791424 0.633997 0
0.829572 0.634409 0
0.866835 0.634623 0
0.903502 0.634989 0
0.939239 0.635599 0
0.971756 0.637064 0
0.996002 0.640848 0
1 0.645975 0
1 0.651392 0
1 0.656901 0
0 0.65713 0
0 0.659785 0
0 0.662303 0
0 0.665034 0
0.0233463 0.667735 0
0.0598306 0.669871 0
0.0997482 0.67158 0
0.140322 0.672694 0
0.181247 0.67364 0
0.222416 0.674388 0
0.263783 0.674952 0
0.305531 0.675624 0
0.347158 0.675792 0
0.388739 0.675776 0
0.430091 0.675639 0
0.471275 0.675364 0
0.51223 0.674983 0
0.553216 0.67483 0
0.593576 0.674327 0
0.633631 0.673884 0
0.673457 0.673457 0
0.712871 0.673136 0
0.751736 0.672969 0
0.790341 0.673152 0
0.828138 0.673213 0
0.865354 0.673381 0
0.90193 0.673686 0
0.937606 0.674205 0
0.970123 0.675685 0
0.994415 0.679515 0
1 0.684382 0
1 0.689723 0
1 0.69514 0
0 0.695766 0
0 0.69836 0
0 0.700877 0
0 0.703593 0
0.0223545 0.706493 0
0.0589303 0.708705 0
0.0985428 0.710109 0
0.139132 0.711238 0
0.180056 0.712184 0
0.221225 0.712932 0
0.262867 0.713787 0
0.304402 0.714244 0
0.346059 0.714427 0
0.387671 0.714443 0
0.429053 0.714336 0
0.470268 0.714092 0
0.511574 0.714061 0
0.55227 0.713634 0
0.59263 0.71313 0
0.632639 0.712627 0
0.672404 0.712154 0
0.711788 0.711788 0
0.750851 0.711818 0
0.789105 0.711666 0
0.82681 0.711635 0
0.863966 0.711742 0
0.900496 0.711986 0
0.9364 0.712749 0
0.96875 0.714046 0
0.992737 0.717571 0
1 0.722362 0
1 0.727642 0
1 0.733043 0
0 0.734081 0
0 0.73666 0
0 0.739162 0
0 0.742061 0
0.0216983 0.744854 0
0.0581521 0.746944 0
0.097734 0.748333 0
0.138308 0.749447 0
0.179232 0.750393 0
0.220722 0.751461 0
0.262104 0.752041 0
0.303593 0.752453 0
0.345266 0.752667 0
0.386908 0.752712 0
0.42855 0.752865 0
0.469841 0.752697 0
0.510857 0.752377 0
0.551583 0.751965 0
0.591974 0.751492 0
0.631952 0.750973 0
0.671946 0.750713 0
0.711238 0.750271 0
0.74995 0.74995 0
0.788159 0.749737 0
0.825788 0.74963 0
0.862852 0.749645 0
0.899596 0.750103 0
0.935134 0.7505 0
0.967407 0.751736 0
0.991302 0.755169 0
1 0.759854 0
1 0.765072 0
1 0.770611 0
0 0.772152 0
0 0.774792 0
0 0.777493 0
0 0.780163 0
0.0212406 0.782818 0
0.0576791 0.784894 0
0.0972305 0.786252 0
0.137942 0.787488 0
0.178988 0.788556 0
0.220172 0.789319 0
0.261555 0.789914 0
0.303029 0.790311 0
0.344701 0.790509 0
0.386557 0.790768 0
0.428077 0.790799 0
0.469322 0.7906 0
0.510338 0.790265 0
0.551049 0.789837 0
0.59144 0.78938 0
0.631693 0.78912 0
0.671412 0.788602 0
0.710628 0.788052 0
0.749233 0.787655 0
0.78735 0.78735 0
0.824933 0.787182 0
0.862226 0.787427 0
0.898573 0.787488 0
0.933989 0.787778 0
0.966186 0.788922 0
0.990021 0.792294 0
1 0.797192 0
1 0.802258 0
1 0.807416 0
0 0.809979 0
0 0.812741 0
0 0.815198 0
0 0.817838 0
0.0211185 0.820447 0
0.0575265 0.822477 0
0.0971847 0.823941 0
0.137881 0.825177 0
0.178744 0.826062 0
0.219898 0.826795 0
0.26125 0.827359 0
0.302739 0.827771 0
0.344717 0.82826 0
0.386343 0.82829 0
0.427741 0.828214 0
0.468986 0.828016 0
0.510018 0.827695 0
0.550912 0.827451 0
0.591394 0.827085 0
0.631373 0.826551 0
0.671046 0.825971 0
0.710216 0.825391 0
0.748745 0.824903 0
0.786984 0.824735 0
0.824537 0.824537 0
0.861448 0.824414 0
0.897734 0.824399 0
0.933059 0.824598 0
0.965148 0.825635 0
0.989151 0.82916 0
1 0.833707 0
1 0.838712 0
1 0.843763 0
0 0.847623 0
0 0.850111 0
0 0.852537 0
0 0.855146 0
0.0213931 0.857755 0
0.0579995 0.859998 0
0.0974899 0.86128 0
0.137972 0.862318 0
0.17882 0.863172 0
0.219928 0.863859 0
0.261341 0.864485 0
0.302998 0.865064 0
0.344656 0.865248 0
0.386282 0.865278 0
0.427665 0.865171 0
0.468879 0.864942 0
0.510033 0.864759 0
0.550912 0.864485 0
0.591272 0.863996 0
0.63122 0.863432 0
0.670832 0.862806 0
0.709972 0.862196 0
0.748653 0.86186 0
0.786694 0.861479 0
0.824063 0.861112 0
0.860868 0.860868 0
0.897047 0.860761 0
0.932311 0.860883 0
0.964599 0.862119 0
0.988205 0.865263 0
1 0.869673 0
1 0.874571 0
1 0.879545 0
0 0.884672 0
0 0.887114 0
0 0.889479 0
0 0.892058 0
0.0222171 0.894881 0
0.0585336 0.896819 0
0.0979477 0.898039 0
0.138384 0.899001 0
0.179171 0.899825 0
0.220325 0.900557 0
0.261845 0.901274 0
0.303243 0.90161 0
0.344854 0.901732 0
0.38645 0.901732 0
0.427832 0.901625 0
0.469337 0.901686 0
0.510292 0.901305 0
0.550973 0.900847 0
0.591318 0.900328 0
0.631266 0.899763 0
0.67097 0.899229 0
0.710231 0.898741 0
0.748653 0.898146 0
0.786511 0.897597 0
0.823819 0.897154 0
0.860517 0.896803 0
0.896742 0.896742 0
0.932006 0.89688 0
0.963928 0.897734 0
0.987457 0.900816 0
1 0.905104 0
1 0.909865 0
1 0.914931 0
0 0.921202 0
0 0.923598 0
0 0.926207 0
0 0.92871 0
0.0233768 0.931167 0
0.0596323 0.933059 0
0.0990311 0.934249 0
0.139406 0.935164 0
0.180423 0.936202 0
