assets/cube/STARK.cube
TITLE "Generated by Resolve"
LUT_3D_SIZE 9
0 0 0
0.0655222 0 0
0.211292 0 0
0.365713 0 0
0.521263 0 0
0.674998 0 0
0.825025 0 0
0.965988 0 0
1 0 0
0 0.0630808 0
0.0616922 0.0616922 0
0.207736 0.0557107 0
0.365637 0.0498512 0
0.527718 0.046067 0
0.687633 0.0432288 0
0.842054 0.0427253 0
0.984634 0.0457923 0
1 0.0663157 0
0 0.196887 0
0.0518807 0.203891 0
0.203922 0.203922 0
0.364935 0.201175 0
0.528023 0.198383 0
0.68893 0.196536 0
0.844205 0.196887 0
0.987488 0.200656 0
1 0.221653 0
0 0.346883 0
0.0409857 0.356756 0
0.196323 0.360098 0
0.358846 0.358846 0
0.522744 0.356878 0
0.684138 0.35552 0
0.83975 0.356207 0
0.983215 0.360159 0
1 0.380941 0
0 0.501518 0
0.0301366 0.511788 0
0.187579 0.51722 0
0.352483 0.518349 0
0.516823 0.516823 0
0.678355 0.515618 0
0.833768 0.516091 0
0.976822 0.519631 0
1 0.539925 0
0 0.65713 0
0.0233463 0.667735 0
0.181247 0.67364 0
0.347158 0.675792 0
0.51223 0.674983 0
0.673457 0.673457 0
0.828138 0.673213 0
0.970123 0.675685 0
1 0.69514 0
0 0.809979 0
0.0211185 0.820447 0
0.178744 0.826062 0
0.344717 0.82826 0
0.510018 0.827695 0
0.671046 0.825971 0
0.824537 0.824537 0
0.965148 0.825635 0
1 0.843763 0
0 0.956344 0
0.0272679 0.96611 0
0.184085 0.970916 0
0.349065 0.972137 0
0.514153 0.971344 0
0.674632 0.96907 0
0.8271 0.966613 0
0.966094 0.966094 0
1 0.98233 0
0 1 0
0.0874342 1 0
0.243305 1 0
0.407294 1 0
0.571298 1 0
0.729992 1 0
0.877684 1 0
1 1 0
1 1 0
0 0 0.067155
0.0653849 0 0.0653849
0.211032 0 0.0590219
0.365118 0 0.0493324
0.520653 0 0.0390021
0.675135 0 0.0307317
0.826215 0 0.0268864
0.967697 0 0.0288396
1 0 0.0483101
0 0.0619516 0.0619516
0.0612802 0.0612802 0.0612802
0.208515 0.0565042 0.0565042
0.367483 0.0516976 0.0516976
0.529503 0.0478523 0.0478523
0.689509 0.0451057 0.0451057
0.844022 0.0446937 0.0446937
0.986694 0.0478523 0.0478523
1 0.0681621 0.0681621
0 0.196307 0.0442969
0.0532692 0.20528 0.0532692
0.206577 0.206577 0.0545663
0.367681 0.203906 0.0518959
0.530358 0.200717 0.0487068
0.691096 0.198718 0.0466926
0.846433 0.199115 0.0471046
0.989776 0.202945 0.0509194
1 0.223743 0.0717174
0 0.344335 0.0285649
0.0410468 0.356817 0.0410468
0.199039 0.362799 0.0470283
0.362066 0.362066 0.0462959
0.525078 0.359197 0.0434272
0.686473 0.357855 0.0420691
0.842069 0.358526 0.0427405
0.985534 0.362463 0.0466773
1 0.38323 0.0674449
0 0.49749 0.0158541
0.0276036 0.509255 0.0276036
0.188205 0.517845 0.0361944
0.35491 0.520775 0.0391241
0.519081 0.519081 0.0374304
0.680659 0.517906 0.0362554
0.835996 0.518318 0.0366674
0.978897 0.521706 0.0400549
1 0.542016 0.0603647
0 0.653101 0.00869764
0.0203098 0.664714 0.0203098
0.180133 0.672526 0.0281224
0.348074 0.676692 0.0322881
0.514214 0.676966 0.0325628
0.675517 0.675517 0.0311284
0.830091 0.675166 0.0307622
0.971878 0.67744 0.0330358
1 0.696849 0.0524453
0 0.805798 0.00646983
0.017731 0.81706 0.017731
0.176822 0.82414 0.0248112
0.344335 0.827893 0.0285649
0.511131 0.828809 0.0294804
0.672663 0.827588 0.0282597
0.826001 0.826001 0.0266728
0.966522 0.827008 0.0276646
1 0.844953 0.0456092
0 0.951827 0.0129854
0.023331 0.962173 0.023331
0.181338 0.96817 0.0293278
0.347845 0.970901 0.0320592
0.514244 0.971435 0.0325933
0.675456 0.969894 0.0310521
0.827832 0.967346 0.0285039
0.966857 0.966857 0.0280156
1 0.982528 0.0436866
0 1 0.0730449
0.082536 1 0.082536
0.239612 1 0.087602
0.405127 1 0.0893568
0.570459 1 0.0888075
0.729473 1 0.085069
0.874586 1 0.0752575
1 1 0.0612192
1 1 0.0603494
0 0 0.220111
0.0639506 0 0.215961
0.208713 0 0.208713
0.362615 0 0.19884
0.518257 0 0.188617
0.673671 0 0.181277
0.825879 0 0.178561
0.967544 0 0.180713
1 0 0.200198
0 0.0567025 0.208713
0.0566262 0.0566262 0.208637
0.207416 0.0554055 0.207416
0.367391 0.051606 0.203632
0.529351 0.0476997 0.199725
0.689494 0.0450904 0.197101
0.844114 0.0447852 0.196796
0.986877 0.0480354 0.200046
1 0.0683909 0.220401
0 0.189548 0.189548
0.0492866 0.201297 0.201297
0.207156 0.207156 0.207156
0.368612 0.204852 0.204852
0.530892 0.201251 0.201251
0.691386 0.198993 0.198993
0.846738 0.19942 0.19942
0.989944 0.203113 0.203113
1 0.224109 0.224109
0 0.3346 0.17084
0.0348211 0.350607 0.186831
0.199023 0.362799 0.199023
0.363973 0.363973 0.200214
0.526787 0.360906 0.197147
0.68719 0.358557 0.194797
0.842466 0.358923 0.195148
0.98558 0.362509 0.198749
1 0.383551 0.219791
0 0.486137 0.156497
0.0183566 0.500008 0.170367
0.185077 0.514717 0.185077
0.356176 0.522042 0.192401
0.520928 0.520928 0.191287
0.681422 0.518669 0.189029
0.836286 0.518608 0.188968
0.978912 0.521721 0.192081
1 0.542123 0.212482
0 0.642588 0.15021
0.010193 0.654582 0.162203
0.172671 0.665064 0.172671
0.345418 0.674037 0.181643
0.514443 0.677195 0.184802
0.6757 0.6757 0.183322
0.830091 0.675166 0.182773
0.971756 0.677317 0.184939
1 0.69662 0.204227
0 0.795727 0.148409
0.0080415 0.80737 0.160052
0.168963 0.816281 0.168963
0.339529 0.823072 0.175753
0.509316 0.827008 0.17969
0.672206 0.827131 0.179812
0.825498 0.825498 0.17818
0.965942 0.826429 0.17911
1 0.844205 0.196887
0 0.941665 0.154833
0.0135653 0.952407 0.165576
0.172946 0.959777 0.172946
0.34197 0.965042 0.17821
0.510948 0.968139 0.181308
0.673869 0.968307 0.181476
0.82678 0.966293 0.179461
0.965682 0.965682 0.178851
1 0.980652 0.19382
0 1 0.213748
0.0716411 1 0.223651
0.229969 1 0.229969
0.398123 1 0.234363
0.565881 1 0.23624
0.725948 1 0.233555
0.8692 1 0.221881
0.993179 1 0.206348
1 1 0.204837
0 0 0.382513
0.0611276 0 0.376913
0.204929 0 0.368704
0.359152 0 0.359152
0.515358 0 0.349477
0.671595 0 0.342977
0.82475 0 0.341192
0.966552 0 0.343496
1 0 0.363012
0 0.0485695 0.364355
0.0470436 0.0470436 0.362829
0.201221 0.0491951 0.364981
0.366018 0.0502327 0.366018
0.528115 0.0464637 0.362249
0.688579 0.0441749 0.35996
0.843336 0.044007 0.359792
0.98613 0.0472877 0.363058
1 0.0677806 0.383566
0 0.177874 0.34165
0.0357214 0.187732 0.351492
0.196765 0.196765 0.36054
0.367864 0.204105 0.367864
0.530541 0.2009 0.364675
0.690959 0.198566 0.362325
0.846159 0.19884 0.362615
0.989334 0.202502 0.366278
1 0.22359 0.38735
0 0.320195 0.320195
0.0189517 0.334737 0.334737
0.190036 0.353796 0.353796
0.364309 0.364309 0.364309
0.527703 0.361822 0.361822
0.687709 0.359091 0.359091
0.842008 0.35845 0.35845
0.985046 0.361975 0.361975
1 0.382971 0.382971
0 0.471244 0.305379
0.000640879 0.482292 0.316426
0.173388 0.503029 0.337148
0.354879 0.520745 0.354879
0.522789 0.522789 0.356924
0.682826 0.520073 0.354208
0.835966 0.518288 0.352422
0.97821 0.521004 0.355138
1 0.541299 0.375433
0 0.62742 0.298787
0 0.637049 0.308415
0.157397 0.649775 0.321157
0.339788 0.668421 0.339788
0.514992 0.677745 0.349126
0.67689 0.67689 0.348272
0.82948 0.674556 0.345937
0.970718 0.67628 0.347646
1 0.69543 0.366796
0 0.780804 0.297261
0 0.791287 0.307744
0.153307 0.800626 0.317082
0.328176 0.811734 0.328176
0.505043 0.822736 0.339178
0.671122 0.826047 0.342504
0.82414 0.82414 0.340581
0.964431 0.824918 0.341375
1 0.842542 0.358999
0 0.926818 0.303761
0 0.936996 0.313924
0.157961 0.944793 0.321721
0.330068 0.95314 0.330068
0.503517 0.960708 0.337652
0.670192 0.96463 0.341558
0.824689 0.964202 0.341146
0.963455 0.963455 0.340398
1 0.977584 0.354513
0 1 0.361379
0.0550393 1 0.370825
0.214084 1 0.377859
0.385061 1 0.385061
0.55668 1 0.390814
0.718914 1 0.390295
0.862272 1 0.378729
0.985336 1 0.362264
1 1 0.360052
0 0 0.544045
0.0567178 0 0.538369
0.199466 0 0.529107
0.355138 0 0.521004
0.512459 0 0.512459
0.669841 0 0.507103
0.823484 0 0.505806
0.965118 0 0.507927
1 0 0.527855
0 0.0419165 0.523568
0.0379797 0.0379797 0.519615
0.188312 0.0363012 0.517952
0.361654 0.0458686 0.52752
0.52665 0.0449989 0.52665
0.687465 0.043061 0.524712
0.842374 0.0430457 0.524697
0.985046 0.0461891 0.52784
1 0.0670024 0.548653
0 0.169055 0.498695
0.019379 0.171389 0.50103
0.175372 0.175372 0.505013
0.35581 0.192035 0.521675
0.52903 0.19939 0.52903
0.690013 0.19762 0.52726
0.845335 0.198032 0.527657
0.988525 0.201694 0.531334
1 0.222858 0.552499
0 0.309926 0.475792
0 0.314626 0.480491
0.165515 0.329274 0.495155
0.346517 0.346517 0.512383
0.526925 0.361059 0.526925
0.68751 0.358877 0.524758
0.841428 0.357885 0.523751
0.984237 0.361166 0.527031
1 0.382132 0.547997
0 0.458854 0.458854
0 0.462013 0.462013
0.148852 0.478477 0.478477
0.341405 0.507271 0.507271
0.523491 0.523491 0.523491
0.684016 0.521263 0.521263
0.836515 0.518837 0.518837
0.977493 0.520302 0.520302
1 0.54023 0.54023
0 0.612009 0.449271
0 0.617227 0.454475
0.132174 0.624567 0.461814
0.323491 0.65211 0.489357
0.513481 0.676234 0.513481
0.678981 0.678981 0.516228
0.830976 0.676051 0.513298
0.970428 0.67599 0.513237
1 0.694301 0.531548
0 0.764126 0.446448
0 0.771374 0.453696
0.129473 0.776791 0.459113
0.308034 0.791577 0.473899
0.497841 0.815518 0.497841
0.671229 0.826154 0.508476
0.825147 0.825147 0.507469
0.963729 0.824216 0.506539
1 0.841031 0.523354
0 0.909483 0.452293
0 0.917388 0.460197
0.136553 0.923384 0.466194
0.309239 0.932311 0.475105
0.489509 0.9467 0.489509
0.664942 0.959396 0.50219
0.823148 0.962661 0.50547
0.961135 0.961135 0.503944
1 0.973205 0.516014
0 1 0.508293
0.0341192 1 0.51577
0.191775 1 0.521401
0.363592 1 0.529458
0.539712 1 0.539712
0.707454 1 0.544701
0.85417 1 0.536477
0.977203 1 0.520012
1 1 0.517189
0 0 0.702144
0.0520638 0 0.696468
0.193988 0 0.686381
0.349905 0 0.678538
0.509972 0 0.672724
0.668635 0 0.668635
0.822477 0 0.667552
0.964218 0 0.669779
1 0 0.689815
0 0.0375525 0.681956
0.0340276 0.0340276 0.678431
0.181567 0.0295567 0.673961
0.351629 0.0358587 0.680262
0.524529 0.0428779 0.687282
0.686534 0.0421302 0.686534
0.841596 0.0422675 0.686671
0.984375 0.0455329 0.689937
1 0.0664073 0.710811
0 0.165789 0.658183
0.0131991 0.165209 0.657603
0.159747 0.159747 0.65214
0.329717 0.165942 0.658335
0.522683 0.193042 0.685435
0.688792 0.196414 0.688792
0.844312 0.196994 0.689387
0.98793 0.201099 0.693492
1 0.222278 0.714656
0 0.305089 0.633722
0 0.304799 0.633433
0.139498 0.303273 0.631891
0.312337 0.312337 0.64097
0.509422 0.343542 0.672175
0.685908 0.357275 0.685908
0.840406 0.356863 0.685481
0.98349 0.360418 0.689052
1 0.381369 0.709987
0 0.450645 0.613397
0 0.451057 0.613809
0.120943 0.450568 0.613321
0.306874 0.47274 0.635493
0.49955 0.49955 0.662303
0.683223 0.52047 0.683223
0.836408 0.51873 0.681483
0.977142 0.519951 0.682704
1 0.539467 0.70222
0 0.600046 0.600046
0 0.601999 0.601999
0.10634 0.598718 0.598718
0.291325 0.619959 0.619959
0.49633 0.659083 0.659083
0.679667 0.679667 0.679667
0.832395 0.67747 0.67747
0.971283 0.676829 0.676829
1 0.694499 0.694499
0 0.749264 0.594339
0 0.752895 0.597971
0.104921 0.752239 0.597314
0.276509 0.760052 0.605127
0.477928 0.795621 0.640681
0.669337 0.824262 0.669337
0.82742 0.82742 0.672496
0.965438 0.825925 0.671
1 0.84184 0.686915
0 0.892744 0.598306
0 0.897246 0.602808
0.112001 0.898833 0.604395
0.279576 0.902632 0.608194
0.465782 0.922988 0.628534
0.65713 0.951583 0.65713
0.82359 0.963104 0.668666
0.961791 0.961791 0.667353
1 0.970321 0.675883
0 1 0.652277
0.0120089 1 0.656413
0.165743 1 0.658137
0.33341 1 0.662028
0.511391 1 0.674144
0.692149 1 0.692149
0.847227 1 0.692302
0.971771 1 0.677333
1 1 0.673854
0 0 0.853056
0.047837 0 0.847166
0.189303 0 0.836622
0.344839 0 0.828382
0.506966 0 0.824643
0.667948 0 0.822873
0.821958 0 0.821958
0.963912 0 0.824399
1 0 0.844526
0 0.0341192 0.833448
0.031342 0.031342 0.830671
0.178378 0.0263676 0.825696
0.343435 0.0276646 0.826993
0.519081 0.0374304 0.836774
0.685908 0.0415045 0.840833
0.841123 0.0417945 0.841123
0.984253 0.0454108 0.844739
1 0.0663462 0.865675
0 0.163378 0.810697
0.0109712 0.162982 0.8103
0.157183 0.157183 0.804501
0.319051 0.155276 0.802594
0.507546 0.177905 0.825223
0.686946 0.194553 0.841871
0.844038 0.196719 0.844038
0.987808 0.200977 0.848295
1 0.222171 0.86949
0 0.302022 0.785565
0 0.3019 0.785443
0.131945 0.295705 0.779263
0.288823 0.288823 0.772366
0.471351 0.305486 0.789029
0.678035 0.349416 0.832959
0.839429 0.355871 0.839429
0.983139 0.360082 0.843626
1 0.381018 0.864561
0 0.445609 0.763302
0 0.445609 0.763287
0.109209 0.438849 0.756527
0.27155 0.43743 0.755108
0.454429 0.454429 0.772107
0.661418 0.498665 0.816342
0.83476 0.517067 0.83476
0.976394 0.519203 0.836881
1 0.538766 0.856443
0 0.59202 0.74696
0 0.592462 0.747402
0.0936446 0.586038 0.740963
0.256229 0.584863 0.739788
0.454032 0.616785 0.771725
0.651362 0.651362 0.806287
0.831617 0.676692 0.831617
0.971298 0.67686 0.831785
1 0.694423 0.849348
0 0.73814 0.73814
0 0.739254 0.739254
0.0871443 0.734462 0.734462
0.245075 0.728634 0.728634
0.439979 0.757671 0.757671
0.649973 0.804898 0.804898
0.828351 0.828351 0.828351
0.96701 0.827497 0.827497
1 0.843198 0.843198
0 0.879042 0.739528
0 0.880659 0.741146
0.090837 0.877668 0.738155
0.250629 0.873686 0.734173
0.428901 0.886091 0.746578
0.635264 0.929702 0.790188
0.821653 0.961166 0.821653
0.963195 0.963195 0.823682
1 0.968917 0.829404
0 0.989441 0.791272
0 0.990631 0.792462
0.142046 0.987533 0.789364
0.302068 0.98378 0.785611
0.471214 0.98706 0.788891
0.663615 1 0.818555
0.837491 1 0.837491
0.967742 1 0.828229
1 1 0.825101
0 0 0.98967
0.0446937 0 0.983551
0.185931 0 0.972763
0.341222 0 0.964279
0.504692 0 0.961883
0.667521 0 0.961975
0.822339 0 0.961852
0.964721 0 0.964721
1 0 0.984955
0 0.0318914 0.970733
0.0300145 0.0300145 0.968872
0.176761 0.0247501 0.963592
0.338903 0.0231327 0.961975
0.51339 0.0317388 0.970581
0.683879 0.0394751 0.978317
0.841825 0.0424964 0.981338
0.985229 0.0463874 0.985245
1 0.0673838 1
0 0.162219 0.94905
0.00994888 0.161959 0.948791
0.156222 0.156222 0.943053
0.316014 0.152239 0.939071
0.495399 0.165759 0.95259
0.680552 0.188174 0.975006
0.844602 0.197284 0.984115
0.988724 0.201892 0.988724
1 0.223133 1
0 0.300603 0.923674
0 0.300633 0.923705
0.130968 0.294743 0.9178
0.286961 0.286961 0.910033
0.455711 0.289845 0.912902
0.658732 0.330114 0.95317
0.838376 0.354818 0.97789
0.983764 0.360693 0.983764
1 0.381491 1
0 0.443122 0.900313
0 0.442939 0.90013
0.10692 0.436561 0.893751
0.261494 0.427375 0.884565
0.422736 0.422736 0.879927
0.614572 0.45182 0.90901
0.826795 0.509117 0.966308
0.975784 0.518593 0.975784
1 0.538216 0.995422
0 0.587564 0.882002
0 0.587167 0.881605
0.0879988 0.580392 0.87483
0.241184 0.569802 0.864256
0.411536 0.574289 0.868727
0.600381 0.600381 0.89482
0.809857 0.654932 0.949371
0.969955 0.675517 0.969955
1 0.693355 0.987793
0 0.731167 0.87068
0 0.730846 0.870359
0.0769513 0.724269 0.863783
0.230289 0.713832 0.853346
0.399619 0.717296 0.856809
0.605051 0.759976 0.899489
0.800336 0.800351 0.939864
0.966613 0.8271 0.966613
1 0.843229 0.982742
0 0.869581 0.869581
0 0.869368 0.869368
0.076585 0.863416 0.863416
0.231464 0.854536 0.854536
0.392798 0.849989 0.849989
0.595575 0.890028 0.890028
0.802625 0.942138 0.942138
0.962219 0.962219 0.962219
1 0.966461 0.966461
0 0.977951 0.91931
0 0.977096 0.918441
0.125139 0.970611 0.911971
0.279042 0.960769 0.902113
0.432151 0.947997 0.889342
0.618677 0.971771 0.91313
0.812222 1 0.951736
0.962371 1 0.962371
1 1 0.960647
0 0 1
0.0474098 0 1
0.188602 0 1
0.344747 0 1
0.509499 0 1
0.673228 0 1
0.828901 0 1
0.97145 0 1
1 0 1
0 0.0357671 1
0.0345769 0.0345769 1
0.181155 0.0291447 1
0.342947 0.0271611 1
0.516762 0.035111 1
0.688746 0.0443427 1
0.848432 0.0491035 1
0.992172 0.0533303 1
1 0.0743877 1
0 0.166995 1
0.0148318 0.166842 1
0.161105 0.161105 1
0.320531 0.156771 1
0.497124 0.167498 1
0.682948 0.19057 1
0.850401 0.203082 1
0.995666 0.208835 1
1 0.230015 1
0 0.305501 0.987213
0 0.305516 0.987243
0.136019 0.299779 0.981491
0.292073 0.292073 0.973785
0.458839 0.292973 0.974685
0.656367 0.327749 1
0.84181 0.358251 1
0.990448 0.367376 1
1 0.388113 1
0 0.447745 0.963592
0 0.447501 0.963348
0.11162 0.44126 0.957107
0.266377 0.432258 0.948089
0.423255 0.423255 0.939086
0.604623 0.441871 0.957717
0.823041 0.505364 1
0.981674 0.524468 1
1 0.54435 1
0 0.591531 0.944625
0 0.590967 0.94406
0.0916762 0.58407 0.937163
0.244907 0.573526 0.926619
0.403998 0.566751 0.919844
0.584344 0.584344 0.937438
0.791501 0.636576 0.98967
0.974319 0.679881 1
1 0.69836 1
0 0.733989 0.932143
0 0.73341 0.931579
0.0789654 0.726284 0.924453
0.231708 0.715267 0.91342
0.390784 0.708461 0.90663
0.586877 0.741802 0.939971
0.782238 0.782238 0.980392
0.968353 0.82884 1
1 0.847837 1
0 0.871168 0.929808
0 0.870527 0.929168
0.0767987 0.86363 0.922286
0.23032 0.853376 0.912032
0.385534 0.842725 0.901381
0.579736 0.874189 0.93283
0.789258 0.928771 0.987427
0.957626 0.957626 1
1 0.966766 1
0 0.978622 0.978622
0 0.977096 0.977096
0.123842 0.969329 0.969329
0.275212 0.956924 0.956924
0.421958 0.937789 0.937789
0.598123 0.951217 0.951217
0.794659 0.992813 0.992813
0.957534 1 1
1 1 1
