assets/cube/STARK.cube
TITLE "Generated by Resolve"
LUT_3D_SIZE 5
0 0 0
0.211292 0 0
0.521263 0 0
0.825025 0 0
1 0 0
0 0.196887 0
0.203922 0.203922 0
0.528023 0.198383 0
0.844205 0.196887 0
1 0.221653 0
0 0.501518 0
0.187579 0.51722 0
0.516823 0.516823 0
0.833768 0.516091 0
1 0.539925 0
0 0.809979 0
0.178744 0.826062 0
0.510018 0.827695 0
0.824537 0.824537 0
1 0.843763 0
0 1 0
0.243305 1 0
0.571298 1 0
0.877684 1 0
1 1 0
0 0 0.220111
0.208713 0 0.208713
0.518257 0 0.188617
0.825879 0 0.178561
1 0 0.200198
0 0.189548 0.189548
0.207156 0.207156 0.207156
0.530892 0.201251 0.201251
0.846738 0.19942 0.19942
1 0.224109 0.224109
0 0.486137 0.156497
0.185077 0.514717 0.185077
0.520928 0.520928 0.191287
0.836286 0.518608 0.188968
1 0.542123 0.212482
0 0.795727 0.148409
0.168963 0.816281 0.168963
0.509316 0.827008 0.17969
0.825498 0.825498 0.17818
1 0.844205 0.196887
0 1 0.213748
0.229969 1 0.229969
0.565881 1 0.23624
0.8692 1 0.221881
1 1 0.204837
0 0 0.544045
0.199466 0 0.529107
0.512459 0 0.512459
0.823484 0 0.505806
1 0 0.527855
0 0.169055 0.498695
0.175372 0.175372 0.505013
0.52903 0.19939 0.52903
0.845335 0.198032 0.527657
1 0.222858 0.552499
0 0.458854 0.458854
0.148852 0.478477 0.478477
0.523491 0.523491 0.523491
0.836515 0.518837 0.518837
1 0.54023 0.54023
0 0.764126 0.446448
0.129473 0.776791 0.459113
0.497841 0.815518 0.497841
0.825147 0.825147 0.507469
1 0.841031 0.523354
0 1 0.508293
0.191775 1 0.521401
0.539712 1 0.539712
0.85417 1 0.536477
1 1 0.517189
0 0 0.853056
0.189303 0 0.836622
0.506966 0 0.824643
0.821958 0 0.821958
1 0 0.844526
0 0.163378 0.810697
0.157183 0.157183 0.804501
0.507546 0.177905 0.825223
0.844038 0.196719 0.844038
1 0.222171 0.86949
0 0.445609 0.763302
0.109209 0.438849 0.756527
0.454429 0.454429 0.772107
0.83476 0.517067 0.83476
1 0.538766 0.856443
0 0.73814 0.73814
0.0871443 0.734462 0.734462
0.439979 0.757671 0.757671
0.828351 0.828351 0.828351
1 0.843198 0.843198
0 0.989441 0.791272
0.142046 0.987533 0.789364
0.471214 0.98706 0.788891
0.837491 1 0.837491
1 1 0.825101
0 0 1
0.188602 0 1
0.509499 0 1
0.828901 0 1
1 0 1
0 0.166995 1
0.161105 0.161105 1
0.497124 0.167498 1
0.850401 0.203082 1
1 0.230015 1
0 0.447745 0.963592
0.11162 0.44126 0.957107
0.423255 0.423255 0.939086
0.823041 0.505364 1
1 0.54435 1
0 0.733989 0.932143
0.0789654 0.726284 0.924453
0.390784 0.708461 0.90663
0.782238 0.782238 0.980392
1 0.847837 1
0 0.978622 0.978622
0.123842 0.969329 0.969329
0.421958 0.937789 0.937789
0.794659 0.992813 0.992813
1 1 1
