assets/cube/VINTAGE.cube
TITLE "Generated by Resolve"
LUT_3D_SIZE 33
0.262837 0.207691 0.168963
0.288853 0.203876 0.165255
0.315068 0.200259 0.161746
0.34139 0.196765 0.158358
0.36759 0.193133 0.154818
0.393698 0.189395 0.151186
0.419699 0.185565 0.147463
0.44564 0.181643 0.143648
0.47155 0.177691 0.139818
0.49752 0.173816 0.136049
0.523384 0.169833 0.132174
0.549218 0.165805 0.128252
0.575036 0.161761 0.124331
0.600855 0.157717 0.120394
0.626703 0.153704 0.116487
0.652613 0.149767 0.112673
0.678508 0.145815 0.108812
0.704417 0.141863 0.104982
0.730343 0.137942 0.101167
0.756329 0.134066 0.0973983
0.782498 0.130404 0.093843
0.808682 0.126757 0.0903029
0.834913 0.123171 0.0868086
0.861189 0.1196 0.0833448
0.887572 0.116167 0.0800183
0.914199 0.113008 0.076936
0.941039 0.110063 0.0740826
0.967895 0.107134 0.0712291
0.994797 0.104265 0.068452
1 0.101656 0.065919
1 0.0994278 0.0637522
1 0.0976272 0.0620127
1 0.0959182 0.0603494
0.249882 0.225559 0.155428
0.276051 0.221897 0.151858
0.30222 0.218235 0.148302
0.328176 0.214343 0.144533
0.354101 0.210407 0.140703
0.379995 0.206455 0.136858
0.40589 0.202487 0.132998
0.43183 0.198581 0.129198
0.457649 0.194553 0.125277
0.483467 0.190494 0.12134
0.509285 0.18645 0.117403
0.535119 0.182422 0.113497
0.560983 0.178439 0.109621
0.586969 0.174578 0.105867
0.612894 0.170642 0.102037
0.638834 0.166735 0.0982376
0.664836 0.16289 0.0945144
0.690959 0.159182 0.090898
0.717189 0.155581 0.0874037
0.743511 0.152087 0.0840009
0.769802 0.148547 0.0805676
0.796262 0.14519 0.0773022
0.822919 0.142061 0.0742657
0.849729 0.139071 0.0713664
0.876631 0.136202 0.068574
0.9037 0.133501 0.0659495
0.930983 0.131029 0.0635538
0.958618 0.128939 0.0615244
0.986481 0.127108 0.0597543
1 0.125338 0.0580453
1 0.123842 0.0565957
1 0.122698 0.0554818
1 0.121859 0.0546731
0.236637 0.243107 0.141558
0.262562 0.2392 0.137743
0.288457 0.235233 0.133898
0.314336 0.23125 0.130037
0.340169 0.227237 0.126131
0.365988 0.223209 0.12221
0.391882 0.219226 0.118349
0.4177 0.215198 0.114427
0.443549 0.211185 0.110521
0.469444 0.207218 0.106661
0.495354 0.203281 0.102831
0.521263 0.199344 0.0990005
0.547311 0.195544 0.0953231
0.573373 0.19176 0.0916304
0.599527 0.188083 0.0880598
0.625757 0.184482 0.0845655
0.652003 0.180896 0.0810864
0.678355 0.177432 0.0777142
0.704982 0.174258 0.0746319
0.731716 0.171191 0.0716564
0.758541 0.168246 0.0687877
0.785428 0.165347 0.06598
0.812497 0.162646 0.0633555
0.840055 0.160479 0.0612497
0.867796 0.158511 0.0593423
0.895705 0.15671 0.0576028
0.923674 0.154986 0.0559243
0.951873 0.153506 0.05449
0.980484 0.152453 0.0534829
1 0.151888 0.0529335
1 0.151308 0.0523842
1 0.150759 0.0518502
1 0.15024 0.0513619
0.222782 0.260014 0.127062
0.2486 0.255985 0.12314
0.274418 0.251942 0.119219
0.300221 0.247898 0.115282
0.326055 0.24387 0.11136
0.351995 0.239963 0.107561
0.37789 0.235996 0.103716
0.403815 0.232059 0.0998856
0.42974 0.228138 0.0960708
0.455726 0.224277 0.0923171
0.481895 0.2206 0.0887465
0.508095 0.216983 0.0852369
0.53434 0.213397 0.0817426
0.560601 0.209842 0.0782788
0.587015 0.206424 0.0749676
0.613611 0.20322 0.0718547
0.640513 0.200351 0.0690623
0.667369 0.197421 0.0662242
0.694301 0.194568 0.063447
0.721477 0.191989 0.0609598
0.74902 0.189807 0.0588235
0.776837 0.187915 0.0569924
0.804929 0.186313 0.0554513
0.832959 0.184649 0.0538338
0.861295 0.183307 0.0525368
0.889998 0.182361 0.0516213
0.918959 0.18172 0.0510109
0.948058 0.181186 0.0505074
0.977295 0.180835 0.0501564
1 0.180346 0.0496834
1 0.179904 0.0492714
1 0.179492 0.0488899
1 0.17911 0.0485237
0.208667 0.276646 0.112291
0.234485 0.272618 0.108385
0.260365 0.268635 0.104509
0.28632 0.264744 0.100725
0.312276 0.260853 0.0969406
0.338216 0.256931 0.0931411
0.364233 0.253117 0.0894179
0.390372 0.249409 0.0858167
0.416571 0.245792 0.0823072
0.442893 0.242283 0.0788891
0.46923 0.238804 0.0755016
0.495705 0.235462 0.0722667
0.522377 0.232349 0.0692302
0.549203 0.229374 0.0663462
0.576059 0.226459 0.0635233
0.603189 0.223819 0.0609598
0.630518 0.221393 0.0586099
0.658167 0.219333 0.056611
0.686061 0.217517 0.0548409
0.714 0.215763 0.0531472
0.742123 0.214191 0.0516213
0.770764 0.213184 0.0506447
0.799588 0.212375 0.0498665
0.828611 0.21178 0.0493019
0.857664 0.211215 0.0487678
0.886748 0.210681 0.048249
0.916106 0.210437 0.0480201
0.945296 0.210025 0.0476234
0.974502 0.209628 0.0472419
1 0.209232 0.0468757
1 0.208881 0.04654
1 0.208576 0.0462501
1 0.20853 0.0462043
0.194736 0.293477 0.0977188
0.220645 0.28954 0.093904
0.246647 0.28571 0.0901656
0.27277 0.281971 0.0865492
0.298939 0.278309 0.0829786
0.32517 0.274708 0.0794842
0.351415 0.271138 0.0760052
0.377768 0.267674 0.0726482
0.404425 0.26453 0.0695964
0.431174 0.261479 0.0666361
0.458015 0.258549 0.0637827
0.484916 0.25565 0.0609751
0.512001 0.252995 0.058381
0.539544 0.250797 0.0562448
0.567361 0.248905 0.0544289
0.595285 0.24712 0.0526894
0.62327 0.245411 0.0510262
0.651484 0.243961 0.0496223
0.680095 0.242908 0.0486152
0.709178 0.242374 0.0480964
0.738262 0.24184 0.0475929
0.767315 0.241291 0.0470588
0.796429 0.240772 0.0465705
0.825589 0.24033 0.0461433
0.85478 0.239918 0.0457618
0.884199 0.23975 0.0456092
0.913436 0.239368 0.045243
0.942687 0.239033 0.0449226
0.971984 0.238727 0.0446326
1 0.238468 0.0443885
1 0.238209 0.0441444
1 0.238209 0.0441444
1 0.23801 0.0439612
0.181247 0.310765 0.0836042
0.207507 0.307225 0.0801556
0.233753 0.303624 0.0766613
0.260029 0.300084 0.0732128
0.286442 0.296681 0.0699168
0.313069 0.293507 0.0668345
0.339895 0.290562 0.0639658
0.366842 0.287709 0.0612039
0.39379 0.284886 0.0584573
0.420996 0.282338 0.0559854
0.448569 0.280186 0.0538949
0.476402 0.278325 0.052079
0.504433 0.276646 0.0504616
0.532555 0.27509 0.0489509
0.560922 0.273777 0.0476844
0.589654 0.272877 0.0468147
0.618647 0.272236 0.0462043
0.6477 0.271672 0.0456703
0.676921 0.271305 0.0453193
0.706111 0.270878 0.0449073
0.735286 0.270436 0.0444953
0.764492 0.270039 0.0441138
0.793698 0.269657 0.0437476
0.822934 0.269276 0.0433814
0.85243 0.269184 0.0433051
0.881743 0.268894 0.0430304
0.91107 0.268635 0.0428016
0.940414 0.268391 0.0425574
0.969787 0.268162 0.0423438
0.99939 0.268193 0.0423743
1 0.26807 0.0422675
1 0.267933 0.0421454
1 0.267811 0.0420386
0.168673 0.329046 0.0704356
0.195148 0.325734 0.067216
0.221851 0.322637 0.06421
0.248676 0.319677 0.0613413
0.275547 0.316762 0.0585031
0.302602 0.314061 0.0558785
0.330037 0.311757 0.0536507
0.357733 0.309728 0.0516823
0.385626 0.307927 0.0499275
0.413581 0.306172 0.0482338
0.441718 0.304631 0.0467384
0.470405 0.30367 0.0458076
0.49926 0.302892 0.0450599
0.528298 0.302296 0.0444953
0.557351 0.301747 0.0439612
0.586435 0.301213 0.043473
0.615671 0.300847 0.043122
0.644984 0.300557 0.0428473
0.674189 0.30016 0.0424659
0.70341 0.299779 0.0420996
0.732662 0.299428 0.0417639
0.761944 0.299123 0.041474
0.791409 0.298985 0.0413672
0.820829 0.298817 0.0411994
0.850187 0.298573 0.0409705
0.879561 0.29836 0.0407721
0.90898 0.298192 0.0406195
0.93843 0.298054 0.0404974
0.968063 0.298116 0.0405585
0.997589 0.298054 0.0405127
1 0.297978 0.0404364
1 0.297932 0.0404059
1 0.297917 0.0404059
0.157504 0.348837 0.0587625
0.18439 0.345968 0.0559701
0.211521 0.343328 0.0534066
0.238987 0.34107 0.0512093
0.266926 0.339315 0.0495155
0.29485 0.33753 0.047776
0.32285 0.335836 0.0461433
0.35111 0.334417 0.04477
0.379751 0.333394 0.0437934
0.408728 0.332753 0.0431678
0.437934 0.332357 0.0428016
0.467002 0.331807 0.0422675
0.496117 0.331304 0.0417945
0.525277 0.330861 0.0413672
0.554467 0.330449 0.0409705
0.583764 0.330144 0.0406806
0.613138 0.329915 0.0404669
0.64239 0.32958 0.0401465
0.671702 0.32929 0.0398718
0.70103 0.329015 0.0396277
0.730373 0.328771 0.0393835
0.759854 0.328664 0.039292
0.789334 0.328573 0.0392004
0.818769 0.328405 0.0390631
0.848234 0.328283 0.038941
0.877684 0.328145 0.0388342
0.907164 0.328054 0.0387427
0.936919 0.328222 0.0389258
0.966461 0.328191 0.0388952
0.996033 0.328191 0.0389105
1 0.328191 0.0389258
1 0.328206 0.038941
1 0.32845 0.0391852
0.148135 0.370581 0.0489662
0.175982 0.368734 0.0471809
0.203922 0.366964 0.0454719
0.232151 0.36553 0.0440681
0.260563 0.364263 0.0428473
0.289326 0.363378 0.0420081
0.318318 0.362768 0.041413
0.347387 0.362203 0.0408789
0.376486 0.361685 0.0403906
0.405798 0.36141 0.040116
0.434974 0.360983 0.039704
0.464179 0.360586 0.0393225
0.4934 0.360189 0.0389563
0.522637 0.359823 0.0386206
0.552132 0.359731 0.038529
0.581445 0.359457 0.0382696
0.610788 0.359197 0.0380255
0.640131 0.358938 0.0377966
0.66949 0.358724 0.037583
0.69897 0.358602 0.0374762
0.728573 0.358633 0.0375067
0.758022 0.358511 0.0373999
0.787503 0.358389 0.0372931
0.816983 0.358297 0.0372168
0.846525 0.358236 0.037171
0.876188 0.358343 0.0372778
0.905882 0.358465 0.0373999
0.93547 0.35848 0.0374304
0.965072 0.358511 0.0374609
0.99472 0.358587 0.0375525
1 0.358679 0.0376593
1 0.358953 0.0379339
1 0.359167 0.0381476
0.141344 0.395071 0.0418708
0.170031 0.394125 0.0409552
0.198932 0.393408 0.0402686
0.22797 0.392828 0.039704
0.257038 0.392264 0.0391699
0.286122 0.391745 0.0386816
0.315267 0.391287 0.0382391
0.344686 0.391104 0.038056
0.373892 0.390707 0.0376898
0.403113 0.390326 0.0373236
0.432364 0.389975 0.0369879
0.461662 0.38967 0.0366979
0.49099 0.389395 0.0364538
0.520546 0.38938 0.0364385
0.549889 0.389136 0.0362097
0.579278 0.388922 0.0360113
0.608698 0.388754 0.0358587
0.638148 0.388617 0.0357366
0.667643 0.38854 0.0356603
0.697307 0.388617 0.0357519
0.726818 0.38854 0.0356909
0.756359 0.38851 0.0356603
0.785931 0.388495 0.0356603
0.815503 0.388495 0.0356756
0.845182 0.388602 0.0357824
0.874952 0.3888 0.035996
0.904601 0.388891 0.0360876
0.934279 0.388998 0.0361944
0.963958 0.389105 0.0363165
0.993667 0.389242 0.0364538
1 0.38967 0.0368658
1 0.389853 0.0370794
1 0.390082 0.0372931
0.137575 0.422827 0.0379492
0.16669 0.422339 0.0374762
0.195804 0.421851 0.0370031
0.224964 0.421393 0.0365759
0.25417 0.420996 0.0361944
0.283391 0.4206 0.0358282
0.31281 0.420447 0.0356756
0.342092 0.420127 0.0353704
0.371405 0.419837 0.0350958
0.400732 0.419577 0.0348516
0.430076 0.419318 0.0346227
0.459434 0.419089 0.0343938
0.489052 0.41912 0.0344396
0.518486 0.418967 0.0343023
0.547951 0.418845 0.0341802
0.577417 0.418723 0.0340734
0.606897 0.418616 0.0339971
0.636637 0.418799 0.0341802
0.666194 0.418769 0.034165
0.695766 0.418769 0.034165
0.725353 0.418769 0.0341802
0.754955 0.418799 0.0342107
0.784604 0.418891 0.0343023
0.814481 0.419196 0.0346227
0.84416 0.419318 0.0347448
0.873854 0.41944 0.0348669
0.903563 0.419577 0.0350195
0.933303 0.41976 0.0352026
0.963134 0.420035 0.0354772
0.993103 0.420432 0.035874
1 0.420661 0.0361028
1 0.420905 0.0363622
1 0.421195 0.0366522
0.134676 0.451514 0.0349279
0.163882 0.451118 0.0345464
0.193103 0.450736 0.0341802
0.222339 0.45037 0.0338445
0.251759 0.450202 0.0336919
0.281163 0.450004 0.0335088
0.310491 0.449744 0.0332647
0.339834 0.4495 0.0330205
0.369207 0.449287 0.0328222
0.398627 0.449104 0.0326543
0.42826 0.449165 0.0327153
0.45774 0.449073 0.032639
0.487221 0.448951 0.0325322
0.516716 0.448859 0.0324559
0.546242 0.448814 0.0324254
0.575814 0.448798 0.0324254
0.605615 0.449042 0.0326696
0.635203 0.449058 0.0326848
0.66482 0.449088 0.0327306
0.694469 0.449165 0.0328222
0.724132 0.449271 0.032929
0.753826 0.449378 0.033051
0.783749 0.44976 0.0334173
0.813474 0.449912 0.0335699
0.843229 0.450111 0.0337682
0.872999 0.450324 0.0339971
0.902785 0.450538 0.0342107
0.932616 0.450813 0.0345006
0.962631 0.451286 0.0349584
0.992493 0.451591 0.0352636
1 0.451896 0.0355688
1 0.452216 0.0358892
1 0.452552 0.0362249
0.132082 0.480522 0.0322118
0.161364 0.480217 0.0319371
0.190692 0.479957 0.0316777
0.220157 0.479835 0.0315709
0.249607 0.479683 0.0314488
0.278996 0.479484 0.0312505
0.308415 0.479316 0.0310979
0.337865 0.479179 0.0309758
0.36733 0.479057 0.030869
0.396979 0.479133 0.0309453
0.426535 0.479118 0.0309453
0.456077 0.479088 0.0309148
0.485649 0.479072 0.0309148
0.515236 0.479072 0.03093
0.544823 0.479088 0.0309453
0.574685 0.479393 0.0312505
0.604349 0.479484 0.0313573
0.634028 0.479591 0.0314641
0.663706 0.479698 0.0315862
0.693416 0.479835 0.0317235
0.723354 0.480232 0.0321202
0.75314 0.480461 0.0323491
0.782925 0.480674 0.032578
0.812711 0.480903 0.0327916
0.842512 0.481147 0.033051
0.872343 0.481422 0.0333257
0.902449 0.481971 0.033875
0.932311 0.482292 0.0341955
0.962188 0.482612 0.0345159
0.992081 0.482948 0.0348516
1 0.48333 0.0352331
1 0.483742 0.0356451
1 0.484382 0.0362707
0.129809 0.509865 0.0298466
0.159152 0.509636 0.029633
0.188769 0.509682 0.0296941
0.218204 0.509544 0.0295567
0.247669 0.509407 0.0294347
0.277134 0.509285 0.0293278
0.306615 0.509194 0.0292363
0.336248 0.509255 0.0292973
0.365927 0.509361 0.0294194
0.395499 0.509346 0.0294194
0.425086 0.509346 0.0294347
0.454688 0.509377 0.0294652
0.484321 0.509453 0.0295415
0.514153 0.509712 0.0298161
0.543908 0.509896 0.0300145
0.573602 0.510018 0.0301366
0.603311 0.51017 0.0302892
0.633051 0.510353 0.0304723
0.662837 0.510567 0.0306859
0.692805 0.510994 0.0311131
0.722637 0.511254 0.0313878
0.752453 0.511513 0.0316472
0.7823 0.511803 0.0319371
0.812161 0.512108 0.0322423
0.842039 0.512428 0.0325628
0.87216 0.513008 0.0331426
0.902052 0.513359 0.0334936
0.931991 0.513741 0.033875
0.961944 0.514138 0.0342718
0.991897 0.514549 0.0346685
1 0.514961 0.0350805
1 0.515663 0.0357671
1 0.516121 0.0362249
0.12784 0.539574 0.0278172
0.157473 0.539635 0.0278935
0.186938 0.539528 0.0277867
0.216434 0.539437 0.0277104
0.245975 0.539391 0.0276799
0.275547 0.539376 0.0276799
0.305211 0.539467 0.0277714
0.334936 0.539635 0.0279393
0.364553 0.539681 0.0280003
0.394202 0.539757 0.0280766
0.42388 0.539864 0.0281987
0.453559 0.539971 0.0283055
0.483391 0.540246 0.0285801
0.513222 0.540505 0.0288548
0.542977 0.540703 0.0290532
0.572747 0.540917 0.0292668
0.602533 0.541146 0.0294957
0.632334 0.541375 0.0297246
0.662394 0.541894 0.0302434
0.692256 0.542199 0.0305486
0.722118 0.542504 0.0308537
0.751995 0.542824 0.0311742
0.781888 0.54316 0.0315099
0.811978 0.543709 0.0320592
0.841978 0.544167 0.032517
0.871931 0.544564 0.0329137
0.901884 0.544976 0.0333257
0.931853 0.545403 0.0337377
0.961852 0.545846 0.0341955
0.992081 0.546548 0.0348821
1 0.547051 0.0353857
1 0.547524 0.0358587
1 0.548028 0.0363622
0.126284 0.569696 0.0261997
0.15581 0.569665 0.0261692
0.185382 0.56965 0.0261845
0.214969 0.56965 0.0261845
0.244556 0.569665 0.026215
0.274418 0.56997 0.0265202
0.304082 0.570062 0.0266117
0.333761 0.570184 0.0267338
0.363455 0.570291 0.0268559
0.393149 0.570428 0.0269932
0.422965 0.570672 0.0272526
0.452903 0.571054 0.0276341
0.482673 0.571267 0.0278477
0.512459 0.571496 0.0280766
0.54226 0.57174 0.0283207
0.572106 0.57203 0.0286107
0.602075 0.572457 0.0290379
0.632074 0.5729 0.0294804
0.661952 0.57322 0.0298009
0.691844 0.573571 0.0301518
0.721767 0.573938 0.030518
0.75172 0.574334 0.0309148
0.781826 0.574914 0.0314794
0.811872 0.575402 0.0319829
0.841856 0.57583 0.0324102
0.871855 0.576288 0.0328679
0.901869 0.576761 0.0333257
0.931899 0.577249 0.0337987
0.962127 0.577951 0.0345006
0.992218 0.5785 0.03505
1 0.579019 0.0355688
1 0.579568 0.0361028
1 0.580102 0.0366369
0.124834 0.599924 0.0246891
0.154421 0.59997 0.0247349
0.18407 0.600031 0.0248112
0.213748 0.600137 0.024918
0.243641 0.600488 0.0252842
0.273335 0.60061 0.0254063
0.303059 0.600763 0.0255589
0.332799 0.600946 0.0257572
0.362585 0.60116 0.0259709
0.392416 0.601434 0.0262303
0.422385 0.601862 0.0266728
0.452201 0.602121 0.0269322
0.482048 0.602411 0.0272221
0.511925 0.602716 0.0275273
0.541787 0.603037 0.0278477
0.571771 0.603464 0.028275
0.601831 0.603983 0.0287785
0.631754 0.604364 0.02916
0.661707 0.604761 0.0295567
0.691661 0.605158 0.0299687
0.72163 0.605585 0.0303807
0.751858 0.606287 0.0310674
0.781872 0.606744 0.0315404
0.811887 0.607217 0.0319982
0.841901 0.607706 0.0324865
0.871946 0.608194 0.0329747
0.902129 0.60885 0.0336156
0.932311 0.609506 0.0342718
0.962402 0.61004 0.0348058
0.992477 0.61059 0.0353399
1 0.611139 0.0358892
1 0.611704 0.0364538
1 0.612497 0.037232
0.123629 0.630442 0.0234531
0.153307 0.630564 0.0235752
0.183001 0.630701 0.0237125
0.212955 0.631098 0.0241245
0.242725 0.631296 0.0243229
0.272511 0.631525 0.0245518
0.302281 0.631739 0.0247654
0.332082 0.631983 0.0250095
0.362158 0.632502 0.0255283
0.392004 0.632792 0.0258335
0.421881 0.633112 0.026154
0.451759 0.633433 0.0264744
0.481636 0.633768 0.0268101
0.511589 0.634165 0.0271916
0.541741 0.634775 0.0278172
0.571694 0.635187 0.0282139
0.601648 0.635599 0.0286259
0.631617 0.636011 0.0290379
0.661616 0.636469 0.0294804
0.691707 0.637018 0.0300298
0.721889 0.637675 0.0306859
0.751919 0.638163 0.0311589
0.781964 0.638651 0.0316625
0.812024 0.63917 0.0321813
0.8421 0.639719 0.0327153
0.872297 0.640375 0.0333715
0.902525 0.641062 0.0340429
0.932616 0.641627 0.0346075
0.962737 0.642206 0.035172
0.992859 0.642802 0.0357519
1 0.643397 0.036347
1 0.64416 0.0371099
1 0.644862 0.0377966
0.122652 0.661204 0.022446
0.152605 0.661616 0.0228733
0.182422 0.661875 0.0231327
0.212207 0.662104 0.0233616
0.242023 0.662348 0.0236057
0.271855 0.662638 0.0238956
0.301717 0.662928 0.0242008
0.331838 0.663508 0.0247654
0.361715 0.663828 0.0250858
0.391608 0.664179 0.0254368
0.421546 0.664561 0.0258183
0.451484 0.664958 0.026215
0.481437 0.665354 0.0266117
0.511635 0.666026 0.0272679
0.541619 0.666453 0.0276951
0.571618 0.666911 0.0281529
0.601648 0.667384 0.0286259
0.631662 0.667872 0.029099
0.661753 0.668406 0.0296483
0.691997 0.669123 0.0303502
0.722057 0.669657 0.030869
0.752148 0.670192 0.0314031
0.782223 0.670741 0.0319524
0.812314 0.67129 0.0324865
0.842664 0.672114 0.0333104
0.872786 0.672709 0.0338903
0.902922 0.673289 0.0344701
0.933043 0.673884 0.0350652
0.96318 0.674495 0.0356603
0.993423 0.675196 0.0363622
1 0.676005 0.0371557
1 0.676631 0.0377661
1 0.677256 0.0383917
0.122103 0.692409 0.0218967
0.151965 0.692729 0.0222019
0.181811 0.693019 0.0225071
0.211673 0.693324 0.0228122
0.24155 0.693645 0.0231327
0.271443 0.69398 0.0234684
0.301579 0.694591 0.0240787
0.331518 0.694972 0.0244602
0.361471 0.695384 0.0248569
0.391424 0.695781 0.0252537
0.421393 0.696193 0.0256809
0.451606 0.696895 0.0263523
0.481636 0.697368 0.0268406
0.511666 0.697841 0.0273136
0.54168 0.698329 0.0277867
0.571725 0.698817 0.028275
0.60177 0.699336 0.0287938
0.63209 0.70013 0.029572
0.662181 0.700664 0.0301061
0.692256 0.701213 0.0306554
0.722362 0.701778 0.0312047
0.752468 0.702342 0.0317693
0.78262 0.702968 0.0323796
0.81297 0.703792 0.0332036
0.843107 0.704387 0.0337835
0.873243 0.704997 0.0343938
0.903395 0.705608 0.0350042
0.933562 0.706249 0.0356146
0.963806 0.70695 0.0363165
0.994141 0.707774 0.0371405
1 0.708415 0.0377661
1 0.709072 0.038407
1 0.709728 0.0390631
0.121645 0.72372 0.0214389
0.151507 0.724041 0.0217594
0.181399 0.724376 0.0220951
0.211322 0.724743 0.0224613
0.241428 0.725322 0.0230259
0.271458 0.725811 0.0235142
0.301411 0.726207 0.0239109
0.331395 0.726635 0.0243381
0.361395 0.727092 0.0247959
0.391409 0.727565 0.0252537
0.421637 0.728267 0.0259556
0.451698 0.728786 0.0264744
0.481743 0.72929 0.0269627
0.511803 0.729809 0.0274815
0.541894 0.730343 0.0280156
0.571969 0.730892 0.0285496
0.602304 0.731701 0.0293584
0.632395 0.732265 0.0299077
0.662516 0.732845 0.0304875
0.692653 0.73344 0.0310674
0.722774 0.73402 0.0316625
0.752911 0.73463 0.0322576
0.783307 0.7355 0.0331121
0.813458 0.736126 0.0337377
0.843626 0.736751 0.0343481
0.873793 0.737392 0.0349889
0.90396 0.738018 0.0356146
0.934386 0.738933 0.0365148
0.964584 0.73959 0.0371557
0.994766 0.740246 0.0377966
1 0.740902 0.0384527
1 0.741558 0.0391089
1 0.742275 0.0398108
0.121324 0.755169 0.0211032
0.151247 0.755566 0.0215
0.181201 0.755978 0.021912
0.211307 0.756542 0.0224613
0.241398 0.757076 0.0229953
0.271397 0.757534 0.0234684
0.301411 0.758007 0.0239261
0.331441 0.758495 0.0244144
0.361471 0.758984 0.0249027
0.391775 0.759747 0.0256504
0.421836 0.760281 0.0261845
0.451926 0.76083 0.0267185
0.482002 0.761364 0.0272526
0.512093 0.761913 0.0278019
0.542397 0.762692 0.0285649
0.572564 0.763333 0.0292058
0.602701 0.763928 0.0297856
0.632822 0.764523 0.0303807
0.662974 0.765133 0.0309758
0.693126 0.765743 0.0315862
0.723507 0.766613 0.0324407
0.753689 0.767269 0.0330816
0.783856 0.76791 0.0337224
0.814038 0.768536 0.0343481
0.844221 0.769192 0.0349889
0.874403 0.769848 0.0356298
0.904845 0.770764 0.0365454
0.935027 0.77142 0.0372015
0.965225 0.772091 0.0378576
0.995422 0.772747 0.0384985
1 0.773419 0.0391699
1 0.774121 0.0398566
1 0.775021 0.0407568
0.121172 0.786816 0.0209659
0.151232 0.78735 0.0215
0.181415 0.787991 0.0221408
0.211429 0.788464 0.0226139
0.241459 0.788952 0.0230869
0.271504 0.789441 0.0235752
0.301549 0.78996 0.024094
0.331746 0.790631 0.0247501
0.361959 0.791302 0.0254215
0.392035 0.791852 0.0259556
0.422141 0.792401 0.0265049
0.452247 0.792981 0.0270848
0.482368 0.793561 0.0276646
0.512673 0.794339 0.0284276
0.542885 0.795026 0.029099
0.573022 0.795636 0.0296941
0.603189 0.796246 0.0303197
0.633341 0.796887 0.03093
0.663508 0.797513 0.0315557
0.693889 0.798383 0.0324102
0.724102 0.799054 0.0330816
0.754284 0.79971 0.0337224
0.784482 0.800366 0.0343786
0.814664 0.801022 0.0350195
0.844862 0.801678 0.0356756
0.875303 0.802609 0.0365911
0.905501 0.803281 0.0372473
0.935699 0.803952 0.0379187
0.965896 0.804623 0.0385748
0.996094 0.80528 0.0392309
1 0.806226 0.0401617
1 0.806882 0.0408179
1 0.807553 0.041474
0.121263 0.818723 0.021088
0.151476 0.819409 0.0217746
0.181521 0.819913 0.0222629
0.211582 0.820432 0.0227817
0.241657 0.820981 0.0233158
0.271748 0.821515 0.0238651
0.30193 0.822171 0.024506
0.332189 0.822889 0.0252232
0.36231 0.823484 0.025803
0.392432 0.824063 0.0263828
0.422553 0.824659 0.026978
0.452705 0.825269 0.0275731
0.483085 0.826139 0.0284276
0.513252 0.826764 0.0290532
0.54342 0.82739 0.0296788
0.573587 0.828031 0.0302892
0.603754 0.828672 0.03093
0.634073 0.829465 0.0317082
0.664363 0.830228 0.0324712
0.69456 0.830884 0.0331273
0.724743 0.83154 0.0337682
0.75494 0.832212 0.0344244
0.785138 0.832868 0.0350805
0.815518 0.833738 0.035935
0.845777 0.83447 0.0366674
0.875975 0.835142 0.0373236
0.906172 0.835813 0.0379797
0.93637 0.836484 0.0386358
0.966583 0.83714 0.0393072
0.997009 0.838071 0.0402075
1 0.838743 0.0408789
1 0.839414 0.0415351
1 0.84007 0.0421912
0.12163 0.850904 0.0214847
0.151705 0.851453 0.0220188
0.181781 0.852003 0.0225681
0.211872 0.852552 0.0231022
0.242023 0.853162 0.0237125
0.272358 0.853971 0.0245212
0.30248 0.854566 0.0251011
0.332616 0.855161 0.0256962
0.362753 0.855772 0.0262913
0.392905 0.856382 0.0269017
0.423148 0.857099 0.0276036
0.453483 0.857908 0.0284123
0.48365 0.858534 0.0290379
0.513817 0.859174 0.0296635
0.543999 0.859831 0.0303044
0.574182 0.860487 0.0309453
0.604501 0.86128 0.0317388
0.634821 0.862058 0.032517
0.665019 0.86273 0.0331731
0.695216 0.863401 0.0338293
0.725399 0.864057 0.0344854
0.755611 0.864729 0.0351415
0.785977 0.865583 0.0359808
0.816251 0.866331 0.0367285
0.846464 0.867002 0.0373846
0.876661 0.867674 0.038056
0.906859 0.868345 0.0387121
0.937041 0.869001 0.0393683
0.967498 0.869932 0.0402838
0.997681 0.870588 0.0409247
1 0.871244 0.0415656
1 0.8719 0.0422217
1 0.872541 0.0428473
0.121935 0.88304 0.0218204
0.152041 0.883619 0.022385
0.182162 0.884199 0.0229801
0.212299 0.88481 0.0235752
0.242664 0.885664 0.0244144
0.272816 0.886275 0.0250248
0.302968 0.886885 0.0256352
0.333135 0.887526 0.0262608
0.363302 0.888151 0.0268864
0.39353 0.888853 0.0275578
0.423896 0.889693 0.028397
0.454078 0.890349 0.0290532
0.48426 0.891005 0.0296941
0.514458 0.891661 0.0303502
0.54464 0.892317 0.0309911
0.575097 0.893248 0.0319066
0.605295 0.893919 0.032578
0.635493 0.894591 0.0332341
0.66569 0.895262 0.0338903
0.695888 0.895933 0.0345617
0.726177 0.896696 0.0353094
0.756542 0.897536 0.0361334
0.78674 0.898207 0.0368048
0.816938 0.898863 0.0374609
0.84712 0.899535 0.038117
0.877317 0.900191 0.0387579
0.907652 0.900999 0.0395514
0.937942 0.901762 0.0403143
0.968124 0.902419 0.0409552
0.998291 0.903059 0.0415961
1 0.903685 0.0422217
