assets/cube/VINTAGE.cube
TITLE "Generated by Resolve"
LUT_3D_SIZE 9
0.262837 0.207691 0.168963
0.36759 0.193133 0.154818
0.47155 0.177691 0.139818
0.575036 0.161761 0.124331
0.678508 0.145815 0.108812
0.782498 0.130404 0.093843
0.887572 0.116167 0.0800183
0.994797 0.104265 0.068452
1 0.0959182 0.0603494
0.208667 0.276646 0.112291
0.312276 0.260853 0.0969406
0.416571 0.245792 0.0823072
0.522377 0.232349 0.0692302
0.630518 0.221393 0.0586099
0.742123 0.214191 0.0516213
0.857664 0.211215 0.0487678
0.974502 0.209628 0.0472419
1 0.20853 0.0462043
0.157504 0.348837 0.0587625
0.266926 0.339315 0.0495155
0.379751 0.333394 0.0437934
0.496117 0.331304 0.0417945
0.613138 0.329915 0.0404669
0.730373 0.328771 0.0393835
0.848234 0.328283 0.038941
0.966461 0.328191 0.0388952
1 0.32845 0.0391852
0.134676 0.451514 0.0349279
0.251759 0.450202 0.0336919
0.369207 0.449287 0.0328222
0.487221 0.448951 0.0325322
0.605615 0.449042 0.0326696
0.724132 0.449271 0.032929
0.843229 0.450111 0.0337682
0.962631 0.451286 0.0349584
1 0.452552 0.0362249
0.126284 0.569696 0.0261997
0.244556 0.569665 0.026215
0.363455 0.570291 0.0268559
0.482673 0.571267 0.0278477
0.602075 0.572457 0.0290379
0.721767 0.573938 0.030518
0.841856 0.57583 0.0324102
0.962127 0.577951 0.0345006
1 0.580102 0.0366369
0.122103 0.692409 0.0218967
0.24155 0.693645 0.0231327
0.361471 0.695384 0.0248569
0.481636 0.697368 0.0268406
0.60177 0.699336 0.0287938
0.722362 0.701778 0.0312047
0.843107 0.704387 0.0337835
0.963806 0.70695 0.0363165
1 0.709728 0.0390631
0.121263 0.818723 0.021088
0.241657 0.820981 0.0233158
0.36231 0.823484 0.025803
0.483085 0.826139 0.0284276
0.603754 0.828672 0.03093
0.724743 0.83154 0.0337682
0.845777 0.83447 0.0366674
0.966583 0.83714 0.0393072
1 0.84007 0.0421912
0.122866 0.947646 0.0228275
0.243793 0.950469 0.0256199
0.364797 0.953368 0.0284886
0.485603 0.956054 0.0311437
0.606638 0.958984 0.0340276
0.727657 0.961883 0.0368811
0.8486 0.964706 0.0396887
0.969192 0.967163 0.0421149
1 0.969741 0.0446632
0.125673 1 0.0258488
0.246708 1 0.028748
0.367697 1 0.0315862
0.48835 1 0.0340887
0.60914 1 0.0367132
0.729793 1 0.0392004
0.850233 1 0.041474
0.970275 1 0.0433204
1 1 0.0451514
0.25774 0.202213 0.287465
0.362509 0.187671 0.27332
0.466194 0.171939 0.25803
0.569574 0.155886 0.242435
0.673198 0.140078 0.22707
0.777493 0.125017 0.212421
0.883223 0.111482 0.199283
0.991272 0.100465 0.188571
1 0.0932784 0.181613
0.20325 0.270817 0.230442
0.306966 0.255131 0.215198
0.411719 0.240558 0.201038
0.518318 0.22797 0.1888
0.627665 0.218326 0.179446
0.740383 0.212314 0.173617
0.856718 0.210178 0.171588
0.973724 0.208774 0.170245
1 0.20763 0.169162
0.153582 0.344625 0.178485
0.26421 0.336385 0.170489
0.378607 0.332174 0.166415
0.495262 0.330388 0.164721
0.612421 0.329137 0.163546
0.729778 0.32813 0.162585
0.847776 0.327794 0.162295
0.966171 0.327871 0.162417
1 0.328084 0.162661
0.133883 0.45066 0.157916
0.25098 0.449363 0.156695
0.368704 0.448722 0.156115
0.486824 0.448524 0.155947
0.605112 0.448493 0.155962
0.723995 0.449104 0.156588
0.843214 0.45008 0.15758
0.962722 0.451377 0.158877
1 0.452735 0.160235
0.125963 0.569345 0.149676
0.244358 0.569436 0.149813
0.363348 0.570169 0.150561
0.482673 0.571267 0.151675
0.602075 0.572442 0.15285
0.721996 0.574166 0.154574
0.842145 0.57615 0.156542
0.962432 0.578271 0.158633
1 0.580545 0.160891
0.122103 0.692393 0.145708
0.241688 0.693782 0.147097
0.3617 0.695613 0.148913
0.481926 0.697673 0.150958
0.602167 0.699748 0.153017
0.722805 0.702251 0.155489
0.843595 0.704906 0.158114
0.964248 0.707424 0.160616
1 0.710307 0.163455
0.121553 0.819013 0.145205
0.242069 0.821408 0.14757
0.362768 0.823972 0.150103
0.483436 0.826505 0.152621
0.604288 0.829236 0.155306
0.725292 0.832135 0.158175
0.846265 0.834989 0.160998
0.967132 0.837736 0.163714
1 0.84065 0.166583
0.123384 0.948196 0.147204
0.244343 0.951049 0.150011
0.365362 0.953964 0.152895
0.486152 0.956634 0.155535
0.607202 0.959564 0.158434
0.728191 0.962448 0.161273
0.84889 0.965026 0.163821
0.96965 0.967651 0.166415
1 0.970169 0.168902
0.126238 1 0.150256
0.247257 1 0.15314
0.368215 1 0.155962
0.488853 1 0.158419
0.609598 1 0.161013
0.730175 1 0.163424
0.850324 1 0.165393
0.97052 1 0.167391
1 1 0.169162
0.252857 0.196948 0.406165
0.357244 0.181994 0.391638
0.460792 0.16611 0.376196
0.564172 0.150057 0.360601
0.667918 0.134417 0.345388
0.77261 0.119768 0.331151
0.879149 0.107103 0.318853
0.988388 0.0973526 0.309392
1 0.09131 0.303532
0.19791 0.265064 0.348669
0.301854 0.249638 0.333684
0.40705 0.235538 0.319982
0.514382 0.223728 0.308522
0.62504 0.215503 0.300526
0.739223 0.211063 0.296239
0.855863 0.209262 0.29453
0.973007 0.207996 0.293339
1 0.206973 0.292378
0.150195 0.340963 0.298756
0.261921 0.333913 0.29192
0.377615 0.33109 0.289204
0.494469 0.329534 0.287724
0.611582 0.328237 0.286503
0.729274 0.327565 0.285893
0.847379 0.327352 0.285725
0.965759 0.327428 0.285832
1 0.327932 0.286351
0.132982 0.449683 0.280812
0.250355 0.448692 0.279881
0.368246 0.448218 0.279469
0.486503 0.448173 0.279438
0.604898 0.448264 0.279576
0.723888 0.448981 0.280308
0.843198 0.450065 0.281407
0.9626 0.45124 0.282582
1 0.452949 0.284291
0.125429 0.568765 0.272969
0.24419 0.569253 0.273487
0.363287 0.570108 0.274357
0.482719 0.571313 0.275563
0.602213 0.57258 0.276829
0.722225 0.574395 0.278645
0.842466 0.576486 0.280705
0.962676 0.578515 0.282734
1 0.581018 0.285191
0.122072 0.692363 0.269505
0.241871 0.69398 0.271138
0.361959 0.695888 0.27303
0.482048 0.697795 0.274922
0.602564 0.700175 0.277272
0.723262 0.702739 0.279805
0.844099 0.70544 0.28249
0.964782 0.707988 0.285008
1 0.710887 0.287877
0.12192 0.819394 0.269429
0.242481 0.821851 0.271839
0.363241 0.82446 0.274434
0.483864 0.826963 0.276905
0.604822 0.829816 0.279713
0.725856 0.832731 0.282597
0.846769 0.835523 0.285359
0.967697 0.838331 0.288136
1 0.841215 0.290974
0.123903 0.948745 0.27158
0.244892 0.951629 0.274434
0.365866 0.954498 0.277256
0.486717 0.957244 0.279957
0.607752 0.960159 0.282841
0.72871 0.963012 0.285664
0.849348 0.965499 0.288136
0.970092 0.968124 0.290715
1 0.970565 0.293141
0.126802 1 0.274693
0.247791 1 0.277546
0.368536 1 0.280125
0.489326 1 0.28275
0.610025 1 0.285298
0.730449 1 0.287556
0.850629 1 0.28954
0.970718 1 0.291447
1 1 0.293141
0.247929 0.191638 0.524834
0.351843 0.176181 0.509819
0.455329 0.16025 0.494331
0.558816 0.144305 0.478828
0.662806 0.128908 0.463874
0.76791 0.114717 0.450065
0.875196 0.102846 0.438544
0.985809 0.0945754 0.430533
1 0.0899672 0.426062
0.192584 0.259342 0.466941
0.29691 0.244312 0.452338
0.402747 0.2309 0.439307
0.510933 0.22002 0.428748
0.622599 0.212879 0.42182
0.738216 0.209979 0.419028
0.855055 0.208392 0.417517
0.972305 0.207248 0.416434
1 0.206409 0.415671
0.147356 0.337911 0.419623
0.260273 0.332128 0.414038
0.376669 0.330068 0.412055
0.49369 0.328679 0.410742
0.610941 0.32755 0.409674
0.728817 0.327062 0.409247
0.847059 0.327001 0.409216
0.965484 0.327123 0.409384
1 0.327794 0.410056
0.132235 0.448859 0.403861
0.24979 0.448066 0.403113
0.367803 0.447745 0.402838
0.486091 0.44773 0.402853
0.60473 0.448081 0.403235
0.723827 0.44892 0.404105
0.843244 0.450111 0.405295
0.962737 0.451377 0.406561
1 0.453193 0.408362
0.12517 0.568475 0.396521
0.244053 0.5691 0.397177
0.363287 0.570092 0.398169
0.482582 0.57116 0.399252
0.602396 0.572763 0.400854
0.722469 0.57467 0.402747
0.842634 0.576654 0.404715
0.963073 0.578943 0.406989
1 0.581506 0.409522
0.122179 0.69247 0.393469
0.242084 0.694209 0.395193
0.362264 0.696208 0.397177
0.482399 0.698177 0.39913
0.602991 0.700618 0.401556
0.723735 0.703243 0.404135
0.844358 0.705715 0.406607
0.965331 0.708568 0.409415
1 0.711482 0.412299
0.122301 0.819821 0.393668
0.242939 0.822324 0.396155
0.363729 0.824994 0.398779
0.484382 0.827512 0.401282
0.605371 0.830396 0.40412
0.726421 0.833326 0.407019
0.847211 0.835996 0.409659
0.968246 0.838911 0.412543
1 0.841779 0.415366
0.124437 0.949325 0.395987
0.245441 0.952224 0.39884
0.366232 0.954894 0.40148
0.487282 0.957839 0.404379
0.608286 0.960723 0.407248
0.729198 0.963531 0.41001
0.849821 0.966003 0.412467
0.97052 0.968582 0.415
1 0.970962 0.417365
0.127352 1 0.3991
0.248341 1 0.401953
0.368978 1 0.40444
0.489769 1 0.407065
0.610422 1 0.409552
0.730724 1 0.411688
0.850904 1 0.413657
0.970916 1 0.415488
1 1 0.41706
0.242832 0.18616 0.643351
0.346487 0.170413 0.628046
0.449882 0.154376 0.612451
0.553491 0.138582 0.597086
0.657801 0.123507 0.582452
0.763592 0.110048 0.569375
0.871702 0.0990921 0.558724
0.983291 0.0918593 0.55172
1 0.0888685 0.548837
0.187243 0.25359 0.585184
0.292058 0.239094 0.571084
0.398703 0.226535 0.558907
0.50811 0.216983 0.549615
0.620905 0.211048 0.543877
0.73727 0.208942 0.541863
0.854276 0.207553 0.540551
0.971527 0.206394 0.539467
1 0.205905 0.539025
0.144686 0.335042 0.540673
0.259159 0.330922 0.536706
0.37583 0.329152 0.535012
0.492943 0.327871 0.533806
0.610361 0.326909 0.532891
0.728359 0.326589 0.532616
0.846754 0.326665 0.532738
0.965286 0.326894 0.532998
1 0.327733 0.533837
0.131563 0.448142 0.526986
0.249271 0.447517 0.526421
0.367407 0.447318 0.526268
0.485695 0.447303 0.526284
0.604593 0.447913 0.526925
0.723812 0.448905 0.527916
0.843244 0.450111 0.529137
0.962905 0.45156 0.530587
1 0.453452 0.532464
0.124956 0.568246 0.52015
0.243946 0.568978 0.520897
0.363272 0.570077 0.521996
0.482689 0.571267 0.523201
0.602609 0.572992 0.524926
0.722774 0.57499 0.526894
0.842924 0.576974 0.528862
0.963485 0.579385 0.531258
1 0.581994 0.533837
0.122316 0.692622 0.517449
0.242313 0.694438 0.519265
0.362432 0.696376 0.521187
0.482795 0.698589 0.523384
0.603433 0.701091 0.525856
0.724224 0.703761 0.528496
0.844877 0.706279 0.530983
0.965866 0.709163 0.533822
1 0.712077 0.536721
0.122713 0.820249 0.517937
0.243397 0.822812 0.52047
0.363989 0.825254 0.522896
0.484916 0.828077 0.525673
0.605936 0.830976 0.528542
0.726772 0.833707 0.531243
0.847776 0.836591 0.534081
0.96878 0.83949 0.53695
1 0.842313 0.539742
0.124987 0.949905 0.520394
0.245991 0.952819 0.523262
0.366796 0.955489 0.525917
0.487831 0.958419 0.528801
0.60882 0.961303 0.53164
0.729488 0.963821 0.534142
0.850278 0.966491 0.536782
0.970932 0.969009 0.539269
1 0.971328 0.541558
0.127901 1 0.523522
0.248844 1 0.526314
0.369482 1 0.528786
0.490227 1 0.53138
0.610803 1 0.533791
0.730953 1 0.53576
0.851133 1 0.537743
0.971084 1 0.539498
1 1 0.540856
0.237507 0.180423 0.761608
0.341085 0.164599 0.746212
0.444465 0.148547 0.730617
0.548196 0.132876 0.715373
0.652934 0.118288 0.701198
0.759518 0.105669 0.688945
0.868849 0.0960098 0.679561
0.981537 0.0899672 0.673716
1 0.0878462 0.671687
0.182162 0.248112 0.703685
0.287404 0.234073 0.690059
0.394781 0.222324 0.67863
0.505409 0.214069 0.670634
0.619776 0.209812 0.666529
0.736416 0.208026 0.66482
0.853574 0.206775 0.66363
0.970932 0.205768 0.662684
1 0.205417 0.662394
0.142428 0.332601 0.662135
0.258152 0.329839 0.659495
0.375021 0.328298 0.658015
0.492134 0.326986 0.656779
0.609842 0.32636 0.656199
0.727962 0.326146 0.656031
0.84625 0.326131 0.656046
0.965133 0.326741 0.656672
1 0.327703 0.657664
0.130953 0.447471 0.650187
0.248814 0.447013 0.649775
0.367086 0.446967 0.64976
0.485496 0.447059 0.649897
0.604486 0.447791 0.650645
0.723812 0.44889 0.651759
0.843214 0.450065 0.652934
0.963119 0.451789 0.654643
1 0.453758 0.656611
0.124804 0.568063 0.643809
0.2439 0.568933 0.644694
0.363256 0.570062 0.645823
0.482826 0.571405 0.647181
0.602838 0.573236 0.648997
0.723079 0.575311 0.651057
0.843305 0.577356 0.653086
0.963928 0.579858 0.655558
1 0.582513 0.658198
0.122499 0.692805 0.641474
0.242573 0.694713 0.643381
0.362661 0.696635 0.645274
0.483192 0.699016 0.647639
0.603891 0.701579 0.650172
0.724605 0.704158 0.652735
0.845411 0.706844 0.655375
0.96643 0.709743 0.658244
1 0.712642 0.661112
0.123125 0.820691 0.642206
0.243824 0.82327 0.644755
0.364508 0.825803 0.647272
0.485466 0.828656 0.65008
0.606485 0.831571 0.652964
0.727291 0.834257 0.655604
0.848325 0.837186 0.658503
0.969314 0.84007 0.661357
1 0.84268 0.66392
0.125536 0.950484 0.6448
0.246372 0.953216 0.647501
0.367361 0.956085 0.650339
0.48838 0.958999 0.653208
0.609354 0.961868 0.656031
0.729976 0.964355 0.658503
0.850721 0.966964 0.661082
0.971313 0.969406 0.663508
1 0.971389 0.665461
0.12845 1 0.647913
0.249119 1 0.650446
0.369955 1 0.653117
0.490654 1 0.655665
0.610941 1 0.657786
0.731243 1 0.659907
0.851331 1 0.661799
0.971237 1 0.663493
1 1 0.664836
0.232151 0.17467 0.879835
0.335622 0.158724 0.864347
0.439109 0.142794 0.848844
0.543084 0.127367 0.83386
0.648264 0.113252 0.820142
0.755581 0.101427 0.808652
0.866239 0.0932021 0.800671
0.980377 0.088716 0.796338
1 0.0869154 0.794614
0.177249 0.242832 0.822385
0.283116 0.229465 0.8094
0.391363 0.218647 0.798901
0.50309 0.211566 0.792035
0.618769 0.208728 0.789303
0.735622 0.207156 0.787808
0.852766 0.205905 0.786633
0.970413 0.205203 0.785977
1 0.20499 0.785809
0.140826 0.330877 0.784298
0.257221 0.328832 0.782345
0.374166 0.327352 0.780941
0.491508 0.326329 0.77998
0.609384 0.325856 0.779553
0.727642 0.325795 0.779538
0.846036 0.325887 0.77966
0.965026 0.326604 0.780392
1 0.327688 0.781491
0.130373 0.446845 0.773419
0.248386 0.44654 0.773159
0.366567 0.446403 0.773053
0.485328 0.446891 0.773571
0.60444 0.44773 0.774441
0.723857 0.448936 0.775631
0.843351 0.450202 0.776913
0.963348 0.452018 0.778714
1 0.454093 0.780789
0.124666 0.56791 0.767498
0.243885 0.568902 0.768505
0.363195 0.56997 0.769589
0.483009 0.571603 0.771206
0.603098 0.57351 0.773098
0.723171 0.575402 0.77499
0.843702 0.577783 0.777356
0.964401 0.580346 0.779889
1 0.583062 0.782559
0.122728 0.693034 0.765545
0.242878 0.695033 0.767529
0.363027 0.697017 0.769497
0.483619 0.699458 0.771908
0.604364 0.702083 0.774502
0.724987 0.70457 0.776974
0.84596 0.707424 0.779782
0.96698 0.710338 0.782666
1 0.713176 0.785473
0.123583 0.821164 0.766522
0.244251 0.823713 0.769039
0.365026 0.826368 0.771649
0.486015 0.829252 0.774502
0.607034 0.832151 0.777371
0.72784 0.834852 0.780026
0.848875 0.837766 0.78291
0.969848 0.84062 0.785733
1 0.843122 0.788205
0.126085 0.951064 0.769223
0.246876 0.95375 0.771862
0.367926 0.95668 0.774762
0.48893 0.959579 0.777615
0.609705 0.962234 0.78024
0.730449 0.964843 0.782834
0.851148 0.967422 0.785367
0.971618 0.969741 0.787671
1 0.97171 0.789624
0.128908 1 0.772229
0.249622 1 0.774807
0.370413 1 0.777432
0.491051 1 0.779919
0.611261 1 0.781949
0.731517 1 0.784024
0.85153 1 0.78584
0.971176 1 0.787274
1 1 0.788815
0.226795 0.168902 0.998062
0.330175 0.152865 0.982467
0.433799 0.137072 0.967117
0.538125 0.122026 0.952499
0.643961 0.108614 0.939467
0.752132 0.0977188 0.928878
0.863783 0.090547 0.921935
0.97937 0.0876326 0.919127
1 0.0860456 0.917617
0.172396 0.237613 0.941146
0.279072 0.225116 0.929
0.38854 0.21561 0.919783
0.501442 0.209781 0.914137
0.617823 0.207706 0.912154
0.734844 0.206317 0.910842
0.852094 0.205173 0.909758
0.969955 0.2047 0.909331
1 0.204623 0.9093
0.139727 0.329686 0.906981
0.256382 0.327916 0.905303
0.373404 0.326528 0.903975
0.490929 0.325689 0.903197
0.608942 0.325368 0.902922
0.727275 0.325383 0.902983
0.845884 0.325704 0.903319
0.964965 0.326543 0.904173
1 0.327733 0.905379
0.12987 0.446296 0.896727
0.24799 0.446113 0.89659
0.366293 0.446097 0.896605
0.485191 0.446723 0.897261
0.604425 0.447715 0.898253
0.723735 0.448798 0.899351
0.843534 0.450385 0.900938
0.963607 0.452293 0.902815
1 0.454307 0.90483
0.124559 0.567788 0.891234
0.243748 0.568765 0.89221
0.363302 0.570092 0.893538
0.483223 0.571817 0.895277
0.603387 0.573816 0.897261
0.723537 0.575784 0.899214
0.844114 0.578225 0.901625
0.964858 0.58085 0.904219
1 0.583337 0.906676
0.122957 0.693278 0.889632
0.242954 0.695109 0.891447
0.363424 0.697429 0.893751
0.484062 0.699931 0.896223
0.604852 0.702602 0.898863
0.725521 0.705119 0.90135
0.84651 0.708003 0.904204
0.967544 0.710933 0.907088
1 0.713603 0.909728
0.124041 0.821653 0.890837
0.244617 0.824109 0.893263
0.36556 0.826932 0.896056
0.486564 0.829831 0.898909
0.60737 0.832502 0.901564
0.728405 0.835447 0.904448
0.849424 0.838346 0.907317
0.970352 0.841169 0.910109
1 0.843626 0.912535
0.12665 0.951659 0.893645
0.24744 0.954345 0.896284
0.368475 0.957275 0.899184
0.489464 0.960159 0.902022
0.610117 0.962676 0.904509
0.730907 0.965331 0.907149
0.851545 0.967849 0.909621
0.971908 0.970031 0.911803
1 0.972 0.913741
0.129366 1 0.896559
0.250111 1 0.899168
0.370855 1 0.901747
0.491386 1 0.904097
0.611582 1 0.906111
0.731746 1 0.908095
0.851698 1 0.90985
0.971267 1 0.911208
1 1 0.912795
0.221393 0.163073 1
0.324758 0.147036 1
0.428458 0.131319 1
0.533272 0.116808 1
0.639902 0.10425 1
0.749294 0.094667 1
0.862074 0.0887007 1
0.978424 0.0865949 1
1 0.0852064 1
0.167773 0.232624 1
0.275166 0.220905 1
0.385855 0.212711 1
0.500313 0.208576 1
0.616968 0.20679 1
0.734127 0.205539 1
0.851514 0.204547 1
0.969512 0.204211 1
1 0.204303 1
0.13872 0.328603 1
0.255589 0.327062 1
0.372702 0.325765 1
0.490425 0.325139 1
0.60856 0.324941 1
0.726848 0.324926 1
0.845731 0.325551 1
0.96495 0.326513 1
1 0.327764 1
0.129412 0.445808 1
0.247608 0.445701 1
0.366079 0.445869 1
0.485084 0.446601 1
0.604425 0.447715 1
0.723827 0.44889 1
0.843748 0.450614 1
0.963897 0.452598 1
1 0.454627 1
0.124514 0.567742 1
0.243748 0.56875 1
0.363439 0.57023 1
0.483452 0.572061 1
0.603601 0.574029 1
0.723934 0.576196 1
0.844572 0.578698 1
0.965347 0.581369 1
1 0.583886 1
0.123217 0.693553 1
0.24329 0.69546 1
0.363821 0.697856 1
0.484535 0.70042 1
0.605112 0.702876 1
0.726055 0.705699 1
0.847059 0.708598 1
0.967941 0.71136 1
1 0.714199 1
0.124346 0.821973 1
0.245136 0.824659 1
0.366094 0.827512 1
0.487129 0.830427 1
0.607935 0.833097 1
0.728969 0.836027 1
0.849958 0.838911 1
0.970611 0.841428 1
1 0.844099 1
0.126955 0.951995 1
0.24799 0.95494 1
0.369009 0.957855 1
0.489982 0.960708 1
0.610605 0.963195 1
0.73135 0.965805 1
0.851942 0.968246 1
0.972076 0.97023 1
1 0.972244 1
0.129763 1 1
0.250584 1 1
0.371283 1 1
0.491554 1 1
0.611872 1 1
0.731945 1 1
0.851835 1 1
0.971405 1 1
1 1 1
