assets/cube/VINTAGE.cube
TITLE "Generated by Resolve"
LUT_3D_SIZE 5
0.262837 0.207691 0.168963
0.47155 0.177691 0.139818
0.678508 0.145815 0.108812
0.887572 0.116167 0.0800183
1 0.0959182 0.0603494
0.157504 0.348837 0.0587625
0.379751 0.333394 0.0437934
0.613138 0.329915 0.0404669
0.848234 0.328283 0.038941
1 0.32845 0.0391852
0.126284 0.569696 0.0261997
0.363455 0.570291 0.0268559
0.602075 0.572457 0.0290379
0.841856 0.57583 0.0324102
1 0.580102 0.0366369
0.121263 0.818723 0.021088
0.36231 0.823484 0.025803
0.603754 0.828672 0.03093
0.845777 0.83447 0.0366674
1 0.84007 0.0421912
0.125673 1 0.0258488
0.367697 1 0.0315862
0.60914 1 0.0367132
0.850233 1 0.041474
1 1 0.0451514
0.252857 0.196948 0.406165
0.460792 0.16611 0.376196
0.667918 0.134417 0.345388
0.879149 0.107103 0.318853
1 0.09131 0.303532
0.150195 0.340963 0.298756
0.377615 0.33109 0.289204
0.611582 0.328237 0.286503
0.847379 0.327352 0.285725
1 0.327932 0.286351
0.125429 0.568765 0.272969
0.363287 0.570108 0.274357
0.602213 0.57258 0.276829
0.842466 0.576486 0.280705
1 0.581018 0.285191
0.12192 0.819394 0.269429
0.363241 0.82446 0.274434
0.604822 0.829816 0.279713
0.846769 0.835523 0.285359
1 0.841215 0.290974
0.126802 1 0.274693
0.368536 1 0.280125
0.610025 1 0.285298
0.850629 1 0.28954
1 1 0.293141
0.242832 0.18616 0.643351
0.449882 0.154376 0.612451
0.657801 0.123507 0.582452
0.871702 0.0990921 0.558724
1 0.0888685 0.548837
0.144686 0.335042 0.540673
0.37583 0.329152 0.535012
0.610361 0.326909 0.532891
0.846754 0.326665 0.532738
1 0.327733 0.533837
0.124956 0.568246 0.52015
0.363272 0.570077 0.521996
0.602609 0.572992 0.524926
0.842924 0.576974 0.528862
1 0.581994 0.533837
0.122713 0.820249 0.517937
0.363989 0.825254 0.522896
0.605936 0.830976 0.528542
0.847776 0.836591 0.534081
1 0.842313 0.539742
0.127901 1 0.523522
0.369482 1 0.528786
0.610803 1 0.533791
0.851133 1 0.537743
1 1 0.540856
0.232151 0.17467 0.879835
0.439109 0.142794 0.848844
0.648264 0.113252 0.820142
0.866239 0.0932021 0.800671
1 0.0869154 0.794614
0.140826 0.330877 0.784298
0.374166 0.327352 0.780941
0.609384 0.325856 0.779553
0.846036 0.325887 0.77966
1 0.327688 0.781491
0.124666 0.56791 0.767498
0.363195 0.56997 0.769589
0.603098 0.57351 0.773098
0.843702 0.577783 0.777356
1 0.583062 0.782559
0.123583 0.821164 0.766522
0.365026 0.826368 0.771649
0.607034 0.832151 0.777371
0.848875 0.837766 0.78291
1 0.843122 0.788205
0.128908 1 0.772229
0.370413 1 0.777432
0.611261 1 0.781949
0.85153 1 0.78584
1 1 0.788815
0.221393 0.163073 1
0.428458 0.131319 1
0.639902 0.10425 1
0.862074 0.0887007 1
1 0.0852064 1
0.13872 0.328603 1
0.372702 0.325765 1
0.60856 0.324941 1
0.845731 0.325551 1
1 0.327764 1
0.124514 0.567742 1
0.363439 0.57023 1
0.603601 0.574029 1
0.844572 0.578698 1
1 0.583886 1
0.124346 0.821973 1
0.366094 0.827512 1
0.607935 0.833097 1
0.849958 0.838911 1
1 0.844099 1
0.129763 1 1
0.371283 1 1
0.611872 1 1
0.851835 1 1
1 1 1
